studio/assets/luts/ai-foundations.cube
TITLE "AI Foundations — Deep Tech"
# Deep indigo shadows, electric cyan highlights. Technical, cerebral mood.
# Generated by Like One Studio — cinema-grade pipeline
# Color science: lift/gamma/gain + filmic S-curve + zone tinting
LUT_3D_SIZE 9
# Domain: standard 0-1 range
DOMAIN_MIN 0.0 0.0 0.0
DOMAIN_MAX 1.0 1.0 1.0
0.220916 0.220916 0.230722
0.220916 0.220916 0.231666
0.220916 0.220916 0.234027
0.240720 0.220916 0.238171
0.336730 0.220916 0.243931
0.506725 0.220916 0.250138
0.718058 0.220916 0.254204
0.917824 0.220916 0.250561
0.986695 0.220916 0.221548
0.220916 0.220916 0.233936
0.220916 0.220916 0.234903
0.220916 0.220916 0.237276
0.245711 0.220916 0.241295
0.346543 0.220916 0.246607
0.518569 0.220916 0.251874
0.729590 0.220916 0.254451
0.923757 0.220916 0.242413
0.986695 0.220916 0.220916
0.220916 0.220916 0.241753
0.220916 0.220916 0.242636
0.221857 0.220916 0.244714
0.257634 0.220916 0.247966
0.368149 0.220919 0.251691
0.544575 0.221176 0.254272
0.754974 0.221313 0.253065
0.936285 0.220916 0.226389
0.986695 0.220916 0.220916
0.220916 0.247618 0.251841
0.220916 0.248624 0.252278
0.225302 0.250985 0.253187
0.273889 0.254677 0.254194
0.396588 0.258937 0.254280
0.577433 0.261480 0.247438
0.778485 0.257663 0.225368
0.952219 0.246427 0.220916
0.986695 0.241084 0.220916
0.220916 0.382095 0.250737
0.220916 0.382902 0.248252
0.224040 0.384631 0.242357
0.271468 0.386795 0.233102
0.396141 0.387980 0.223402
0.582622 0.385711 0.220916
0.792374 0.379864 0.220916
0.953582 0.376454 0.220916
0.986695 0.372367 0.220916
0.220916 0.586439 0.220916
0.220916 0.586346 0.220916
0.220916 0.585797 0.220916
0.237405 0.584837 0.220916
0.369486 0.583409 0.220916
0.574172 0.581469 0.220916
0.787588 0.578973 0.220916
0.951401 0.575885 0.220916
0.986695 0.572168 0.220916
0.220916 0.792342 0.220916
0.220916 0.792179 0.220916
0.220916 0.791777 0.220916
0.232795 0.791074 0.220916
0.360239 0.790027 0.220916
0.565693 0.788602 0.220916
0.781373 0.786768 0.220916
0.948509 0.784493 0.220916
0.986695 0.788544 0.220916
0.220916 0.951136 0.220916
0.220916 0.951060 0.220916
0.220916 0.950873 0.220916
0.228040 0.950716 0.220916
0.348541 0.952071 0.220916
0.554384 0.953873 0.220916
0.772635 0.956119 0.220916
0.946481 0.959969 0.220916
0.986695 0.964692 0.220916
0.220916 0.986695 0.220916
0.220916 0.986695 0.220916
0.220916 0.986695 0.220916
0.236089 0.986695 0.220916
0.377751 0.986695 0.220916
0.591248 0.986695 0.223612
0.804488 0.986695 0.239978
0.958425 0.986695 0.277495
0.986695 0.986695 0.339173
0.220916 0.220916 0.237728
0.220916 0.220916 0.238982
0.220916 0.220916 0.242071
0.241221 0.220916 0.247383
0.337745 0.220916 0.254645
0.507955 0.220916 0.262508
0.719256 0.220916 0.268129
0.918446 0.220916 0.264443
0.986695 0.220916 0.226123
0.220916 0.220916 0.241953
0.220916 0.220916 0.243205
0.220916 0.220916 0.246244
0.246215 0.220916 0.251331
0.347502 0.220916 0.258013
0.519724 0.220916 0.264779
0.730714 0.220916 0.268724
0.924328 0.220916 0.255221
0.986695 0.220916 0.222308
0.220916 0.220916 0.251908
0.220916 0.220916 0.253019
0.221929 0.220916 0.255630
0.258096 0.220916 0.259731
0.368956 0.220922 0.264535
0.545550 0.221188 0.268254
0.755930 0.221308 0.267933
0.936741 0.220916 0.234853
0.986695 0.220916 0.220916
0.220916 0.247963 0.264735
0.220916 0.248960 0.265320
0.225368 0.251298 0.266573
0.274171 0.254942 0.268111
0.397107 0.259119 0.268810
0.577708 0.261443 0.260957
0.778896 0.257465 0.233299
0.952514 0.246079 0.220916
0.986695 0.241036 0.220916
0.220916 0.382376 0.264639
0.220916 0.383162 0.261871
0.223880 0.384842 0.255156
0.271034 0.386919 0.243975
0.395774 0.387976 0.230032
0.582506 0.385531 0.220945
0.792319 0.379779 0.220916
0.953557 0.376369 0.220916
0.986695 0.372283 0.220916
0.220916 0.586493 0.220916
0.220916 0.586270 0.220916
0.220916 0.585721 0.220916
0.237361 0.584761 0.220916
0.369402 0.583333 0.220916
0.574095 0.581393 0.220916
0.787532 0.578897 0.220916
0.951375 0.575809 0.220916
0.986695 0.572092 0.220916
0.220916 0.792287 0.220916
0.220916 0.792124 0.220916
0.220916 0.791722 0.220916
0.232757 0.791018 0.220916
0.360155 0.789971 0.220916
0.565616 0.788546 0.220916
0.781316 0.786711 0.220916
0.948482 0.784437 0.220916
0.986695 0.788700 0.220916
0.220916 0.951111 0.220916
0.220916 0.951034 0.220916
0.220916 0.950847 0.220916
0.228003 0.950789 0.220916
0.348440 0.952143 0.220916
0.554289 0.953942 0.220916
0.772565 0.956186 0.220916
0.946525 0.960071 0.220916
0.986695 0.964793 0.220917
0.220916 0.986695 0.220916
0.220916 0.986695 0.220916
0.220916 0.986695 0.220916
0.236449 0.986695 0.220916
0.378401 0.986695 0.222580
0.591770 0.986695 0.232068
0.804807 0.986695 0.255593
0.958534 0.986695 0.298312
0.986695 0.986695 0.362193
0.220916 0.220916 0.261296
0.220916 0.220916 0.263261
0.220916 0.220916 0.268022
0.242456 0.220916 0.276009
0.340219 0.220916 0.286738
0.510945 0.220916 0.298531
0.722167 0.220916 0.308179
0.919954 0.220916 0.305123
0.986695 0.220916 0.253468
0.220916 0.220916 0.267841
0.220916 0.220916 0.269744
0.220924 0.220916 0.274312
0.247454 0.220916 0.281852
0.349835 0.220916 0.291726
0.522530 0.220916 0.302130
0.733448 0.220916 0.309796
0.925709 0.220916 0.294699
0.986695 0.220916 0.243827
0.220916 0.220916 0.282702
0.220916 0.220916 0.284339
0.222114 0.220916 0.288192
0.259219 0.220916 0.294298
0.370911 0.220934 0.301735
0.547917 0.221215 0.308466
0.758252 0.221291 0.311124
0.937844 0.220916 0.268389
0.986695 0.220916 0.225669
0.220916 0.248797 0.302059
0.220916 0.249772 0.303020
0.225524 0.252052 0.305163
0.274840 0.255576 0.308139
0.398355 0.259545 0.310704
0.578358 0.261330 0.301251
0.779884 0.256959 0.266030
0.953227 0.245215 0.229059
0.986695 0.240916 0.224545
0.220916 0.383036 0.305338
0.220916 0.383773 0.302273
0.223497 0.385331 0.294623
0.269949 0.387195 0.280966
0.394845 0.387935 0.260737
0.582194 0.385060 0.236318
0.792182 0.379572 0.225141
0.953496 0.376162 0.224221
0.986695 0.372076 0.223261
0.220916 0.586307 0.225486
0.220916 0.586084 0.225413
0.220916 0.585535 0.225235
0.237251 0.584574 0.224932
0.369195 0.583147 0.224501
0.573907 0.581205 0.223954
0.787394 0.578709 0.223317
0.951312 0.575620 0.222631
0.986695 0.571903 0.221957
0.220916 0.792151 0.223132
0.220916 0.791987 0.223081
0.220916 0.791585 0.222956
0.232661 0.790881 0.222747
0.359949 0.789834 0.222456
0.565426 0.788409 0.222102
0.781177 0.786573 0.221713
0.948417 0.784298 0.221339
0.986695 0.789084 0.221057
0.220916 0.951047 0.221374
0.220916 0.950971 0.221351
0.220916 0.950783 0.221295
0.227912 0.950967 0.221210
0.348194 0.952318 0.221108
0.554057 0.954113 0.221004
0.772393 0.956351 0.220929
0.946634 0.960320 0.222430
0.986695 0.965043 0.239188
0.220916 0.986695 0.226936
0.220916 0.986695 0.228007
0.220916 0.986695 0.231010
0.237352 0.986695 0.237501
0.380008 0.986695 0.249884
0.593060 0.986695 0.271365
0.805597 0.986695 0.305308
0.958804 0.986695 0.354312
0.986695 0.986695 0.419576
0.220916 0.220916 0.317197
0.220916 0.220916 0.320147
0.220916 0.220916 0.327220
0.244627 0.220916 0.338927
0.344465 0.220916 0.354571
0.516067 0.220916 0.372208
0.727154 0.220916 0.388457
0.922515 0.220916 0.387639
0.986695 0.220916 0.333999
0.220916 0.220916 0.326954
0.220916 0.220916 0.329758
0.220998 0.220916 0.336452
0.249611 0.220916 0.347438
0.353829 0.220916 0.361922
0.527332 0.220916 0.377890
0.738126 0.220916 0.391933
0.928055 0.220916 0.377868
0.986695 0.220916 0.321460
0.220916 0.220916 0.348677
0.220916 0.220916 0.351065
0.222458 0.220916 0.356704
0.261137 0.220916 0.365761
0.374236 0.220967 0.377253
0.551954 0.221259 0.389031
0.760962 0.221216 0.393378
0.939714 0.220916 0.351176
0.986695 0.220916 0.294499
0.220916 0.250213 0.377775
0.220916 0.251148 0.379340
0.225773 0.253318 0.382939
0.275936 0.256624 0.388379
0.400438 0.260221 0.394431
0.579404 0.261059 0.384052
0.781542 0.256008 0.348589
0.954430 0.243670 0.297193
0.986695 0.240708 0.291305
0.220916 0.384092 0.387837
0.220916 0.384742 0.385004
0.222870 0.386088 0.377795
0.267991 0.387578 0.364364
0.393120 0.387763 0.342626
0.581559 0.384137 0.310294
0.791944 0.379209 0.293223
0.953388 0.375799 0.290206
0.986695 0.371714 0.286630
0.220916 0.585981 0.294279
0.220916 0.585758 0.294058
0.220916 0.585209 0.293514
0.237060 0.584248 0.292564
0.368833 0.582820 0.291159
0.573577 0.580878 0.289264
0.787153 0.578381 0.286851
0.951201 0.575291 0.283906
0.986695 0.571572 0.280421
0.220916 0.791912 0.286102
0.220916 0.791748 0.285887
0.220916 0.791346 0.285359
0.232496 0.790642 0.284437
0.359589 0.789594 0.283076
0.565093 0.788168 0.281241
0.780932 0.786332 0.278909
0.948301 0.784055 0.276068
0.986695 0.789755 0.272927
0.220916 0.950935 0.276374
0.220916 0.950859 0.276169
0.220916 0.950671 0.275664
0.227754 0.951278 0.274835
0.347762 0.952624 0.273638
0.553651 0.954412 0.272025
0.772092 0.956640 0.269978
0.946823 0.960753 0.285026
0.986695 0.965484 0.326295
0.220916 0.986695 0.301923
0.220916 0.986695 0.304589
0.220916 0.986695 0.311284
0.238999 0.986695 0.323455
0.382849 0.986695 0.342504
0.595336 0.986695 0.369997
0.806993 0.986695 0.407524
0.959281 0.986695 0.456465
0.986695 0.986695 0.517696
0.220916 0.220916 0.415100
0.220916 0.220916 0.418983
0.220931 0.220916 0.428266
0.247848 0.220916 0.443594
0.350569 0.220916 0.464191
0.523413 0.220916 0.488052
0.734308 0.220916 0.511917
0.926142 0.220916 0.514675
0.986695 0.220916 0.474358
0.220916 0.220916 0.427916
0.220916 0.220916 0.431589
0.221236 0.220916 0.440352
0.252766 0.220916 0.454766
0.359547 0.220916 0.474008
0.534206 0.220916 0.496061
0.744833 0.220916 0.517682
0.931372 0.220916 0.507780
0.986695 0.220916 0.464049
0.220916 0.220916 0.456398
0.220916 0.220916 0.459549
0.222998 0.220916 0.467027
0.263863 0.220916 0.479199
0.378945 0.221035 0.495151
0.557706 0.221308 0.512842
0.764652 0.221101 0.518618
0.942348 0.220916 0.487913
0.986695 0.220916 0.447505
0.220916 0.252204 0.495896
0.220916 0.253073 0.498148
0.226080 0.255067 0.503427
0.277379 0.258029 0.511793
0.403297 0.261057 0.522196
0.580743 0.260483 0.512170
0.783835 0.254448 0.485912
0.954801 0.242785 0.447997
0.986695 0.240400 0.443931
0.220916 0.385426 0.514812
0.220916 0.385948 0.512837
0.222060 0.386976 0.507728
0.264950 0.387913 0.497911
0.390325 0.387274 0.481244
0.580403 0.382532 0.454534
0.791589 0.378670 0.446081
0.953227 0.375261 0.442690
0.986695 0.371176 0.438616
0.220916 0.585497 0.447260
0.220916 0.585274 0.447013
0.220916 0.584725 0.446406
0.236777 0.583763 0.445344
0.368296 0.582334 0.443766
0.573087 0.580391 0.441623
0.786795 0.577893 0.438871
0.951035 0.574802 0.435471
0.986695 0.571081 0.431388
0.220916 0.791557 0.438010
0.220916 0.791394 0.437762
0.220916 0.790991 0.437153
0.232252 0.790286 0.436088
0.359055 0.789238 0.434505
0.564599 0.787810 0.432355
0.780569 0.785973 0.429595
0.948130 0.783694 0.426186
0.986695 0.790750 0.422398
0.220916 0.950770 0.426557
0.220916 0.950693 0.426308
0.220916 0.950824 0.425719
0.227523 0.951738 0.424733
0.347121 0.953075 0.423270
0.553047 0.954852 0.421284
0.772325 0.957233 0.421049
0.947103 0.961389 0.440412
0.986695 0.966146 0.484239
0.220916 0.986695 0.460546
0.220916 0.986695 0.463210
0.220916 0.986695 0.469813
0.241603 0.986695 0.481545
0.387135 0.986695 0.499356
0.598762 0.986695 0.524214
0.809096 0.986695 0.557088
0.960000 0.986695 0.598840
0.986695 0.986695 0.650011
0.220916 0.220916 0.551385
0.220916 0.220916 0.555932
0.221180 0.220916 0.566800
0.252160 0.220916 0.584776
0.358458 0.220916 0.609098
0.532897 0.220916 0.637821
0.743555 0.220916 0.667946
0.930744 0.220916 0.674362
0.986695 0.220916 0.654218
0.220916 0.220916 0.566391
0.220916 0.220916 0.570694
0.221748 0.220916 0.580969
0.256917 0.220916 0.597934
0.366895 0.220916 0.620817
0.543059 0.220916 0.647705
0.753489 0.220916 0.675663
0.935574 0.220916 0.671352
0.986695 0.220916 0.648383
0.220916 0.220916 0.599863
0.220916 0.220916 0.603591
0.223749 0.220916 0.612472
0.267305 0.220937 0.627062
0.384900 0.221143 0.646573
0.565057 0.221337 0.669165
0.769311 0.220973 0.675953
0.945666 0.220916 0.661555
0.986695 0.220916 0.643703
0.220916 0.254667 0.647499
0.220916 0.255436 0.650310
0.226366 0.257170 0.656970
0.278980 0.259637 0.667782
0.405198 0.261554 0.679048
0.582157 0.259377 0.673299
0.786633 0.252067 0.660499
0.954587 0.242350 0.644120
0.986695 0.239986 0.640672
0.220916 0.386791 0.674419
0.220916 0.387137 0.673586
0.221264 0.387736 0.671328
0.260598 0.387920 0.666657
0.386085 0.386164 0.657998
0.578994 0.380702 0.644822
0.791108 0.377938 0.642497
0.953009 0.374530 0.639618
0.986695 0.370447 0.636150
0.220916 0.584840 0.643496
0.220916 0.584616 0.643287
0.220916 0.584067 0.642772
0.236397 0.583105 0.641871
0.367568 0.581675 0.640532
0.572422 0.579731 0.638710
0.786308 0.577231 0.636367
0.950811 0.574138 0.633467
0.986695 0.570415 0.629974
0.220916 0.791076 0.635634
0.220916 0.790912 0.635423
0.220916 0.790509 0.634903
0.231924 0.789803 0.633993
0.358330 0.788754 0.632641
0.563929 0.787325 0.630802
0.780076 0.785485 0.628437
0.947863 0.784513 0.625543
0.986695 0.792097 0.622295
0.220916 0.950714 0.625837
0.220916 0.950927 0.625640
0.220916 0.951450 0.625156
0.227214 0.952357 0.624308
0.346252 0.953684 0.623047
0.552228 0.955445 0.621333
0.773134 0.958150 0.625286
0.947440 0.962189 0.643879
0.986695 0.967057 0.676578
0.220916 0.986695 0.658942
0.220916 0.986695 0.660929
0.220916 0.986695 0.665850
0.245438 0.986695 0.674577
0.393082 0.986695 0.687786
0.603503 0.986695 0.706148
0.812012 0.986695 0.730307
0.960994 0.986695 0.760778
0.986695 0.986695 0.797745
0.220916 0.220916 0.712263
0.220916 0.220916 0.717013
0.221833 0.220916 0.728348
0.257483 0.220916 0.747047
0.367886 0.220916 0.772277
0.544257 0.220916 0.802054
0.754662 0.220916 0.833514
0.936135 0.220916 0.841894
0.986695 0.220916 0.840315
0.220916 0.220916 0.727922
0.220916 0.220916 0.732403
0.222609 0.220916 0.743092
0.261930 0.220916 0.760703
0.375606 0.220916 0.784420
0.553624 0.220916 0.812329
0.762037 0.220916 0.838107
0.940482 0.220916 0.842326
0.986695 0.220916 0.839477
0.220916 0.220916 0.762703
0.220916 0.220916 0.766568
0.224670 0.220928 0.775773
0.271236 0.221047 0.790893
0.391794 0.221265 0.811151
0.573730 0.221306 0.834800
0.774711 0.220916 0.841430
0.949514 0.220916 0.841742
0.986695 0.220916 0.838281
0.220916 0.257378 0.812115
0.220916 0.258005 0.815043
0.226496 0.259376 0.821994
0.280415 0.261168 0.833341
0.403826 0.261010 0.839568
0.583289 0.257427 0.842101
0.789701 0.248614 0.841574
0.954312 0.241798 0.838569
0.986695 0.239460 0.836177
0.220916 0.387787 0.841880
0.220916 0.387909 0.842052
0.220916 0.387956 0.842327
0.254713 0.387174 0.842312
0.379898 0.383986 0.841122
0.578145 0.379763 0.839056
0.790489 0.377000 0.837444
0.952728 0.373593 0.835444
0.986695 0.369511 0.833029
0.220916 0.583996 0.838137
0.220916 0.583772 0.837992
0.220916 0.583222 0.837635
0.235916 0.582259 0.837010
0.366633 0.580828 0.836080
0.571567 0.578883 0.834813
0.785683 0.576381 0.833181
0.950521 0.573285 0.831156
0.986695 0.569559 0.828711
0.220916 0.790457 0.832669
0.220916 0.790293 0.832521
0.220916 0.789890 0.832159
0.231510 0.789183 0.831524
0.357400 0.788132 0.830578
0.563068 0.786701 0.829291
0.779442 0.784859 0.827633
0.947500 0.786264 0.825645
0.986695 0.793818 0.823358
0.220916 0.951518 0.825851
0.220916 0.951730 0.825713
0.220916 0.952247 0.825372
0.226829 0.953145 0.824776
0.345138 0.954457 0.823888
0.551175 0.956199 0.822680
0.774170 0.959306 0.829186
0.947937 0.963250 0.842304
0.986695 0.968245 0.861102
0.220916 0.986695 0.850960
0.220916 0.986695 0.852103
0.220916 0.986695 0.854933
0.250865 0.986695 0.859952
0.400925 0.986695 0.867540
0.609733 0.986695 0.878052
0.815852 0.986695 0.891770
0.962298 0.986695 0.908782
0.986695 0.986695 0.928755
0.220916 0.220916 0.872636
0.220916 0.220916 0.876691
0.222933 0.220916 0.886257
0.263552 0.220916 0.901663
0.378408 0.220916 0.921571
0.557048 0.220916 0.943403
0.764232 0.220916 0.961087
0.942048 0.220916 0.968975
0.986695 0.220916 0.973121
0.220916 0.220916 0.885900
0.220916 0.220916 0.889640
0.223791 0.220916 0.898446
0.267491 0.220916 0.912577
0.385222 0.220916 0.930722
0.565458 0.220916 0.950403
0.769563 0.220916 0.963406
0.945845 0.220916 0.970338
0.986695 0.220916 0.972957
0.220916 0.220952 0.914148
0.220916 0.220978 0.917166
0.225620 0.221060 0.924237
0.275256 0.221214 0.935466
0.399139 0.221336 0.949616
0.578758 0.221088 0.961460
0.780507 0.220916 0.968026
0.953678 0.220916 0.972913
0.986695 0.220916 0.972549
0.220916 0.259956 0.950260
0.220916 0.260392 0.952197
0.226279 0.261282 0.956680
0.277636 0.261337 0.961037
0.400964 0.259477 0.965224
0.583637 0.254249 0.969509
0.792693 0.243856 0.973097
0.953972 0.241124 0.972648
0.986695 0.238819 0.971823
0.220916 0.387848 0.968944
0.220916 0.387693 0.969371
0.220916 0.387059 0.970347
0.247183 0.385086 0.971815
0.372702 0.380760 0.973237
0.577096 0.378605 0.972814
0.789724 0.375842 0.972262
0.952379 0.372437 0.971567
0.986695 0.368357 0.970714
0.220916 0.582953 0.972500
0.220916 0.582729 0.972450
0.220916 0.582179 0.972328
0.235331 0.581215 0.972112
0.365480 0.579783 0.971789
0.570512 0.577835 0.971346
0.784910 0.575330 0.970768
0.950163 0.572231 0.970040
0.986695 0.568501 0.969148
0.220916 0.789692 0.970585
0.220916 0.789528 0.970532
0.220916 0.789124 0.970402
0.231009 0.788416 0.970173
0.356253 0.787363 0.969831
0.562004 0.785930 0.969361
0.778658 0.784084 0.968749
0.947050 0.788415 0.968027
0.986695 0.795933 0.967161
0.220916 0.952499 0.968105
0.220916 0.952708 0.968053
0.220916 0.953219 0.967925
0.226369 0.954104 0.967700
0.343765 0.955399 0.967363
0.550965 0.957315 0.967537
0.775446 0.960702 0.970980
0.948648 0.964609 0.974679
0.986695 0.969734 0.979044
0.220916 0.986695 0.976750
0.220916 0.986695 0.977016
0.220916 0.986695 0.977668
0.258341 0.986695 0.978792
0.410928 0.986695 0.980406
0.617644 0.986695 0.982434
0.820737 0.986695 0.984620
0.963944 0.986695 0.986356
0.986695 0.986695 0.986695
0.220916 0.220916 0.980455
0.220916 0.220916 0.981717
0.224344 0.220916 0.984210
0.269864 0.220916 0.986504
0.389367 0.220916 0.986695
0.570653 0.220916 0.986695
0.772808 0.220916 0.986695
0.948157 0.220916 0.986695
0.986695 0.220916 0.986695
0.220916 0.220916 0.984130
0.220916 0.220916 0.984910
0.225106 0.220916 0.986226
0.273062 0.220916 0.986695
0.395074 0.220916 0.986695
0.576617 0.220916 0.986695
0.777291 0.220916 0.986695
0.951360 0.220916 0.986695
0.986695 0.220916 0.986695
0.220916 0.221139 0.986695
0.220916 0.221174 0.986695
0.226333 0.221253 0.986695
0.278766 0.221332 0.986695
0.405303 0.221251 0.986695
0.581974 0.220917 0.986695
0.786236 0.220916 0.986695
0.954619 0.220916 0.986695
0.986695 0.220916 0.986695
0.220916 0.261561 0.986695
0.220916 0.261484 0.986695
0.223901 0.261105 0.986695
0.271093 0.259804 0.986695
0.395824 0.256439 0.986695
0.582522 0.249444 0.986695
0.792326 0.242305 0.986695
0.953560 0.240329 0.986695
0.986695 0.238063 0.986695
0.220916 0.386218 0.986695
0.220916 0.385731 0.986695
0.220916 0.384280 0.986695
0.238391 0.380957 0.986695
0.371316 0.379370 0.986695
0.575837 0.377216 0.986695
0.788805 0.374454 0.986695
0.951959 0.371050 0.986695
0.986695 0.366973 0.986695
0.220916 0.581701 0.986695
0.220916 0.581477 0.986695
0.220916 0.580926 0.986695
0.234642 0.579961 0.986695
0.364098 0.578527 0.986695
0.569245 0.576576 0.986695
0.783981 0.574069 0.986695
0.949730 0.570966 0.986695
0.986695 0.567232 0.986695
0.220916 0.788773 0.986695
0.220916 0.788608 0.986695
0.220916 0.788203 0.986695
0.230422 0.787494 0.986695
0.354878 0.786439 0.986695
0.560726 0.785003 0.986695
0.777633 0.784654 0.986695
0.946507 0.790983 0.986695
0.986695 0.799113 0.986695
0.220916 0.953659 0.986695
0.220916 0.953865 0.986695
0.220916 0.954368 0.986695
0.225840 0.955239 0.986695
0.342120 0.956512 0.986695
0.553045 0.959042 0.986695
0.778069 0.962273 0.986695
0.949642 0.966302 0.986695
0.986695 0.971540 0.986695
0.220916 0.986695 0.986695
0.220916 0.986695 0.986695
0.220916 0.986695 0.986695
0.268417 0.986695 0.986695
0.423387 0.986695 0.986695
0.627447 0.986695 0.986695
0.826799 0.986695 0.986695
0.965960 0.986695 0.986695
0.986695 0.986695 0.986695
