studio/assets/luts/ai-foundations.cube
TITLE "AI Foundations — Deep Tech"
# Deep indigo shadows, electric cyan highlights. Technical, cerebral mood.
# Generated by Like One Studio — cinema-grade pipeline
# Color science: lift/gamma/gain + filmic S-curve + zone tinting
LUT_3D_SIZE 33
# Domain: standard 0-1 range
DOMAIN_MIN 0.0 0.0 0.0
DOMAIN_MAX 1.0 1.0 1.0
0.220916 0.220916 0.230722
0.220916 0.220916 0.230886
0.220916 0.220916 0.231066
0.220916 0.220916 0.231323
0.220916 0.220916 0.231666
0.220916 0.220916 0.232101
0.220916 0.220916 0.232637
0.220916 0.220916 0.233277
0.220916 0.220916 0.234027
0.221134 0.220916 0.234891
0.223709 0.220916 0.235870
0.229950 0.220916 0.236964
0.240720 0.220916 0.238171
0.256640 0.220916 0.239483
0.278007 0.220916 0.240892
0.304794 0.220916 0.242381
0.336730 0.220916 0.243931
0.373392 0.220916 0.245516
0.414291 0.220916 0.247105
0.458911 0.220916 0.248660
0.506725 0.220916 0.250138
0.557184 0.220916 0.251489
0.609694 0.220916 0.252658
0.663582 0.220916 0.253585
0.718058 0.220916 0.254204
0.772157 0.220916 0.254450
0.824672 0.220916 0.254254
0.874053 0.220916 0.253549
0.917824 0.220916 0.250561
0.952744 0.220916 0.241281
0.977350 0.220916 0.232731
0.986695 0.220916 0.225764
0.986695 0.220916 0.221548
0.220916 0.220916 0.231275
0.220916 0.220916 0.231440
0.220916 0.220916 0.231622
0.220916 0.220916 0.231880
0.220916 0.220916 0.232225
0.220916 0.220916 0.232664
0.220916 0.220916 0.233201
0.220916 0.220916 0.233844
0.220916 0.220916 0.234595
0.221232 0.220916 0.235459
0.224042 0.220916 0.236437
0.230545 0.220916 0.237527
0.241587 0.220916 0.238727
0.257771 0.220916 0.240029
0.279379 0.220916 0.241423
0.306375 0.220916 0.242893
0.338482 0.220916 0.244419
0.375281 0.220916 0.245974
0.416285 0.220916 0.247528
0.460982 0.220916 0.249041
0.508846 0.220916 0.250471
0.559331 0.220916 0.251767
0.611841 0.220916 0.252875
0.665704 0.220916 0.253734
0.720124 0.220916 0.254281
0.774131 0.220916 0.254449
0.826510 0.220916 0.254171
0.875702 0.220916 0.253383
0.918897 0.220916 0.249098
0.953574 0.220916 0.239948
0.977831 0.220916 0.231620
0.986695 0.220916 0.224997
0.986695 0.220916 0.221273
0.220916 0.220916 0.231888
0.220916 0.220916 0.232054
0.220916 0.220916 0.232237
0.220916 0.220916 0.232498
0.220916 0.220916 0.232845
0.220916 0.220916 0.233285
0.220916 0.220916 0.233825
0.220916 0.220916 0.234469
0.220916 0.220916 0.235221
0.221359 0.220916 0.236084
0.224424 0.220916 0.237058
0.231209 0.220916 0.238143
0.242543 0.220916 0.239334
0.259012 0.220916 0.240624
0.280879 0.220916 0.242001
0.308099 0.220916 0.243449
0.340392 0.220916 0.244946
0.377338 0.220916 0.246468
0.418455 0.220916 0.247981
0.463234 0.220916 0.249447
0.511154 0.220916 0.250823
0.561666 0.220916 0.252058
0.614177 0.220916 0.253098
0.668011 0.220916 0.253883
0.722370 0.220916 0.254349
0.776277 0.220916 0.254432
0.828508 0.220916 0.254064
0.877491 0.220916 0.253183
0.920058 0.220916 0.247506
0.954469 0.220916 0.238511
0.978342 0.220916 0.230444
0.986695 0.220916 0.224220
0.986695 0.220916 0.221059
0.220916 0.220916 0.232763
0.220916 0.220916 0.232931
0.220916 0.220916 0.233115
0.220916 0.220916 0.233378
0.220916 0.220916 0.233727
0.220916 0.220916 0.234169
0.220916 0.220916 0.234710
0.220916 0.220916 0.235354
0.220916 0.220916 0.236105
0.221570 0.220916 0.236965
0.224989 0.220916 0.237933
0.232164 0.220916 0.239008
0.243902 0.220916 0.240184
0.260762 0.220916 0.241454
0.282985 0.220916 0.242804
0.310513 0.220916 0.244218
0.343060 0.220916 0.245675
0.380210 0.220916 0.247146
0.421483 0.220916 0.248600
0.466378 0.220916 0.249997
0.514373 0.220916 0.251295
0.564925 0.220916 0.252442
0.617438 0.220916 0.253385
0.671232 0.220916 0.254064
0.725505 0.220916 0.254416
0.779270 0.220916 0.254377
0.831292 0.220916 0.253883
0.879981 0.220916 0.252872
0.921671 0.220916 0.245288
0.955705 0.220916 0.236537
0.979036 0.220916 0.228870
0.986695 0.220916 0.223246
0.986695 0.220916 0.220920
0.220916 0.220916 0.233936
0.220916 0.220916 0.234104
0.220916 0.220916 0.234290
0.220916 0.220916 0.234553
0.220916 0.220916 0.234903
0.220916 0.220916 0.235346
0.220916 0.220916 0.235887
0.220916 0.220916 0.236529
0.220916 0.220916 0.237276
0.221902 0.220916 0.238128
0.225778 0.220916 0.239084
0.233455 0.220916 0.240142
0.245711 0.220916 0.241295
0.263070 0.220916 0.242534
0.285749 0.220916 0.243844
0.313670 0.220916 0.245210
0.346543 0.220916 0.246607
0.383954 0.220916 0.248008
0.425431 0.220916 0.249380
0.470474 0.220916 0.250683
0.518569 0.220916 0.251874
0.569173 0.220916 0.252903
0.621688 0.220916 0.253715
0.675431 0.220916 0.254251
0.729590 0.220916 0.254451
0.783169 0.220916 0.254251
0.834915 0.220916 0.253590
0.882889 0.220916 0.251360
0.923757 0.220916 0.242413
0.957292 0.220916 0.234033
0.979903 0.220916 0.226955
0.986695 0.220916 0.222196
0.986695 0.220916 0.220916
0.220916 0.220916 0.235425
0.220916 0.220916 0.235594
0.220916 0.220916 0.235780
0.220916 0.220916 0.236042
0.220916 0.220916 0.236391
0.220916 0.220916 0.236832
0.220916 0.220916 0.237368
0.220916 0.220916 0.238004
0.220935 0.220916 0.238740
0.222396 0.220916 0.239577
0.226829 0.220916 0.240513
0.235114 0.220916 0.241544
0.247994 0.220916 0.242661
0.265955 0.220916 0.243855
0.289180 0.220916 0.245110
0.317574 0.220916 0.246408
0.350841 0.220916 0.247724
0.388570 0.220916 0.249031
0.430294 0.220916 0.250294
0.475521 0.220916 0.251474
0.523740 0.220916 0.252526
0.574409 0.220916 0.253401
0.626928 0.220916 0.254045
0.680608 0.220916 0.254401
0.734627 0.220916 0.254407
0.787973 0.220916 0.254004
0.839371 0.220916 0.253132
0.885861 0.220916 0.247538
0.926303 0.220916 0.238918
0.959210 0.220916 0.231089
0.980911 0.220916 0.224856
0.986695 0.220916 0.221299
0.986695 0.220916 0.220916
0.220916 0.220916 0.237238
0.220916 0.220916 0.237405
0.220916 0.220916 0.237589
0.220916 0.220916 0.237848
0.220916 0.220916 0.238193
0.220916 0.220916 0.238626
0.220916 0.220916 0.239152
0.220916 0.220916 0.239774
0.221068 0.220916 0.240491
0.223091 0.220916 0.241304
0.228172 0.220916 0.242207
0.237160 0.220916 0.243196
0.250759 0.220916 0.244262
0.269410 0.220916 0.245392
0.293263 0.220916 0.246571
0.322201 0.220916 0.247778
0.355924 0.220916 0.248989
0.394023 0.220916 0.250173
0.436038 0.220916 0.251297
0.481483 0.220916 0.252320
0.529851 0.220916 0.253198
0.580599 0.220916 0.253881
0.633125 0.220916 0.254317
0.686731 0.220916 0.254449
0.740582 0.220916 0.254220
0.793648 0.220916 0.253570
0.844326 0.220916 0.251598
0.889346 0.220916 0.243028
0.929276 0.220916 0.234912
0.961423 0.220916 0.227887
0.982015 0.220916 0.222840
0.986695 0.220916 0.220916
0.986695 0.220916 0.220916
0.220916 0.220916 0.239361
0.220916 0.220916 0.239524
0.220916 0.220916 0.239703
0.220916 0.220916 0.239955
0.220916 0.220916 0.240289
0.220916 0.220916 0.240709
0.220916 0.220916 0.241217
0.220916 0.220916 0.241815
0.221365 0.220916 0.242501
0.224021 0.220916 0.243275
0.229824 0.220916 0.244130
0.239594 0.220916 0.245060
0.253988 0.220916 0.246054
0.273403 0.220916 0.247098
0.297950 0.220916 0.248176
0.327494 0.220916 0.249265
0.361727 0.220916 0.250340
0.400244 0.220916 0.251370
0.442591 0.220916 0.252319
0.488288 0.220916 0.253149
0.536830 0.220916 0.253813
0.587675 0.220916 0.254264
0.640213 0.220916 0.254449
0.693737 0.220916 0.254315
0.747395 0.220916 0.253806
0.800135 0.220916 0.252867
0.848655 0.220916 0.246065
0.893296 0.220916 0.237961
0.932626 0.220916 0.230610
0.963876 0.220916 0.224743
0.983154 0.220916 0.221335
0.986695 0.220916 0.220916
0.986695 0.220916 0.220916
0.220916 0.220916 0.241753
0.220916 0.220916 0.241909
0.220916 0.220916 0.242079
0.220916 0.220916 0.242319
0.220916 0.220916 0.242636
0.220916 0.220916 0.243033
0.220916 0.220916 0.243512
0.220916 0.220916 0.244073
0.221857 0.220916 0.244714
0.225196 0.220916 0.245431
0.231778 0.220916 0.246219
0.242388 0.220916 0.247067
0.257634 0.220916 0.247966
0.277866 0.220916 0.248898
0.303160 0.220916 0.249845
0.333359 0.220916 0.250785
0.368149 0.220919 0.251691
0.407128 0.220949 0.252530
0.449847 0.221009 0.253267
0.495830 0.221089 0.253863
0.544575 0.221176 0.254272
0.595534 0.221256 0.254448
0.648093 0.221315 0.254340
0.701530 0.221337 0.253896
0.754974 0.221313 0.253065
0.805741 0.221186 0.247853
0.853423 0.221020 0.239954
0.897637 0.220920 0.232596
0.936285 0.220916 0.226389
0.966503 0.220916 0.222166
0.984255 0.220916 0.220916
0.986695 0.220916 0.220916
0.986695 0.220916 0.220916
0.220916 0.220916 0.244339
0.220916 0.220917 0.244483
0.220916 0.220919 0.244640
0.220916 0.220924 0.244862
0.220916 0.220933 0.245153
0.220916 0.220951 0.245517
0.220916 0.220981 0.245954
0.221010 0.221026 0.246462
0.222547 0.221093 0.247040
0.226600 0.221186 0.247681
0.233994 0.221309 0.248378
0.245476 0.221467 0.249120
0.261608 0.221663 0.249894
0.282692 0.221898 0.250684
0.308769 0.222170 0.251469
0.339661 0.222476 0.252225
0.375050 0.222809 0.252924
0.414532 0.223157 0.253534
0.457662 0.223506 0.254019
0.503968 0.223837 0.254339
0.552946 0.224129 0.254451
0.604044 0.224358 0.254309
0.656637 0.224497 0.253865
0.709986 0.224522 0.253070
0.761600 0.224250 0.248295
0.811096 0.223717 0.240734
0.858535 0.223070 0.233592
0.902284 0.222356 0.227396
0.940170 0.221659 0.222865
0.969225 0.221115 0.220927
0.985240 0.220916 0.220916
0.986695 0.220916 0.220916
0.986695 0.220916 0.220916
0.220916 0.223426 0.247000
0.220916 0.223492 0.247127
0.220916 0.223567 0.247267
0.220916 0.223673 0.247462
0.220916 0.223815 0.247718
0.220916 0.223997 0.248036
0.220916 0.224223 0.248416
0.221271 0.224496 0.248855
0.223407 0.224818 0.249349
0.228176 0.225191 0.249891
0.236385 0.225617 0.250472
0.248747 0.226095 0.251080
0.265774 0.226622 0.251700
0.287727 0.227194 0.252314
0.314609 0.227802 0.252902
0.346225 0.228435 0.253437
0.382247 0.229078 0.253891
0.422271 0.229712 0.254232
0.465854 0.230314 0.254423
0.512522 0.230855 0.254427
0.561770 0.231305 0.254200
0.613037 0.231630 0.253700
0.665684 0.231792 0.252881
0.716837 0.231425 0.247349
0.767236 0.230698 0.240230
0.816683 0.229722 0.233479
0.863879 0.228500 0.227564
0.907132 0.227062 0.223125
0.944189 0.225472 0.220984
0.971956 0.223842 0.220916
0.986026 0.222349 0.220916
0.986695 0.221391 0.220916
0.986695 0.221290 0.220916
0.220916 0.231941 0.249571
0.220916 0.232069 0.249677
0.220916 0.232210 0.249793
0.220916 0.232410 0.249954
0.220916 0.232674 0.250164
0.220916 0.233007 0.250424
0.220916 0.233412 0.250731
0.221660 0.233890 0.251081
0.224364 0.234441 0.251470
0.229821 0.235065 0.251888
0.238819 0.235759 0.252326
0.252038 0.236516 0.252770
0.269948 0.237329 0.253205
0.292767 0.238187 0.253610
0.320465 0.239076 0.253964
0.352828 0.239977 0.254241
0.389516 0.240867 0.254412
0.430123 0.241719 0.254445
0.474203 0.242502 0.254304
0.521280 0.243181 0.253952
0.570840 0.243716 0.253350
0.621891 0.243981 0.251669
0.671752 0.243506 0.245023
0.722374 0.242726 0.238447
0.772925 0.241606 0.232246
0.822357 0.240121 0.226850
0.869324 0.238255 0.222841
0.912068 0.236016 0.220962
0.948240 0.233440 0.220916
0.974607 0.230609 0.220916
0.986496 0.227911 0.220916
0.986695 0.227538 0.220916
0.986695 0.227159 0.220916
0.220916 0.247618 0.251841
0.220916 0.247796 0.251920
0.220916 0.247990 0.252006
0.220916 0.248263 0.252124
0.220916 0.248624 0.252278
0.220916 0.249076 0.252465
0.220963 0.249620 0.252683
0.222095 0.250257 0.252926
0.225302 0.250985 0.253187
0.231381 0.251799 0.253458
0.241107 0.252693 0.253726
0.255132 0.253656 0.253977
0.273889 0.254677 0.254194
0.297556 0.255737 0.254358
0.326072 0.256818 0.254444
0.359199 0.257894 0.254428
0.396588 0.258937 0.254280
0.437822 0.259913 0.253969
0.482450 0.260785 0.253462
0.529990 0.261509 0.252724
0.577433 0.261480 0.247438
0.626407 0.261079 0.241393
0.676734 0.260342 0.235484
0.727715 0.259219 0.230006
0.778485 0.257663 0.225368
0.827956 0.255631 0.222112
0.874726 0.253089 0.220916
0.916965 0.250019 0.220916
0.952219 0.246427 0.220916
0.976739 0.242925 0.220916
0.986469 0.242330 0.220916
0.986695 0.241717 0.220916
0.986695 0.241084 0.220916
0.220916 0.270927 0.253551
0.220916 0.271136 0.253598
0.220916 0.271364 0.253648
0.220916 0.271685 0.253716
0.220916 0.272107 0.253803
0.220916 0.272633 0.253904
0.221044 0.273265 0.254017
0.222462 0.274001 0.254134
0.226065 0.274836 0.254247
0.232657 0.275763 0.254347
0.243013 0.276773 0.254420
0.257761 0.277852 0.254451
0.277305 0.278983 0.254423
0.301786 0.280145 0.254314
0.331113 0.281315 0.254103
0.365023 0.282462 0.253764
0.403147 0.283553 0.253269
0.445013 0.284539 0.252513
0.487556 0.284752 0.247303
0.532925 0.284732 0.241967
0.580677 0.284428 0.236654
0.630302 0.283786 0.231579
0.681197 0.282747 0.227037
0.732636 0.281252 0.223429
0.783715 0.279241 0.221267
0.833300 0.276657 0.220916
0.879931 0.273447 0.220916
0.921695 0.269568 0.220916
0.954809 0.266563 0.220916
0.976541 0.265817 0.220916
0.986437 0.265042 0.220916
0.986695 0.264238 0.220916
0.986695 0.263406 0.220916
0.220916 0.301646 0.254407
0.220916 0.301868 0.254417
0.220916 0.302111 0.254427
0.220916 0.302452 0.254437
0.220916 0.302899 0.254447
0.220916 0.303456 0.254451
0.221081 0.304122 0.254445
0.222634 0.304894 0.254420
0.226471 0.305766 0.254368
0.233418 0.306730 0.254277
0.244257 0.307772 0.254134
0.259610 0.308878 0.253923
0.279854 0.310027 0.253626
0.305100 0.311196 0.253225
0.335224 0.312356 0.252695
0.368055 0.312999 0.249040
0.404550 0.313434 0.244652
0.444683 0.313701 0.240131
0.488071 0.313753 0.235595
0.534292 0.313538 0.231209
0.582873 0.313002 0.227201
0.633276 0.312083 0.223874
0.684867 0.310719 0.221623
0.736885 0.308841 0.220916
0.788389 0.306380 0.220916
0.838192 0.303266 0.220916
0.884771 0.299430 0.220916
0.923435 0.298008 0.220916
0.954437 0.297183 0.220916
0.976322 0.296322 0.220916
0.986399 0.295424 0.220916
0.986695 0.294490 0.220916
0.986695 0.293520 0.220916
0.220916 0.339087 0.254095
0.220916 0.339308 0.254064
0.220916 0.339549 0.254029
0.220916 0.339886 0.253976
0.220916 0.340329 0.253902
0.220916 0.340878 0.253800
0.221026 0.341533 0.253665
0.222499 0.342289 0.253486
0.226343 0.343140 0.253256
0.233420 0.344076 0.252961
0.244508 0.345069 0.252509
0.259178 0.345728 0.249659
0.278433 0.346373 0.246554
0.302428 0.346977 0.243225
0.331107 0.347510 0.239719
0.364247 0.347935 0.236106
0.401525 0.348215 0.232485
0.442551 0.348304 0.228993
0.486899 0.348153 0.225814
0.534104 0.347708 0.223193
0.583659 0.346911 0.221439
0.634991 0.345698 0.220916
0.687432 0.344000 0.220916
0.740183 0.341745 0.220916
0.792259 0.338855 0.220916
0.841071 0.336775 0.220916
0.884686 0.335966 0.220916
0.922880 0.335118 0.220916
0.954028 0.334230 0.220916
0.976081 0.333302 0.220916
0.986355 0.332333 0.220916
0.986695 0.331324 0.220916
0.986695 0.330273 0.220916
0.220916 0.382095 0.250737
0.220916 0.382240 0.250300
0.220916 0.382398 0.249821
0.220916 0.382617 0.249145
0.220916 0.382902 0.248252
0.220916 0.383251 0.247130
0.220916 0.383660 0.245774
0.221450 0.384124 0.244181
0.224040 0.384631 0.242357
0.229571 0.385171 0.240310
0.238888 0.385725 0.238062
0.252698 0.386274 0.235644
0.271468 0.386795 0.233102
0.295372 0.387261 0.230501
0.324325 0.387638 0.227931
0.358047 0.387891 0.225512
0.396141 0.387980 0.223402
0.438148 0.387860 0.221803
0.483581 0.387479 0.220972
0.531924 0.386783 0.220916
0.582622 0.385711 0.220916
0.635064 0.384198 0.220916
0.688542 0.382172 0.220916
0.741591 0.380614 0.220916
0.792374 0.379864 0.220916
0.840197 0.379073 0.220916
0.883941 0.378241 0.220916
0.922276 0.377368 0.220916
0.953582 0.376454 0.220916
0.975817 0.375497 0.220916
0.986304 0.374497 0.220916
0.986695 0.373454 0.220916
0.986695 0.372367 0.220916
0.220916 0.427940 0.235543
0.220916 0.428065 0.235183
0.220916 0.428200 0.234790
0.220916 0.428387 0.234240
0.220916 0.428628 0.233521
0.220916 0.428923 0.232631
0.220916 0.429267 0.231575
0.220916 0.429652 0.230367
0.221541 0.430068 0.229028
0.225006 0.430501 0.227590
0.232423 0.430936 0.226101
0.244687 0.431351 0.224624
0.262403 0.431723 0.223242
0.285804 0.432024 0.222065
0.314780 0.432222 0.221232
0.348970 0.432281 0.220916
0.387877 0.432159 0.220916
0.430944 0.431812 0.220916
0.477597 0.431188 0.220916
0.527250 0.430233 0.220916
0.579291 0.428885 0.220916
0.633549 0.428230 0.220916
0.687532 0.427559 0.220916
0.740407 0.426849 0.220916
0.791304 0.426099 0.220916
0.839253 0.425309 0.220916
0.883133 0.424477 0.220916
0.921621 0.423604 0.220916
0.953098 0.422688 0.220916
0.975529 0.421729 0.220916
0.986245 0.420728 0.220916
0.986695 0.419682 0.220916
0.986695 0.418592 0.220916
0.220916 0.477761 0.223999
0.220916 0.477862 0.223808
0.220916 0.477970 0.223604
0.220916 0.478120 0.223326
0.220916 0.478312 0.222979
0.220916 0.478545 0.222575
0.220916 0.478812 0.222137
0.220916 0.479107 0.221699
0.220916 0.479419 0.221306
0.221574 0.479734 0.221019
0.226021 0.480035 0.220916
0.235677 0.480302 0.220916
0.251409 0.480512 0.220916
0.273593 0.480635 0.220916
0.302122 0.480642 0.220916
0.336530 0.480495 0.220916
0.376174 0.480154 0.220916
0.420720 0.479602 0.220916
0.471190 0.479093 0.220916
0.523795 0.478549 0.220916
0.577682 0.477967 0.220916
0.632058 0.477349 0.220916
0.686143 0.476691 0.220916
0.739131 0.475996 0.220916
0.790151 0.475260 0.220916
0.838234 0.474485 0.220916
0.882263 0.473670 0.220916
0.920913 0.472813 0.220916
0.952574 0.471914 0.220916
0.975215 0.470973 0.220916
0.986177 0.469990 0.220916
0.986695 0.468963 0.220916
0.986695 0.467892 0.220916
0.220916 0.530840 0.220916
0.220916 0.530914 0.220916
0.220916 0.530994 0.220916
0.220916 0.531104 0.220916
0.220916 0.531244 0.220916
0.220916 0.531410 0.220916
0.220916 0.531597 0.220916
0.220916 0.531797 0.220916
0.220916 0.531999 0.220916
0.220916 0.532190 0.220916
0.221524 0.532352 0.220916
0.227007 0.532466 0.220916
0.239255 0.532507 0.220916
0.260524 0.532299 0.220916
0.290926 0.531941 0.220916
0.328395 0.531551 0.220916
0.371479 0.531129 0.220916
0.418846 0.530672 0.220916
0.469350 0.530181 0.220916
0.522017 0.529656 0.220916
0.575986 0.529094 0.220916
0.630459 0.528497 0.220916
0.684653 0.527862 0.220916
0.737761 0.527190 0.220916
0.788913 0.526480 0.220916
0.837140 0.525731 0.220916
0.881326 0.524942 0.220916
0.920152 0.524114 0.220916
0.952009 0.523245 0.220916
0.974874 0.522336 0.220916
0.986100 0.521384 0.220916
0.986695 0.520391 0.220916
0.986695 0.519355 0.220916
0.220916 0.586439 0.220916
0.220916 0.586487 0.220916
0.220916 0.586487 0.220916
0.220916 0.586426 0.220916
0.220916 0.586346 0.220916
0.220916 0.586244 0.220916
0.220916 0.586119 0.220916
0.220916 0.585971 0.220916
0.220916 0.585797 0.220916
0.220916 0.585598 0.220916
0.220918 0.585372 0.220916
0.224869 0.585119 0.220916
0.237405 0.584837 0.220916
0.259045 0.584526 0.220916
0.289169 0.584185 0.220916
0.326474 0.583813 0.220916
0.369486 0.583409 0.220916
0.416844 0.582974 0.220916
0.467383 0.582506 0.220916
0.520116 0.582004 0.220916
0.574172 0.581469 0.220916
0.628748 0.580898 0.220916
0.683059 0.580293 0.220916
0.736295 0.579651 0.220916
0.787588 0.578973 0.220916
0.835969 0.578258 0.220916
0.880323 0.577506 0.220916
0.919335 0.576715 0.220916
0.951401 0.575885 0.220916
0.974505 0.575016 0.220916
0.986011 0.574108 0.220916
0.986695 0.573158 0.220916
0.986695 0.572168 0.220916
0.220916 0.639167 0.220916
0.220916 0.639131 0.220916
0.220916 0.639090 0.220916
0.220916 0.639033 0.220916
0.220916 0.638957 0.220916
0.220916 0.638861 0.220916
0.220916 0.638743 0.220916
0.220916 0.638603 0.220916
0.220916 0.638440 0.220916
0.220916 0.638252 0.220916
0.220916 0.638039 0.220916
0.224302 0.637800 0.220916
0.236294 0.637534 0.220916
0.257493 0.637240 0.220916
0.287311 0.636919 0.220916
0.324437 0.636568 0.220916
0.367367 0.636187 0.220916
0.414713 0.635777 0.220916
0.465289 0.635335 0.220916
0.518090 0.634862 0.220916
0.572238 0.634356 0.220916
0.626924 0.633818 0.220916
0.681359 0.633246 0.220916
0.734732 0.632641 0.220916
0.786174 0.632001 0.220916
0.834717 0.631326 0.220916
0.879251 0.630615 0.220916
0.918461 0.629868 0.220916
0.950749 0.629085 0.220916
0.974106 0.628264 0.220916
0.985909 0.627406 0.220916
0.986695 0.626509 0.220916
0.986695 0.625574 0.220916
0.220916 0.691512 0.220916
0.220916 0.691478 0.220916
0.220916 0.691440 0.220916
0.220916 0.691387 0.220916
0.220916 0.691316 0.220916
0.220916 0.691226 0.220916
0.220916 0.691117 0.220916
0.220916 0.690986 0.220916
0.220916 0.690834 0.220916
0.220916 0.690659 0.220916
0.220916 0.690460 0.220916
0.223746 0.690237 0.220916
0.235150 0.689989 0.220916
0.255871 0.689716 0.220916
0.285354 0.689415 0.220916
0.322281 0.689088 0.220916
0.365120 0.688733 0.220916
0.412451 0.688350 0.220916
0.463064 0.687938 0.220916
0.515937 0.687497 0.220916
0.570182 0.687025 0.220916
0.624984 0.686523 0.220916
0.679550 0.685990 0.220916
0.733068 0.685425 0.220916
0.784668 0.684828 0.220916
0.833384 0.684198 0.220916
0.878108 0.683534 0.220916
0.917527 0.682837 0.220916
0.950050 0.682106 0.220916
0.973676 0.681339 0.220916
0.985794 0.680538 0.220916
0.986695 0.679700 0.220916
0.986695 0.678827 0.220916
0.220916 0.742845 0.220916
0.220916 0.742813 0.220916
0.220916 0.742779 0.220916
0.220916 0.742730 0.220916
0.220916 0.742664 0.220916
0.220916 0.742582 0.220916
0.220916 0.742481 0.220916
0.220916 0.742361 0.220916
0.220916 0.742221 0.220916
0.220916 0.742060 0.220916
0.220916 0.741877 0.220916
0.223211 0.741672 0.220916
0.233982 0.741443 0.220916
0.254182 0.741192 0.220916
0.283299 0.740915 0.220916
0.320008 0.740614 0.220916
0.362745 0.740288 0.220916
0.410056 0.739935 0.220916
0.460705 0.739556 0.220916
0.513654 0.739149 0.220916
0.568001 0.738715 0.220916
0.622925 0.738252 0.220916
0.677630 0.737761 0.220916
0.731301 0.737241 0.220916
0.783069 0.736691 0.220916
0.831968 0.736110 0.220916
0.876891 0.735499 0.220916
0.916533 0.734857 0.220916
0.949304 0.734183 0.220916
0.973214 0.733476 0.220916
0.985663 0.732738 0.220916
0.986695 0.731965 0.220916
0.986695 0.731602 0.220916
0.220916 0.792342 0.220916
0.220916 0.792314 0.220916
0.220916 0.792283 0.220916
0.220916 0.792238 0.220916
0.220916 0.792179 0.220916
0.220916 0.792104 0.220916
0.220916 0.792013 0.220916
0.220916 0.791904 0.220916
0.220916 0.791777 0.220916
0.220916 0.791632 0.220916
0.220916 0.791466 0.220916
0.222704 0.791280 0.220916
0.232795 0.791074 0.220916
0.252432 0.790846 0.220916
0.281149 0.790595 0.220916
0.317617 0.790323 0.220916
0.360239 0.790027 0.220916
0.407526 0.789707 0.220916
0.458212 0.789364 0.220916
0.511238 0.788996 0.220916
0.565693 0.788602 0.220916
0.620746 0.788183 0.220916
0.675596 0.787738 0.220916
0.729429 0.787266 0.220916
0.781373 0.786768 0.220916
0.830465 0.786241 0.220916
0.875600 0.785687 0.220916
0.915476 0.785105 0.220916
0.948509 0.784493 0.220916
0.972717 0.783853 0.220916
0.985509 0.784575 0.220916
0.986695 0.786523 0.220916
0.986695 0.788544 0.220916
0.220916 0.839084 0.220916
0.220916 0.839059 0.220916
0.220916 0.839031 0.220916
0.220916 0.838991 0.220916
0.220916 0.838939 0.220916
0.220916 0.838873 0.220916
0.220916 0.838792 0.220916
0.220916 0.838696 0.220916
0.220916 0.838583 0.220916
0.220916 0.838454 0.220916
0.220916 0.838307 0.220916
0.222237 0.838143 0.220916
0.231600 0.837960 0.220916
0.250625 0.837758 0.220916
0.278905 0.837536 0.220916
0.315108 0.837294 0.220916
0.357602 0.837032 0.220916
0.404858 0.836749 0.220916
0.455580 0.836444 0.220916
0.508688 0.836118 0.220916
0.563255 0.835769 0.220916
0.618443 0.835397 0.220916
0.673447 0.835002 0.220916
0.727449 0.834584 0.220916
0.779580 0.834141 0.220916
0.828875 0.833674 0.220916
0.874233 0.833182 0.220916
0.914324 0.833416 0.220916
0.947579 0.834926 0.220916
0.972092 0.836500 0.220916
0.985307 0.838137 0.220916
0.986695 0.839837 0.220916
0.986695 0.841599 0.220916
0.220916 0.882009 0.220916
0.220916 0.881987 0.220916
0.220916 0.881964 0.220916
0.220916 0.881930 0.220916
0.220916 0.881885 0.220916
0.220916 0.881828 0.220916
0.220916 0.881759 0.220916
0.220916 0.881676 0.220916
0.220916 0.881579 0.220916
0.220916 0.881468 0.220916
0.220916 0.881342 0.220916
0.221821 0.881201 0.220916
0.230403 0.881044 0.220916
0.248768 0.880870 0.220916
0.276572 0.880680 0.220916
0.312483 0.880472 0.220916
0.354833 0.880247 0.220916
0.402052 0.880003 0.220916
0.452809 0.879741 0.220916
