studio/assets/luts/ai-foundations.cube
TITLE "AI Foundations — Deep Tech"
# Deep indigo shadows, electric cyan highlights. Technical, cerebral mood.
# Generated by Like One Studio — cinema-grade pipeline
# Color science: lift/gamma/gain + filmic S-curve + zone tinting
LUT_3D_SIZE 5
# Domain: standard 0-1 range
DOMAIN_MIN 0.0 0.0 0.0
DOMAIN_MAX 1.0 1.0 1.0
0.220916 0.220916 0.230722
0.220916 0.220916 0.234027
0.336730 0.220916 0.243931
0.718058 0.220916 0.254204
0.986695 0.220916 0.221548
0.220916 0.220916 0.241753
0.221857 0.220916 0.244714
0.368149 0.220919 0.251691
0.754974 0.221313 0.253065
0.986695 0.220916 0.220916
0.220916 0.382095 0.250737
0.224040 0.384631 0.242357
0.396141 0.387980 0.223402
0.792374 0.379864 0.220916
0.986695 0.372367 0.220916
0.220916 0.792342 0.220916
0.220916 0.791777 0.220916
0.360239 0.790027 0.220916
0.781373 0.786768 0.220916
0.986695 0.788544 0.220916
0.220916 0.986695 0.220916
0.220916 0.986695 0.220916
0.377751 0.986695 0.220916
0.804488 0.986695 0.239978
0.986695 0.986695 0.339173
0.220916 0.220916 0.261296
0.220916 0.220916 0.268022
0.340219 0.220916 0.286738
0.722167 0.220916 0.308179
0.986695 0.220916 0.253468
0.220916 0.220916 0.282702
0.222114 0.220916 0.288192
0.370911 0.220934 0.301735
0.758252 0.221291 0.311124
0.986695 0.220916 0.225669
0.220916 0.383036 0.305338
0.223497 0.385331 0.294623
0.394845 0.387935 0.260737
0.792182 0.379572 0.225141
0.986695 0.372076 0.223261
0.220916 0.792151 0.223132
0.220916 0.791585 0.222956
0.359949 0.789834 0.222456
0.781177 0.786573 0.221713
0.986695 0.789084 0.221057
0.220916 0.986695 0.226936
0.220916 0.986695 0.231010
0.380008 0.986695 0.249884
0.805597 0.986695 0.305308
0.986695 0.986695 0.419576
0.220916 0.220916 0.415100
0.220931 0.220916 0.428266
0.350569 0.220916 0.464191
0.734308 0.220916 0.511917
0.986695 0.220916 0.474358
0.220916 0.220916 0.456398
0.222998 0.220916 0.467027
0.378945 0.221035 0.495151
0.764652 0.221101 0.518618
0.986695 0.220916 0.447505
0.220916 0.385426 0.514812
0.222060 0.386976 0.507728
0.390325 0.387274 0.481244
0.791589 0.378670 0.446081
0.986695 0.371176 0.438616
0.220916 0.791557 0.438010
0.220916 0.790991 0.437153
0.359055 0.789238 0.434505
0.780569 0.785973 0.429595
0.986695 0.790750 0.422398
0.220916 0.986695 0.460546
0.220916 0.986695 0.469813
0.387135 0.986695 0.499356
0.809096 0.986695 0.557088
0.986695 0.986695 0.650011
0.220916 0.220916 0.712263
0.221833 0.220916 0.728348
0.367886 0.220916 0.772277
0.754662 0.220916 0.833514
0.986695 0.220916 0.840315
0.220916 0.220916 0.762703
0.224670 0.220928 0.775773
0.391794 0.221265 0.811151
0.774711 0.220916 0.841430
0.986695 0.220916 0.838281
0.220916 0.387787 0.841880
0.220916 0.387956 0.842327
0.379898 0.383986 0.841122
0.790489 0.377000 0.837444
0.986695 0.369511 0.833029
0.220916 0.790457 0.832669
0.220916 0.789890 0.832159
0.357400 0.788132 0.830578
0.779442 0.784859 0.827633
0.986695 0.793818 0.823358
0.220916 0.986695 0.850960
0.220916 0.986695 0.854933
0.400925 0.986695 0.867540
0.815852 0.986695 0.891770
0.986695 0.986695 0.928755
0.220916 0.220916 0.980455
0.224344 0.220916 0.984210
0.389367 0.220916 0.986695
0.772808 0.220916 0.986695
0.986695 0.220916 0.986695
0.220916 0.221139 0.986695
0.226333 0.221253 0.986695
0.405303 0.221251 0.986695
0.786236 0.220916 0.986695
0.986695 0.220916 0.986695
0.220916 0.386218 0.986695
0.220916 0.384280 0.986695
0.371316 0.379370 0.986695
0.788805 0.374454 0.986695
0.986695 0.366973 0.986695
0.220916 0.788773 0.986695
0.220916 0.788203 0.986695
0.354878 0.786439 0.986695
0.777633 0.784654 0.986695
0.986695 0.799113 0.986695
0.220916 0.986695 0.986695
0.220916 0.986695 0.986695
0.423387 0.986695 0.986695
0.826799 0.986695 0.986695
0.986695 0.986695 0.986695
