studio/assets/luts/arri-film.cube
TITLE "ARRI Film Look"
# Warm cinema-grade look inspired by ARRI Alexa. Lifted blacks, warm highlights, gentle contrast.
# Generated by Like One Studio — cinema-grade pipeline
# Color science: lift/gamma/gain + filmic S-curve + zone tinting
LUT_3D_SIZE 9
# Domain: standard 0-1 range
DOMAIN_MIN 0.0 0.0 0.0
DOMAIN_MAX 1.0 1.0 1.0
0.220916 0.220916 0.220916
0.220945 0.220916 0.220916
0.233536 0.220916 0.220916
0.295136 0.220916 0.220916
0.421925 0.220916 0.220916
0.597195 0.220916 0.220916
0.791135 0.220916 0.220916
0.953459 0.220916 0.220916
0.986695 0.220916 0.220916
0.220916 0.220916 0.220916
0.221158 0.220916 0.220916
0.236038 0.220916 0.220916
0.300587 0.220916 0.220916
0.429360 0.220916 0.220916
0.605411 0.220916 0.220916
0.798750 0.220916 0.220916
0.958747 0.220916 0.220916
0.986695 0.220917 0.220916
0.220916 0.226720 0.220916
0.222076 0.227092 0.220916
0.241250 0.227930 0.220916
0.311459 0.229208 0.220916
0.444362 0.230603 0.220916
0.622323 0.231382 0.220916
0.816550 0.232445 0.220916
0.968915 0.237915 0.220916
0.986695 0.239269 0.220916
0.220916 0.291728 0.220916
0.223273 0.292520 0.220916
0.246557 0.294195 0.220916
0.323314 0.296471 0.220916
0.462291 0.298456 0.220916
0.650249 0.308513 0.220916
0.846666 0.320343 0.220916
0.979274 0.327373 0.220916
0.986695 0.321520 0.220916
0.220916 0.446687 0.220916
0.223157 0.448980 0.220916
0.250118 0.454127 0.220916
0.338472 0.462209 0.220916
0.492258 0.472449 0.220916
0.685436 0.483345 0.220916
0.863200 0.480854 0.220916
0.977997 0.475818 0.220916
0.986695 0.469812 0.220916
0.220916 0.672566 0.220916
0.221792 0.672218 0.220916
0.247453 0.671404 0.220916
0.338553 0.670016 0.220916
0.492814 0.667991 0.220916
0.678197 0.665274 0.220916
0.857121 0.661817 0.220916
0.976138 0.657574 0.220916
0.986695 0.652499 0.220916
0.220916 0.847670 0.220916
0.220916 0.847427 0.220916
0.238967 0.846857 0.220916
0.324854 0.845885 0.220916
0.479003 0.844465 0.220916
0.666708 0.842556 0.220916
0.849232 0.840120 0.220916
0.973539 0.837121 0.220916
0.986695 0.820188 0.220916
0.220916 0.970512 0.220916
0.220916 0.970421 0.220916
0.230151 0.970012 0.220916
0.301571 0.968226 0.220916
0.444962 0.965475 0.220916
0.627016 0.961519 0.220916
0.813452 0.956992 0.220916
0.964022 0.959875 0.220916
0.986695 0.963120 0.220916
0.220916 0.986695 0.220916
0.220916 0.986695 0.220916
0.226381 0.986695 0.220916
0.310893 0.986695 0.220916
0.480986 0.986695 0.220916
0.681675 0.986695 0.220916
0.865462 0.986695 0.223387
0.978446 0.986695 0.251377
0.986695 0.986695 0.315342
0.220916 0.220916 0.220916
0.220958 0.220916 0.220916
0.233792 0.220916 0.220916
0.295707 0.220916 0.220916
0.422703 0.220916 0.220916
0.598052 0.220916 0.220916
0.791928 0.220916 0.220916
0.954020 0.220916 0.220916
0.986695 0.220916 0.220916
0.220916 0.220916 0.220916
0.221189 0.220916 0.220916
0.236284 0.220916 0.220916
0.301112 0.220916 0.220916
0.430077 0.220916 0.220916
0.606208 0.220916 0.220916
0.799490 0.220916 0.220916
0.959248 0.220916 0.220916
0.986695 0.220917 0.220916
0.220916 0.226847 0.220916
0.222120 0.227217 0.220916
0.241446 0.228048 0.220916
0.311866 0.229307 0.220916
0.444935 0.230665 0.220916
0.622982 0.231385 0.220916
0.817418 0.232635 0.220916
0.969290 0.238023 0.220916
0.986695 0.239188 0.220916
0.220916 0.292002 0.220916
0.223282 0.292778 0.220916
0.246619 0.294418 0.220916
0.323500 0.296631 0.220916
0.462622 0.298522 0.220916
0.651019 0.308997 0.220916
0.847326 0.320670 0.220916
0.979253 0.327233 0.220916
0.986695 0.321382 0.220916
0.220916 0.447472 0.220916
0.223176 0.449746 0.220916
0.250217 0.454850 0.220916
0.338711 0.462859 0.220916
0.492632 0.472993 0.220916
0.685893 0.483751 0.220916
0.863122 0.480712 0.220916
0.977974 0.475675 0.220916
0.986695 0.469668 0.220916
0.220916 0.672447 0.220916
0.221772 0.672100 0.220916
0.247359 0.671285 0.220916
0.338411 0.669897 0.220916
0.492673 0.667872 0.220916
0.678080 0.665155 0.220916
0.857041 0.661698 0.220916
0.976113 0.657454 0.220916
0.986695 0.652378 0.220916
0.220916 0.847587 0.220916
0.220916 0.847344 0.220916
0.238887 0.846774 0.220916
0.324715 0.845802 0.220916
0.478861 0.844381 0.220916
0.666589 0.842472 0.220916
0.849149 0.840036 0.220916
0.973511 0.837036 0.220916
0.986695 0.819765 0.220916
0.220916 0.970481 0.220916
0.220916 0.970390 0.220916
0.229861 0.969863 0.220916
0.300924 0.968070 0.220916
0.444256 0.965308 0.220916
0.626406 0.961339 0.220916
0.813664 0.957075 0.220916
0.964102 0.959951 0.220916
0.986695 0.963214 0.220916
0.220916 0.986695 0.220916
0.220916 0.986695 0.220916
0.226812 0.986695 0.220916
0.312065 0.986695 0.220916
0.482132 0.986695 0.220916
0.682525 0.986695 0.220978
0.865955 0.986695 0.232312
0.978562 0.986695 0.270340
0.986695 0.986695 0.338999
0.220916 0.220916 0.220916
0.220996 0.220916 0.220916
0.234389 0.220916 0.220916
0.297023 0.220916 0.220917
0.424499 0.220916 0.221111
0.600031 0.220916 0.221580
0.793760 0.220916 0.221843
0.955307 0.220916 0.222645
0.986695 0.220916 0.226152
0.220916 0.220916 0.220916
0.221265 0.220916 0.220916
0.236854 0.220916 0.220916
0.302320 0.220916 0.220993
0.431728 0.220916 0.221315
0.608046 0.220916 0.221738
0.801199 0.220916 0.221782
0.960397 0.220916 0.223522
0.986695 0.220917 0.226709
0.220916 0.227141 0.221016
0.222221 0.227505 0.221064
0.241895 0.228316 0.221196
0.312796 0.229529 0.221445
0.446250 0.230799 0.221742
0.624502 0.231382 0.221827
0.819426 0.233073 0.222455
0.970146 0.238265 0.225519
0.986695 0.239000 0.226697
0.220916 0.292622 0.221752
0.223298 0.293363 0.221784
0.246750 0.294918 0.221834
0.323912 0.296984 0.221829
0.463372 0.298657 0.221632
0.652798 0.310107 0.223374
0.848850 0.321413 0.225825
0.979203 0.326906 0.226821
0.986695 0.321057 0.224943
0.220916 0.449282 0.223014
0.223217 0.451513 0.223277
0.250433 0.456516 0.223899
0.339246 0.464354 0.224932
0.493483 0.474241 0.226208
0.686749 0.484493 0.227158
0.862939 0.480379 0.225790
0.977919 0.475341 0.224339
0.986695 0.469333 0.222936
0.220916 0.672171 0.226413
0.221728 0.671823 0.226275
0.247140 0.671009 0.225959
0.338079 0.669620 0.225442
0.492342 0.667594 0.224737
0.677806 0.664876 0.223883
0.856854 0.661417 0.222952
0.976053 0.657172 0.222047
0.986695 0.652094 0.221312
0.220916 0.847394 0.222754
0.220916 0.847151 0.222673
0.238700 0.846581 0.222491
0.324389 0.845608 0.222202
0.478527 0.844186 0.221834
0.666311 0.842275 0.221437
0.848957 0.839838 0.221094
0.973222 0.836188 0.220916
0.986695 0.818773 0.220916
0.220916 0.970408 0.220932
0.220916 0.970317 0.220925
0.229200 0.969512 0.220916
0.299416 0.967702 0.220916
0.442605 0.964916 0.220916
0.624978 0.960915 0.220916
0.814160 0.957270 0.220916
0.964254 0.960094 0.220916
0.986695 0.963436 0.222453
0.220916 0.986695 0.220916
0.220916 0.986695 0.220916
0.227882 0.986695 0.220916
0.314829 0.986695 0.221532
0.484821 0.986695 0.226631
0.684521 0.986695 0.241516
0.867111 0.986695 0.272242
0.978834 0.986695 0.323318
0.986695 0.986695 0.396092
0.220916 0.220916 0.243310
0.221086 0.220916 0.244510
0.235394 0.220916 0.247278
0.299208 0.220916 0.251804
0.427477 0.220916 0.257758
0.603324 0.220916 0.264128
0.796812 0.220916 0.269000
0.957423 0.220916 0.279481
0.986695 0.220916 0.296906
0.220916 0.220916 0.247309
0.221410 0.220916 0.248471
0.237803 0.220916 0.251122
0.304316 0.220916 0.255368
0.434461 0.220916 0.260772
0.611099 0.220916 0.266224
0.804045 0.220916 0.269769
0.962281 0.220916 0.284316
0.986695 0.220917 0.299749
0.220916 0.227631 0.255919
0.222388 0.227981 0.256907
0.242622 0.228754 0.259104
0.314312 0.229882 0.262440
0.448411 0.230997 0.266289
0.627017 0.231343 0.269379
0.822772 0.233799 0.278328
0.971540 0.238637 0.293910
0.986695 0.238681 0.300160
0.220916 0.293613 0.266441
0.223309 0.294292 0.266965
0.246925 0.295702 0.268034
0.324542 0.297517 0.269342
0.465737 0.300384 0.271703
0.655754 0.311931 0.283545
0.851385 0.322607 0.295344
0.979117 0.326349 0.300498
0.986695 0.320506 0.294980
0.220916 0.452285 0.281602
0.223270 0.454442 0.283031
0.250750 0.459274 0.286226
0.340082 0.466821 0.291173
0.494857 0.476290 0.297179
0.686288 0.483927 0.301403
0.862626 0.479812 0.297582
0.977827 0.474772 0.292975
0.986695 0.468763 0.287591
0.220916 0.671701 0.299373
0.221656 0.671352 0.298984
0.246770 0.670538 0.298077
0.337514 0.669148 0.296538
0.491779 0.667120 0.294310
0.677339 0.664401 0.291357
0.856535 0.660940 0.287659
0.975952 0.656692 0.283213
0.986695 0.651611 0.278037
0.220916 0.847065 0.286781
0.220916 0.846821 0.286409
0.238383 0.846251 0.285540
0.323834 0.845277 0.284068
0.477960 0.843854 0.281941
0.665837 0.841941 0.279129
0.848630 0.839501 0.275620
0.972665 0.834573 0.269095
0.986695 0.817078 0.249724
0.220916 0.970285 0.272231
0.220916 0.969947 0.271067
0.228128 0.968907 0.267620
0.296863 0.967068 0.261935
0.439790 0.964240 0.254119
0.622542 0.960185 0.244648
0.815003 0.957601 0.239527
0.964522 0.960348 0.248401
0.986695 0.963823 0.286362
0.220916 0.986695 0.260675
0.220916 0.986695 0.263244
0.229911 0.986695 0.269547
0.319612 0.986695 0.281203
0.489434 0.986695 0.300109
0.687941 0.986695 0.328562
0.869092 0.986695 0.368940
0.979292 0.986695 0.423225
0.986695 0.986695 0.492551
0.220916 0.220916 0.342446
0.221261 0.220916 0.344982
0.236823 0.220916 0.350732
0.302254 0.220916 0.359921
0.431638 0.220916 0.371890
0.607945 0.220916 0.385195
0.801106 0.220916 0.397525
0.960334 0.220916 0.421797
0.986695 0.220916 0.450483
0.220916 0.220916 0.350795
0.221643 0.220916 0.353174
0.239131 0.220916 0.358548
0.307079 0.220916 0.367075
0.438264 0.220916 0.378050
0.615377 0.220916 0.389993
0.808044 0.220916 0.400576
0.964865 0.220916 0.429555
0.986695 0.220916 0.455657
0.220916 0.228310 0.368183
0.222617 0.228637 0.370172
0.243593 0.229345 0.374622
0.316364 0.230337 0.381547
0.451383 0.231214 0.390148
0.630517 0.231212 0.398876
0.827487 0.234803 0.419950
0.973434 0.239089 0.445306
0.986695 0.238221 0.454611
0.220916 0.294907 0.390515
0.223286 0.295496 0.391805
0.247069 0.296692 0.394616
0.325294 0.298138 0.398735
0.469595 0.303561 0.409294
0.659895 0.314437 0.428315
0.854943 0.324185 0.447758
0.978991 0.325539 0.454980
0.986695 0.319704 0.448913
0.220916 0.456479 0.425197
0.223310 0.458530 0.427489
0.251098 0.463112 0.432637
0.341133 0.470238 0.440722
0.496688 0.479099 0.450966
0.685617 0.483103 0.455963
0.862171 0.478986 0.451789
0.977691 0.473944 0.446680
0.986695 0.467932 0.440594
0.220916 0.671015 0.453752
0.221556 0.670666 0.453326
0.246234 0.669851 0.452332
0.336693 0.668460 0.450638
0.490959 0.666431 0.448169
0.676659 0.663708 0.444865
0.856069 0.660244 0.440672
0.975803 0.655992 0.435543
0.986695 0.650907 0.429435
0.220916 0.846585 0.439668
0.220916 0.846341 0.439240
0.237927 0.845769 0.438240
0.323027 0.844794 0.436537
0.477133 0.843369 0.434057
0.665145 0.841453 0.430737
0.848152 0.839010 0.426526
0.971836 0.832208 0.415653
0.986695 0.814597 0.389147
0.220916 0.969520 0.419982
0.220916 0.969073 0.418125
0.226691 0.968008 0.413782
0.293182 0.966128 0.406383
0.435688 0.963240 0.395606
0.618983 0.959105 0.381210
0.816227 0.958079 0.377661
0.964935 0.960743 0.395468
0.986695 0.964406 0.439588
0.220916 0.986695 0.411135
0.220916 0.986695 0.414192
0.233327 0.986695 0.421455
0.326744 0.986695 0.434182
0.496222 0.986695 0.453484
0.692969 0.986695 0.480615
0.872002 0.986695 0.516917
0.979950 0.986695 0.563642
0.986695 0.986695 0.621638
0.220916 0.220916 0.502122
0.221553 0.220916 0.505410
0.238646 0.220916 0.512869
0.306071 0.220916 0.524847
0.436873 0.220916 0.540684
0.613808 0.220916 0.558979
0.806575 0.220916 0.577610
0.963925 0.220916 0.612698
0.986695 0.220916 0.647361
0.220916 0.220916 0.512950
0.221976 0.220916 0.516043
0.240788 0.220916 0.523050
0.310505 0.220916 0.534267
0.443023 0.220916 0.549025
0.620787 0.220916 0.565924
0.814535 0.220916 0.586363
0.968036 0.220916 0.621841
0.986695 0.220916 0.650858
0.220916 0.229140 0.535738
0.222885 0.229427 0.538386
0.244721 0.230033 0.544362
0.318817 0.230824 0.553851
0.455035 0.231368 0.566154
0.634903 0.230902 0.579879
0.833507 0.236033 0.610535
0.975721 0.239523 0.640877
0.986695 0.237614 0.648038
0.220916 0.296358 0.566698
0.223188 0.296824 0.568628
0.247058 0.297732 0.572939
0.325995 0.298680 0.579638
0.474428 0.307554 0.598136
0.665135 0.317506 0.620373
0.859460 0.325993 0.643929
0.978821 0.324458 0.648349
0.986695 0.318633 0.643214
0.220916 0.461759 0.616692
0.223294 0.463667 0.619395
0.251348 0.467918 0.625507
0.342226 0.474483 0.635248
0.498823 0.482536 0.647975
0.684717 0.482001 0.649180
0.861561 0.477881 0.645651
0.977508 0.472836 0.641319
0.986695 0.466820 0.636139
0.220916 0.670097 0.647311
0.221434 0.669748 0.646952
0.245524 0.668932 0.646111
0.335595 0.667539 0.644676
0.489862 0.665507 0.642583
0.675748 0.662782 0.639776
0.855446 0.659313 0.636205
0.975603 0.655056 0.631823
0.986695 0.649965 0.626584
0.220916 0.845942 0.635348
0.220916 0.845698 0.634983
0.237324 0.845125 0.634130
0.321950 0.844148 0.632674
0.476026 0.842720 0.630550
0.664221 0.840800 0.627702
0.847513 0.838352 0.624080
0.970692 0.829021 0.611401
0.986695 0.811255 0.588006
0.220916 0.968333 0.615170
0.220916 0.967872 0.613555
0.225006 0.966774 0.609768
0.288331 0.964838 0.603283
0.430196 0.961870 0.593760
0.614202 0.957630 0.580880
0.817858 0.958712 0.583908
0.965525 0.961315 0.601382
0.986695 0.965220 0.633706
0.220916 0.986695 0.612874
0.220916 0.986695 0.615115
0.238731 0.986695 0.620436
0.336578 0.986695 0.629752
0.505430 0.986695 0.643865
0.699779 0.986695 0.663679
0.875937 0.986695 0.690152
0.980808 0.986695 0.724165
0.986695 0.986695 0.766233
0.220916 0.220916 0.688317
0.221973 0.220916 0.691841
0.240771 0.220916 0.699850
0.310468 0.220916 0.712757
0.442972 0.220916 0.729972
0.620729 0.220916 0.750240
0.814459 0.220916 0.774372
0.968003 0.220916 0.810433
0.986695 0.220916 0.840673
0.220916 0.220916 0.699937
0.222396 0.220916 0.703263
0.242658 0.220916 0.710816
0.314387 0.220916 0.722971
0.448520 0.220916 0.739145
0.627144 0.220916 0.758113
0.822942 0.220916 0.785297
0.971610 0.220916 0.819175
0.986695 0.220916 0.839836
0.220916 0.230033 0.724572
0.223141 0.230261 0.727460
0.245849 0.230718 0.734005
0.321440 0.231229 0.744500
0.459134 0.231335 0.758375
0.643255 0.232780 0.779029
0.840682 0.237375 0.808368
0.978242 0.239782 0.837479
0.986695 0.236858 0.837871
0.220916 0.297731 0.758999
0.222960 0.298040 0.761217
0.246707 0.298578 0.766223
0.329937 0.303829 0.778529
0.480019 0.312175 0.796534
0.671296 0.320918 0.817769
0.864802 0.327786 0.840438
0.978604 0.323090 0.838088
0.986695 0.317279 0.834498
0.220916 0.467913 0.814249
0.223163 0.469641 0.816835
0.251308 0.473475 0.822686
0.343097 0.479333 0.832044
0.499315 0.483850 0.840599
0.683576 0.480603 0.838667
0.860786 0.476479 0.836203
0.977274 0.471430 0.833169
0.986695 0.465410 0.829528
0.220916 0.668933 0.837363
0.221298 0.668583 0.837112
0.244636 0.667765 0.836524
0.334206 0.666371 0.835521
0.488470 0.664335 0.834056
0.674593 0.661605 0.832086
0.854655 0.658132 0.829575
0.975347 0.653868 0.826483
0.986695 0.648769 0.822772
0.220916 0.845126 0.828971
0.220916 0.844881 0.828713
0.236574 0.844307 0.828111
0.320589 0.843327 0.827084
0.474623 0.841895 0.825583
0.663047 0.839971 0.823566
0.846700 0.837516 0.820994
0.969186 0.824941 0.808950
0.986695 0.806980 0.791909
0.220916 0.966776 0.811670
0.220916 0.966297 0.810506
0.223273 0.965158 0.807769
0.282311 0.963152 0.803067
0.423224 0.960084 0.796125
0.612786 0.957140 0.789678
0.819914 0.959505 0.794656
0.966336 0.962111 0.806246
0.986695 0.966303 0.824024
0.220916 0.986695 0.812479
0.221013 0.986695 0.813707
0.246904 0.986695 0.816637
0.349500 0.986695 0.821812
0.517306 0.986695 0.829740
0.708544 0.986695 0.841003
0.880988 0.986695 0.856202
0.981851 0.986695 0.875818
0.986695 0.986695 0.899927
0.220916 0.220916 0.866370
0.222481 0.220916 0.869400
0.243018 0.220916 0.876246
0.315145 0.220916 0.887153
0.449611 0.220916 0.901439
0.628424 0.220916 0.917830
0.824659 0.220916 0.938992
0.972308 0.220916 0.960662
0.986695 0.220916 0.971217
0.220916 0.220916 0.876320
0.222843 0.220916 0.879146
0.244539 0.220916 0.885523
0.318415 0.220916 0.895667
0.454427 0.220916 0.908918
0.634164 0.220916 0.924060
0.832483 0.220916 0.945922
0.975343 0.220917 0.965317
0.986695 0.220916 0.970915
0.220916 0.230838 0.896991
0.223298 0.230983 0.899374
0.246745 0.231237 0.904739
0.323896 0.231384 0.913239
0.463342 0.230951 0.924266
0.652727 0.234911 0.941981
0.848789 0.238641 0.959523
0.979205 0.239213 0.971487
0.986695 0.235956 0.970199
0.220916 0.298693 0.924756
0.222745 0.300207 0.927202
0.248213 0.303973 0.932856
0.334278 0.309850 0.941662
0.486047 0.317126 0.952737
0.678109 0.324349 0.964587
0.864352 0.326343 0.971363
0.978334 0.321424 0.970278
0.986695 0.315630 0.968944
0.220916 0.474620 0.962728
0.222848 0.476131 0.964098
0.250721 0.479459 0.967106
0.343380 0.484462 0.971626
0.497626 0.482144 0.971191
0.682180 0.478893 0.970491
0.859836 0.474766 0.969582
0.976984 0.469713 0.968442
0.986695 0.463687 0.967042
0.220916 0.667508 0.970012
0.221159 0.667158 0.969919
0.243569 0.666338 0.969702
0.332513 0.664941 0.969328
0.486769 0.662902 0.968778
0.673179 0.660167 0.968029
0.853685 0.656687 0.967060
0.975031 0.652415 0.965845
0.986695 0.647306 0.964356
0.220916 0.844126 0.966824
0.220916 0.843880 0.966724
0.235678 0.843304 0.966488
0.318930 0.842321 0.966083
0.472909 0.840885 0.965487
0.661611 0.838955 0.964677
0.843750 0.834555 0.962891
0.967260 0.819895 0.956919
0.986695 0.804539 0.950278
0.220916 0.964794 0.958128
0.220916 0.964294 0.957612
0.221788 0.963105 0.956390
0.275173 0.961014 0.954255
0.414696 0.957823 0.951027
0.616338 0.958132 0.951293
0.823302 0.960351 0.953490
0.967412 0.963185 0.956492
0.986695 0.967697 0.961415
0.220916 0.986695 0.958164
0.223361 0.986695 0.958502
0.258770 0.986695 0.959317
0.365927 0.986695 0.960782
0.532105 0.986695 0.963068
0.719438 0.986695 0.966355
0.887242 0.986695 0.970751
0.983040 0.986695 0.976142
0.986695 0.986695 0.981873
0.220916 0.220916 0.980535
0.222975 0.220916 0.981472
0.245103 0.220916 0.983351
0.319678 0.220916 0.985569
0.456352 0.220916 0.986695
0.637492 0.220916 0.986695
0.835756 0.220916 0.986695
0.976537 0.220916 0.986695
0.986695 0.220916 0.986695
0.220916 0.220916 0.983370
0.223199 0.220916 0.984039
0.246132 0.220916 0.985304
0.322152 0.220916 0.986516
0.460302 0.220916 0.986695
0.645778 0.220916 0.986695
0.842840 0.220916 0.986695
0.978952 0.220916 0.986695
0.986695 0.220916 0.986695
0.220916 0.231335 0.986593
0.223240 0.231372 0.986678
0.247091 0.231368 0.986695
0.325734 0.231074 0.986695
0.472376 0.233416 0.986695
0.662903 0.237037 0.986695
0.857533 0.239554 0.986695
0.978895 0.238077 0.986695
0.986695 0.234912 0.986695
0.220916 0.306275 0.986695
0.223147 0.307751 0.986695
0.250070 0.311029 0.986695
0.338356 0.316037 0.986695
0.492077 0.321983 0.986695
0.685217 0.327355 0.986695
0.863238 0.324353 0.986695
0.978008 0.319450 0.986695
0.986695 0.313676 0.986695
0.220916 0.481447 0.986695
0.222307 0.482703 0.986695
0.249337 0.484210 0.986695
0.341374 0.482543 0.986695
0.495615 0.480113 0.986695
0.680517 0.476859 0.986695
0.858704 0.472727 0.986695
0.976634 0.467668 0.986695
0.986695 0.461637 0.986695
0.220916 0.665811 0.986695
0.221035 0.665460 0.986695
0.242326 0.664638 0.986695
0.330505 0.663238 0.986695
0.484745 0.661194 0.986695
0.671495 0.658453 0.986695
0.852528 0.654965 0.986695
0.974650 0.650684 0.986695
0.986695 0.645407 0.986695
0.220916 0.842933 0.986695
0.220916 0.842686 0.986695
0.234643 0.842108 0.986695
0.316964 0.841122 0.986695
0.470868 0.839680 0.986695
0.659900 0.837743 0.986695
0.837889 0.828708 0.986695
0.964849 0.813808 0.986695
0.986695 0.807227 0.986695
0.220916 0.962324 0.986695
0.220916 0.961799 0.986695
0.220961 0.960551 0.986695
0.267036 0.958360 0.986695
0.413524 0.957425 0.986695
0.620542 0.959291 0.986695
0.828468 0.961374 0.986695
0.968804 0.964595 0.986695
0.986695 0.969439 0.986695
0.221863 0.986695 0.986695
0.230260 0.986695 0.986695
0.275305 0.986695 0.986695
0.386287 0.986695 0.986695
0.550088 0.986695 0.986695
0.732632 0.986695 0.986695
0.894766 0.986695 0.986695
0.984299 0.986695 0.986695
0.986695 0.986695 0.986695
