studio/assets/luts/arri-film.cube
TITLE "ARRI Film Look"
# Warm cinema-grade look inspired by ARRI Alexa. Lifted blacks, warm highlights, gentle contrast.
# Generated by Like One Studio — cinema-grade pipeline
# Color science: lift/gamma/gain + filmic S-curve + zone tinting
LUT_3D_SIZE 33
# Domain: standard 0-1 range
DOMAIN_MIN 0.0 0.0 0.0
DOMAIN_MAX 1.0 1.0 1.0
0.220916 0.220916 0.220916
0.220916 0.220916 0.220916
0.220916 0.220916 0.220916
0.220916 0.220916 0.220916
0.220945 0.220916 0.220916
0.221587 0.220916 0.220916
0.223482 0.220916 0.220916
0.227243 0.220916 0.220916
0.233536 0.220916 0.220916
0.243010 0.220916 0.220916
0.256215 0.220916 0.220916
0.273532 0.220916 0.220916
0.295136 0.220916 0.220916
0.321006 0.220916 0.220916
0.350961 0.220916 0.220916
0.384717 0.220916 0.220916
0.421925 0.220916 0.220916
0.462197 0.220916 0.220916
0.505126 0.220916 0.220916
0.550280 0.220916 0.220916
0.597195 0.220916 0.220916
0.645364 0.220916 0.220916
0.694209 0.220916 0.220916
0.743065 0.220916 0.220916
0.791135 0.220916 0.220916
0.837456 0.220916 0.220916
0.880831 0.220916 0.220916
0.919866 0.220916 0.220916
0.953459 0.220916 0.220916
0.977068 0.220916 0.220916
0.986677 0.220916 0.220916
0.986695 0.220916 0.220916
0.986695 0.220916 0.220916
0.220916 0.220916 0.220916
0.220916 0.220916 0.220916
0.220916 0.220916 0.220916
0.220916 0.220916 0.220916
0.220970 0.220916 0.220916
0.221695 0.220916 0.220916
0.223693 0.220916 0.220916
0.227574 0.220916 0.220916
0.234001 0.220916 0.220916
0.243620 0.220916 0.220916
0.256974 0.220916 0.220916
0.274434 0.220916 0.220916
0.296170 0.220916 0.220916
0.322157 0.220916 0.220916
0.352215 0.220916 0.220916
0.386057 0.220916 0.220916
0.423335 0.220916 0.220916
0.463663 0.220916 0.220916
0.506635 0.220916 0.220916
0.551817 0.220916 0.220916
0.598748 0.220916 0.220916
0.646916 0.220916 0.220916
0.695744 0.220916 0.220916
0.744562 0.220916 0.220916
0.792572 0.220916 0.220916
0.838802 0.220916 0.220916
0.882051 0.220916 0.220916
0.921208 0.220916 0.220916
0.954474 0.220916 0.220916
0.977656 0.220916 0.220916
0.986694 0.220916 0.220916
0.986695 0.220916 0.220916
0.986695 0.220916 0.220916
0.220916 0.220916 0.220916
0.220916 0.220916 0.220916
0.220916 0.220916 0.220916
0.220916 0.220916 0.220916
0.221004 0.220916 0.220916
0.221815 0.220916 0.220916
0.223918 0.220916 0.220916
0.227923 0.220916 0.220916
0.234491 0.220916 0.220916
0.244259 0.220916 0.220916
0.257765 0.220916 0.220916
0.275372 0.220916 0.220916
0.297245 0.220916 0.220916
0.323355 0.220916 0.220916
0.353518 0.220916 0.220916
0.387450 0.220916 0.220916
0.424801 0.220916 0.220916
0.465189 0.220916 0.220916
0.508205 0.220916 0.220916
0.553419 0.220916 0.220916
0.600365 0.220916 0.220916
0.648534 0.220916 0.220916
0.697344 0.220916 0.220916
0.746124 0.220916 0.220916
0.794069 0.220916 0.220916
0.840206 0.220916 0.220916
0.883322 0.220916 0.220916
0.922602 0.220916 0.220916
0.955524 0.220916 0.220916
0.978254 0.220916 0.220916
0.986695 0.220916 0.220916
0.986695 0.220916 0.220916
0.986695 0.220916 0.220916
0.220916 0.220916 0.220916
0.220916 0.220916 0.220916
0.220916 0.220916 0.220916
0.220916 0.220916 0.220916
0.221063 0.220916 0.220916
0.221990 0.220916 0.220916
0.224236 0.220916 0.220916
0.228409 0.220916 0.220916
0.235165 0.220916 0.220916
0.245136 0.220916 0.220916
0.258847 0.220916 0.220916
0.276655 0.220916 0.220916
0.298713 0.220916 0.220916
0.324988 0.220916 0.220916
0.355296 0.220916 0.220916
0.389350 0.220916 0.220916
0.426803 0.220916 0.220916
0.467272 0.220916 0.220916
0.510351 0.220916 0.220916
0.555608 0.220916 0.220916
0.602577 0.220916 0.220916
0.650747 0.220916 0.220916
0.699534 0.220916 0.220916
0.748261 0.220916 0.220916
0.796119 0.220916 0.220916
0.842126 0.220916 0.220916
0.885059 0.220916 0.220916
0.924504 0.220916 0.220916
0.956946 0.220916 0.220916
0.979048 0.220916 0.220916
0.986695 0.220916 0.220916
0.986695 0.220916 0.220916
0.986695 0.220916 0.220916
0.220916 0.220916 0.220916
0.220916 0.220916 0.220916
0.220916 0.220916 0.220916
0.220916 0.220916 0.220916
0.221158 0.220916 0.220916
0.222232 0.220916 0.220916
0.224658 0.220916 0.220916
0.229043 0.220916 0.220916
0.236038 0.220916 0.220916
0.246263 0.220916 0.220916
0.260234 0.220916 0.220916
0.278294 0.220916 0.220916
0.300587 0.220916 0.220916
0.327073 0.220916 0.220916
0.357565 0.220916 0.220916
0.391776 0.220916 0.220916
0.429360 0.220916 0.220916
0.469935 0.220916 0.220916
0.513096 0.220916 0.220916
0.558410 0.220916 0.220916
0.605411 0.220916 0.220916
0.653585 0.220916 0.220916
0.702343 0.220916 0.220916
0.751004 0.220916 0.220916
0.798750 0.220916 0.220916
0.844589 0.220916 0.220916
0.887599 0.220916 0.220916
0.926933 0.220916 0.220916
0.958747 0.220916 0.220916
0.980023 0.220916 0.220916
0.986695 0.220916 0.220916
0.986695 0.220916 0.220916
0.986695 0.220917 0.220916
0.220916 0.220916 0.220916
0.220916 0.220916 0.220916
0.220916 0.220916 0.220916
0.220925 0.220916 0.220916
0.221301 0.220916 0.220916
0.222550 0.220916 0.220916
0.225190 0.220916 0.220916
0.229827 0.220916 0.220916
0.237104 0.220916 0.220916
0.247633 0.220916 0.220916
0.261913 0.220916 0.220916
0.280274 0.220916 0.220916
0.302848 0.220916 0.220916
0.329588 0.220916 0.220916
0.360303 0.220916 0.220916
0.394705 0.220916 0.220916
0.432450 0.220917 0.220916
0.473158 0.220923 0.220916
0.516421 0.220934 0.220916
0.561808 0.220948 0.220916
0.608851 0.220958 0.220916
0.657032 0.220963 0.220916
0.705758 0.220960 0.220916
0.754339 0.220947 0.220916
0.801949 0.220930 0.220916
0.847583 0.220917 0.220916
0.891138 0.220938 0.220916
0.929868 0.221042 0.220916
0.960897 0.221203 0.220916
0.981139 0.221381 0.220916
0.986695 0.221540 0.220916
0.986695 0.221644 0.220916
0.986695 0.221666 0.220916
0.220916 0.220926 0.220916
0.220916 0.220929 0.220916
0.220916 0.220933 0.220916
0.220971 0.220940 0.220916
0.221501 0.220950 0.220916
0.222947 0.220964 0.220916
0.225830 0.220984 0.220916
0.230752 0.221012 0.220916
0.238351 0.221049 0.220916
0.249224 0.221097 0.220916
0.263856 0.221156 0.220916
0.282561 0.221227 0.220916
0.305458 0.221310 0.220916
0.332491 0.221404 0.220916
0.363465 0.221508 0.220916
0.398093 0.221618 0.220916
0.436030 0.221730 0.220916
0.476895 0.221837 0.220916
0.520283 0.221934 0.220916
0.565762 0.222012 0.220916
0.612860 0.222063 0.220916
0.661053 0.222078 0.220916
0.709745 0.222049 0.220916
0.758236 0.221971 0.220916
0.805688 0.221842 0.220916
0.851675 0.221868 0.220916
0.895269 0.222356 0.220916
0.933273 0.222877 0.220916
0.963352 0.223385 0.220916
0.982340 0.223836 0.220916
0.986695 0.224184 0.220916
0.986695 0.224385 0.220916
0.986695 0.224406 0.220916
0.220916 0.222299 0.220916
0.220916 0.222335 0.220916
0.220916 0.222373 0.220916
0.221066 0.222426 0.220916
0.221762 0.222496 0.220916
0.223422 0.222584 0.220916
0.226567 0.222691 0.220916
0.231800 0.222818 0.220916
0.239748 0.222965 0.220916
0.250998 0.223132 0.220916
0.266016 0.223317 0.220916
0.285100 0.223521 0.220916
0.308356 0.223739 0.220916
0.335718 0.223969 0.220916
0.366987 0.224204 0.220916
0.401872 0.224439 0.220916
0.440031 0.224665 0.220916
0.481082 0.224871 0.220916
0.524620 0.225048 0.220916
0.570209 0.225181 0.220916
0.617377 0.225258 0.220916
0.665593 0.225264 0.220916
0.714252 0.225186 0.220916
0.762645 0.225012 0.220916
0.810094 0.224844 0.220916
0.857000 0.225820 0.220916
0.899939 0.226805 0.220916
0.937089 0.227751 0.220916
0.966051 0.228607 0.220916
0.983553 0.229321 0.220916
0.986695 0.229838 0.220916
0.986695 0.230109 0.220916
0.986695 0.230089 0.220916
0.220916 0.226720 0.220916
0.220916 0.226788 0.220916
0.220933 0.226861 0.220916
0.221209 0.226961 0.220916
0.222076 0.227092 0.220916
0.223958 0.227254 0.220916
0.227377 0.227449 0.220916
0.232934 0.227674 0.220916
0.241250 0.227930 0.220916
0.252896 0.228215 0.220916
0.268325 0.228526 0.220916
0.287815 0.228859 0.220916
0.311459 0.229208 0.220916
0.339180 0.229567 0.220916
0.370775 0.229926 0.220916
0.405951 0.230276 0.220916
0.444362 0.230603 0.220916
0.485628 0.230894 0.220916
0.529343 0.231133 0.220916
0.575067 0.231302 0.220916
0.622323 0.231382 0.220916
0.670575 0.231353 0.220916
0.719207 0.231195 0.220916
0.767529 0.230918 0.220916
0.816550 0.232445 0.220916
0.862887 0.233959 0.220916
0.905078 0.235412 0.220916
0.941246 0.236749 0.220916
0.968915 0.237915 0.220916
0.984695 0.238849 0.220916
0.986695 0.239491 0.220916
0.986695 0.239783 0.220916
0.986695 0.239269 0.220916
0.220916 0.235197 0.220916
0.220916 0.235296 0.220916
0.220992 0.235401 0.220916
0.221390 0.235545 0.220916
0.222426 0.235731 0.220916
0.224526 0.235961 0.220916
0.228218 0.236235 0.220916
0.234099 0.236550 0.220916
0.242786 0.236905 0.220916
0.254838 0.237295 0.220916
0.270689 0.237717 0.220916
0.290603 0.238162 0.220916
0.314657 0.238624 0.220916
0.342764 0.239092 0.220916
0.374714 0.239553 0.220916
0.410211 0.239993 0.220916
0.448907 0.240397 0.220916
0.490421 0.240746 0.220916
0.534342 0.241018 0.220916
0.580229 0.241192 0.220916
0.627597 0.241244 0.220916
0.675903 0.241147 0.220916
0.724804 0.241196 0.220916
0.775001 0.243276 0.220916
0.823549 0.245327 0.220916
0.869250 0.247300 0.220916
0.910599 0.249140 0.220916
0.945657 0.250790 0.220916
0.971858 0.252188 0.220916
0.985667 0.253269 0.220916
0.986695 0.253968 0.220916
0.986695 0.253835 0.220916
0.986695 0.252710 0.220916
0.220916 0.248572 0.220916
0.220927 0.248696 0.220916
0.221078 0.248826 0.220916
0.221588 0.249005 0.220916
0.222778 0.249237 0.220916
0.225080 0.249521 0.220916
0.229027 0.249858 0.220916
0.235219 0.250244 0.220916
0.244266 0.250675 0.220916
0.256716 0.251147 0.220916
0.272990 0.251653 0.220916
0.293335 0.252183 0.220916
0.317814 0.252726 0.220916
0.346329 0.253269 0.220916
0.378661 0.253798 0.220916
0.414511 0.254294 0.220916
0.453526 0.254738 0.220916
0.495322 0.255107 0.220916
0.539485 0.255376 0.220916
0.585567 0.255519 0.220916
0.633077 0.255506 0.220916
0.682493 0.256655 0.220916
0.733118 0.259222 0.220916
0.782949 0.261751 0.220916
0.830984 0.264194 0.220916
0.875987 0.266498 0.220916
0.916403 0.268606 0.220916
0.950226 0.270455 0.220916
0.974781 0.271981 0.220916
0.986367 0.273117 0.220916
0.986695 0.273448 0.220916
0.986695 0.272180 0.220916
0.986695 0.270872 0.220916
0.220916 0.267367 0.220916
0.220955 0.267508 0.220916
0.221166 0.267655 0.220916
0.221764 0.267858 0.220916
0.223080 0.268119 0.220916
0.225554 0.268439 0.220916
0.229724 0.268817 0.220916
0.236193 0.269248 0.220916
0.245570 0.269728 0.220916
0.258396 0.270250 0.220916
0.275080 0.270805 0.220916
0.295853 0.271381 0.220916
0.320764 0.271967 0.220916
0.349705 0.272546 0.220916
0.382445 0.273100 0.220916
0.418680 0.273609 0.220916
0.458052 0.274050 0.220916
0.500170 0.274398 0.220916
0.544615 0.274623 0.220916
0.591182 0.275033 0.220916
0.640977 0.277961 0.220916
0.691425 0.280892 0.220916
0.741801 0.283786 0.220916
0.791248 0.286596 0.220916
0.838734 0.289271 0.220916
0.882983 0.291756 0.220916
0.922383 0.293992 0.220916
0.954848 0.295915 0.220916
0.977581 0.297459 0.220916
0.986654 0.298066 0.220916
0.986695 0.296716 0.220916
0.986695 0.295316 0.220916
0.986695 0.293867 0.220916
0.220916 0.291728 0.220916
0.220976 0.291876 0.220916
0.221221 0.292032 0.220916
0.221874 0.292245 0.220916
0.223273 0.292520 0.220916
0.225868 0.292855 0.220916
0.230207 0.293249 0.220916
0.236899 0.293698 0.220916
0.246557 0.294195 0.220916
0.259718 0.294732 0.220916
0.276782 0.295299 0.220916
0.297969 0.295884 0.220916
0.323314 0.296471 0.220916
0.352693 0.297043 0.220916
0.385867 0.297580 0.220916
0.422522 0.298059 0.220916
0.462291 0.298456 0.220916
0.505077 0.299155 0.220916
0.551890 0.302239 0.220916
0.600472 0.305371 0.220916
0.650249 0.308513 0.220916
0.700574 0.311628 0.220916
0.750703 0.314671 0.220916
0.799756 0.317593 0.220916
0.846666 0.320343 0.220916
0.890113 0.322865 0.220916
0.928423 0.325097 0.220916
0.959414 0.326977 0.220916
0.979274 0.327373 0.220916
0.986632 0.325994 0.220916
0.986695 0.324558 0.220916
0.986695 0.323067 0.220916
0.986695 0.321520 0.220916
0.220916 0.321466 0.220916
0.220970 0.321614 0.220916
0.221212 0.321769 0.220916
0.221870 0.321981 0.220916
0.223290 0.322253 0.220916
0.225934 0.322585 0.220916
0.230363 0.322973 0.220916
0.237198 0.323413 0.220916
0.247062 0.323898 0.220916
0.260495 0.324419 0.220916
0.277894 0.324965 0.220916
0.299467 0.325521 0.220916
0.325237 0.326072 0.220916
0.355065 0.326599 0.220916
0.388699 0.327081 0.220916
0.427189 0.329437 0.220916
0.469267 0.332464 0.220916
0.514060 0.335579 0.220916
0.561068 0.338754 0.220916
0.609757 0.341954 0.220916
0.659542 0.345143 0.220916
0.709764 0.348278 0.220916
0.759659 0.351315 0.220916
0.808318 0.354206 0.220916
0.854639 0.356897 0.220916
0.897249 0.359333 0.220916
0.934403 0.361453 0.220916
0.961186 0.360879 0.220916
0.979002 0.359513 0.220916
0.986604 0.358088 0.220916
0.986695 0.356604 0.220916
0.986695 0.355060 0.220916
0.986695 0.353456 0.220916
0.220916 0.356168 0.220916
0.220936 0.356308 0.220916
0.221124 0.356455 0.220916
0.221718 0.356655 0.220916
0.223074 0.356912 0.220916
0.225666 0.357224 0.220916
0.230075 0.357588 0.220916
0.236943 0.357998 0.220916
0.246907 0.358448 0.220916
0.260522 0.358926 0.220916
0.278187 0.359422 0.220916
0.300655 0.360803 0.220916
0.328174 0.363275 0.220916
0.360003 0.365911 0.220916
0.395802 0.368693 0.220916
0.435162 0.371601 0.220916
0.477635 0.374610 0.220916
0.522743 0.377692 0.220916
0.569986 0.380816 0.220916
0.618821 0.383948 0.220916
0.668653 0.387049 0.220916
0.718806 0.390079 0.220916
0.768492 0.392992 0.220916
0.816774 0.395741 0.220916
0.862505 0.398271 0.220916
0.902547 0.399276 0.220916
0.934691 0.398016 0.220916
0.960657 0.396696 0.220916
0.978700 0.395315 0.220916
0.986567 0.393874 0.220916
0.986695 0.392372 0.220916
0.986695 0.390807 0.220916
0.986695 0.389181 0.220916
0.220916 0.395298 0.220916
0.220916 0.395426 0.220916
0.220988 0.395558 0.220916
0.221436 0.395864 0.220916
0.222696 0.396706 0.220916
0.225301 0.397751 0.220916
0.229908 0.399001 0.220916
0.237238 0.400457 0.220916
0.247993 0.402117 0.220916
0.262756 0.403977 0.220916
0.281914 0.406028 0.220916
0.305623 0.408261 0.220916
0.333820 0.410662 0.220916
0.366272 0.413216 0.220916
0.402634 0.415903 0.220916
0.442493 0.418702 0.220916
0.485397 0.421588 0.220916
0.530868 0.424533 0.220916
0.578396 0.427505 0.220916
0.627431 0.430470 0.220916
0.677363 0.433391 0.220916
0.727495 0.436225 0.220916
0.777016 0.438930 0.220916
0.823748 0.440527 0.220916
0.864460 0.439392 0.220916
0.901559 0.438199 0.220916
0.933895 0.436946 0.220916
0.960076 0.435634 0.220916
0.978365 0.434261 0.220916
0.986519 0.432826 0.220916
0.986695 0.431330 0.220916
0.986695 0.429772 0.220916
0.986695 0.428150 0.220916
0.220916 0.446687 0.220916
0.220919 0.447112 0.220916
0.221075 0.447558 0.220916
0.221683 0.448176 0.220916
0.223157 0.448980 0.220916
0.226052 0.449975 0.220916
0.231033 0.451166 0.220916
0.238824 0.452550 0.220916
0.250118 0.454127 0.220916
0.265481 0.455891 0.220916
0.285277 0.457833 0.220916
0.309636 0.459944 0.220916
0.338472 0.462209 0.220916
0.371539 0.464613 0.220916
0.408479 0.467135 0.220916
0.448872 0.469756 0.220916
0.492258 0.472449 0.220916
0.538151 0.475186 0.220916
0.586031 0.477938 0.220916
0.635336 0.480670 0.220916
0.685436 0.483345 0.220916
0.733498 0.484023 0.220916
0.778804 0.483023 0.220916
0.822317 0.481967 0.220916
0.863200 0.480854 0.220916
0.900486 0.479684 0.220916
0.933030 0.478454 0.220916
0.959443 0.477166 0.220916
0.977997 0.475818 0.220916
0.986459 0.474409 0.220916
0.986695 0.472939 0.220916
0.986695 0.471407 0.220916
0.986695 0.469812 0.220916
0.220916 0.502555 0.220916
0.220923 0.502951 0.220916
0.221103 0.503367 0.220916
0.221755 0.503941 0.220916
0.223311 0.504689 0.220916
0.226339 0.505614 0.220916
0.231523 0.506720 0.220916
0.239598 0.508005 0.220916
0.251264 0.509466 0.220916
0.267082 0.511099 0.220916
0.287402 0.512895 0.220916
0.312333 0.514843 0.220916
0.341771 0.516929 0.220916
0.375447 0.519139 0.220916
0.412989 0.521452 0.220916
0.453962 0.523848 0.220916
0.497893 0.526302 0.220916
0.544284 0.528788 0.220916
0.591582 0.530014 0.220916
0.638242 0.529203 0.220916
0.685128 0.528340 0.220916
0.731632 0.527424 0.220916
0.777092 0.526454 0.220916
0.820773 0.525429 0.220916
0.861839 0.524349 0.220916
0.899326 0.523212 0.220916
0.932092 0.522018 0.220916
0.958754 0.520767 0.220916
0.977592 0.519457 0.220916
0.986386 0.518088 0.220916
0.986695 0.516658 0.220916
0.986695 0.515169 0.220916
0.986695 0.513617 0.220916
0.220916 0.560869 0.220916
0.220916 0.561230 0.220916
0.221020 0.561609 0.220916
0.221581 0.562132 0.220916
0.223045 0.562813 0.220916
0.226004 0.563655 0.220916
0.231167 0.564660 0.220916
0.239301 0.565828 0.220916
0.251125 0.567154 0.220916
0.267216 0.568634 0.220916
0.287919 0.570259 0.220916
0.313332 0.572019 0.220916
0.343325 0.573901 0.220916
0.377608 0.575889 0.220916
0.415578 0.577434 0.220916
0.455867 0.576849 0.220916
0.498583 0.576216 0.220916
0.543194 0.575535 0.220916
0.589165 0.574805 0.220916
0.635948 0.574026 0.220916
0.682971 0.573197 0.220916
0.729627 0.572316 0.220916
0.775252 0.571383 0.220916
0.819112 0.570397 0.220916
0.860374 0.569358 0.220916
0.898076 0.568265 0.220916
0.931079 0.567116 0.220916
0.958008 0.565912 0.220916
0.977149 0.564651 0.220916
0.986296 0.563333 0.220916
0.986695 0.561957 0.220916
0.986695 0.560522 0.220916
0.986695 0.559028 0.220916
0.220916 0.620642 0.220916
0.220916 0.620964 0.220916
0.220918 0.621302 0.220916
0.221211 0.621769 0.220916
0.222359 0.622376 0.220916
0.224983 0.623127 0.220916
0.229834 0.624023 0.220916
0.237726 0.625062 0.220916
0.249457 0.625512 0.220916
0.265583 0.625204 0.220916
0.286348 0.624857 0.220916
0.311749 0.624470 0.220916
0.341551 0.624042 0.220916
0.375358 0.623571 0.220916
0.412686 0.623057 0.220916
0.453008 0.622499 0.220916
0.495791 0.621896 0.220916
0.540494 0.621248 0.220916
0.586578 0.620553 0.220916
0.633492 0.619810 0.220916
0.680662 0.619020 0.220916
0.727479 0.618180 0.220916
0.773280 0.617291 0.220916
0.817332 0.616351 0.220916
0.858803 0.615360 0.220916
0.896733 0.614318 0.220916
0.929990 0.613223 0.220916
0.957202 0.612074 0.220916
0.976665 0.610871 0.220916
0.986187 0.609614 0.220916
0.986695 0.608300 0.220916
0.986695 0.606931 0.220916
0.986695 0.605505 0.220916
0.220916 0.672566 0.220916
0.220916 0.672502 0.220916
0.220916 0.672434 0.220916
0.220984 0.672341 0.220916
0.221792 0.672218 0.220916
0.224051 0.672064 0.220916
0.228538 0.671878 0.220916
0.236083 0.671658 0.220916
0.247453 0.671404 0.220916
0.263224 0.671113 0.220916
0.283699 0.670786 0.220916
0.308888 0.670420 0.220916
0.338553 0.670016 0.220916
0.372292 0.669572 0.220916
0.409607 0.669086 0.220916
0.449963 0.668560 0.220916
0.492814 0.667991 0.220916
0.537615 0.667378 0.220916
0.583819 0.666722 0.220916
0.630872 0.666021 0.220916
0.678197 0.665274 0.220916
0.725185 0.664481 0.220916
0.771173 0.663641 0.220916
0.815428 0.662754 0.220916
0.857121 0.661817 0.220916
0.895294 0.660832 0.220916
0.928820 0.659797 0.220916
0.956332 0.658711 0.220916
0.976138 0.657574 0.220916
0.986058 0.656385 0.220916
0.986695 0.655143 0.220916
0.986695 0.653848 0.220916
0.986695 0.652499 0.220916
0.220916 0.718211 0.220916
0.220916 0.718151 0.220916
0.220916 0.718088 0.220916
0.220917 0.718001 0.220916
0.221412 0.717886 0.220916
0.223295 0.717742 0.220916
0.227357 0.717568 0.220916
0.234455 0.717363 0.220916
0.245388 0.717125 0.220916
0.260768 0.716854 0.220916
0.280922 0.716548 0.220916
0.305873 0.716206 0.220916
0.335384 0.715829 0.220916
0.369043 0.715413 0.220916
0.406340 0.714960 0.220916
0.446729 0.714468 0.220916
0.489651 0.713936 0.220916
0.534553 0.713363 0.220916
0.580884 0.712750 0.220916
0.628083 0.712094 0.220916
0.675573 0.711396 0.220916
0.722742 0.710654 0.220916
0.768928 0.709869 0.220916
0.813399 0.709038 0.220916
0.855326 0.708163 0.220916
0.893757 0.707241 0.220916
0.927567 0.706272 0.220916
0.955398 0.705256 0.220916
0.975565 0.704191 0.220916
0.985905 0.703078 0.220916
0.986695 0.701915 0.220916
0.986695 0.700703 0.220916
0.986695 0.699439 0.220916
0.220916 0.763071 0.220916
0.220916 0.763016 0.220916
0.220916 0.762958 0.220916
0.220916 0.762877 0.220916
0.221126 0.762771 0.220916
0.222605 0.762638 0.220916
0.226209 0.762478 0.220916
0.232821 0.762289 0.220916
0.243276 0.762069 0.220916
0.258224 0.761818 0.220916
0.278022 0.761536 0.220916
0.302707 0.761221 0.220916
0.332044 0.760872 0.220916
0.365610 0.760488 0.220916
0.402883 0.760069 0.220916
0.443302 0.759615 0.220916
0.486297 0.759123 0.220916
0.531305 0.758594 0.220916
0.577768 0.758027 0.220916
0.625122 0.757421 0.220916
0.672786 0.756776 0.220916
0.720147 0.756091 0.220916
0.766542 0.755364 0.220916
0.811240 0.754597 0.220916
0.853415 0.753787 0.220916
0.892118 0.752934 0.220916
0.926228 0.752038 0.220916
0.954394 0.751098 0.220916
0.974943 0.750113 0.220916
0.985725 0.749083 0.220916
0.986695 0.748007 0.220916
0.986695 0.746883 0.220916
0.986695 0.745713 0.220916
0.220916 0.806476 0.220916
0.220916 0.806426 0.220916
0.220916 0.806373 0.220916
0.220916 0.806299 0.220916
0.220956 0.806203 0.220916
0.222003 0.806082 0.220916
0.225113 0.805936 0.220916
0.231197 0.805764 0.220916
0.241130 0.805564 0.220916
0.255603 0.805336 0.220916
0.275005 0.805079 0.220916
0.299394 0.804792 0.220916
0.328533 0.804475 0.220916
0.361992 0.804126 0.220916
0.399233 0.803745 0.220916
0.439679 0.803331 0.220916
0.482749 0.802883 0.220916
0.527867 0.802402 0.220916
0.574469 0.801886 0.220916
0.621986 0.801334 0.220916
0.669832 0.800746 0.220916
0.717395 0.800122 0.220916
0.764010 0.799460 0.220916
0.808948 0.798760 0.220916
0.851385 0.798022 0.220916
0.890374 0.797245 0.220916
0.924799 0.796428 0.220916
0.953319 0.795570 0.220916
0.974268 0.794672 0.220916
0.985516 0.793732 0.220916
0.986695 0.792749 0.220916
0.986695 0.790561 0.220916
0.986695 0.785466 0.220916
0.220916 0.847670 0.220916
0.220916 0.847625 0.220916
0.220916 0.847578 0.220916
0.220916 0.847513 0.220916
0.220916 0.847427 0.220916
0.221510 0.847319 0.220916
0.224090 0.847189 0.220916
0.229604 0.847035 0.220916
0.238967 0.846857 0.220916
0.252916 0.846654 0.220916
0.271881 0.846425 0.220916
0.295937 0.846169 0.220916
0.324854 0.845885 0.220916
0.358189 0.845574 0.220916
0.395389 0.845234 0.220916
0.435859 0.844864 0.220916
0.479003 0.844465 0.220916
0.524236 0.844035 0.220916
0.570983 0.843574 0.220916
0.618670 0.843081 0.220916
0.666708 0.842556 0.220916
0.714483 0.841998 0.220916
0.761330 0.841406 0.220916
0.806520 0.840780 0.220916
0.849232 0.840120 0.220916
0.888521 0.839425 0.220916
0.923279 0.838694 0.220916
0.952169 0.837926 0.220916
0.973539 0.837121 0.220916
0.984938 0.833538 0.220916
0.986695 0.829318 0.220916
0.986695 0.824871 0.220916
0.986695 0.820188 0.220916
0.220916 0.885789 0.220916
0.220916 0.885750 0.220916
0.220916 0.885709 0.220916
0.220916 0.885652 0.220916
0.220916 0.885578 0.220916
0.221150 0.885484 0.220916
0.223164 0.885372 0.220916
0.228062 0.885238 0.220916
0.236804 0.885084 0.220916
0.250179 0.884907 0.220916
0.268658 0.884708 0.220916
0.292344 0.884486 0.220916
0.321010 0.884240 0.220916
0.354202 0.883970 0.220916
0.391350 0.883674 0.220916
0.431839 0.883353 0.220916
0.475058 0.883006 0.220916
0.520408 0.882633 0.220916
0.567306 0.882232 0.220916
0.615170 0.881803 0.220916
0.663410 0.881346 0.220916
0.711407 0.880861 0.220916
0.758497 0.880346 0.220916
0.803952 0.879801 0.220916
0.846952 0.879226 0.220916
0.886557 0.878620 0.220916
0.919860 0.875799 0.220916
0.947956 0.872587 0.220916
0.969659 0.869184 0.220916
0.983216 0.865584 0.220916
0.986695 0.861778 0.220916
0.986695 0.857760 0.220916
0.986695 0.853521 0.220916
0.220916 0.919821 0.220916
0.220916 0.919788 0.220916
0.220916 0.919754 0.220916
0.220916 0.919707 0.220916
0.220916 0.919645 0.220916
0.220949 0.919568 0.220916
0.222360 0.919474 0.220916
0.226595 0.919363 0.220916
0.234663 0.919234 0.220916
0.247407 0.919087 0.220916
0.265349 0.918922 0.220916
0.288621 0.918737 0.220916
0.317003 0.918532 0.220916
0.350030 0.918306 0.220916
0.387113 0.918060 0.220916
0.427616 0.917793 0.220916
0.470909 0.917503 0.220916
0.516379 0.917191 0.220916
