studio/assets/luts/arri-film.cube
TITLE "ARRI Film Look"
# Warm cinema-grade look inspired by ARRI Alexa. Lifted blacks, warm highlights, gentle contrast.
# Generated by Like One Studio — cinema-grade pipeline
# Color science: lift/gamma/gain + filmic S-curve + zone tinting
LUT_3D_SIZE 5
# Domain: standard 0-1 range
DOMAIN_MIN 0.0 0.0 0.0
DOMAIN_MAX 1.0 1.0 1.0
0.220916 0.220916 0.220916
0.233536 0.220916 0.220916
0.421925 0.220916 0.220916
0.791135 0.220916 0.220916
0.986695 0.220916 0.220916
0.220916 0.226720 0.220916
0.241250 0.227930 0.220916
0.444362 0.230603 0.220916
0.816550 0.232445 0.220916
0.986695 0.239269 0.220916
0.220916 0.446687 0.220916
0.250118 0.454127 0.220916
0.492258 0.472449 0.220916
0.863200 0.480854 0.220916
0.986695 0.469812 0.220916
0.220916 0.847670 0.220916
0.238967 0.846857 0.220916
0.479003 0.844465 0.220916
0.849232 0.840120 0.220916
0.986695 0.820188 0.220916
0.220916 0.986695 0.220916
0.226381 0.986695 0.220916
0.480986 0.986695 0.220916
0.865462 0.986695 0.223387
0.986695 0.986695 0.315342
0.220916 0.220916 0.220916
0.234389 0.220916 0.220916
0.424499 0.220916 0.221111
0.793760 0.220916 0.221843
0.986695 0.220916 0.226152
0.220916 0.227141 0.221016
0.241895 0.228316 0.221196
0.446250 0.230799 0.221742
0.819426 0.233073 0.222455
0.986695 0.239000 0.226697
0.220916 0.449282 0.223014
0.250433 0.456516 0.223899
0.493483 0.474241 0.226208
0.862939 0.480379 0.225790
0.986695 0.469333 0.222936
0.220916 0.847394 0.222754
0.238700 0.846581 0.222491
0.478527 0.844186 0.221834
0.848957 0.839838 0.221094
0.986695 0.818773 0.220916
0.220916 0.986695 0.220916
0.227882 0.986695 0.220916
0.484821 0.986695 0.226631
0.867111 0.986695 0.272242
0.986695 0.986695 0.396092
0.220916 0.220916 0.342446
0.236823 0.220916 0.350732
0.431638 0.220916 0.371890
0.801106 0.220916 0.397525
0.986695 0.220916 0.450483
0.220916 0.228310 0.368183
0.243593 0.229345 0.374622
0.451383 0.231214 0.390148
0.827487 0.234803 0.419950
0.986695 0.238221 0.454611
0.220916 0.456479 0.425197
0.251098 0.463112 0.432637
0.496688 0.479099 0.450966
0.862171 0.478986 0.451789
0.986695 0.467932 0.440594
0.220916 0.846585 0.439668
0.237927 0.845769 0.438240
0.477133 0.843369 0.434057
0.848152 0.839010 0.426526
0.986695 0.814597 0.389147
0.220916 0.986695 0.411135
0.233327 0.986695 0.421455
0.496222 0.986695 0.453484
0.872002 0.986695 0.516917
0.986695 0.986695 0.621638
0.220916 0.220916 0.688317
0.240771 0.220916 0.699850
0.442972 0.220916 0.729972
0.814459 0.220916 0.774372
0.986695 0.220916 0.840673
0.220916 0.230033 0.724572
0.245849 0.230718 0.734005
0.459134 0.231335 0.758375
0.840682 0.237375 0.808368
0.986695 0.236858 0.837871
0.220916 0.467913 0.814249
0.251308 0.473475 0.822686
0.499315 0.483850 0.840599
0.860786 0.476479 0.836203
0.986695 0.465410 0.829528
0.220916 0.845126 0.828971
0.236574 0.844307 0.828111
0.474623 0.841895 0.825583
0.846700 0.837516 0.820994
0.986695 0.806980 0.791909
0.220916 0.986695 0.812479
0.246904 0.986695 0.816637
0.517306 0.986695 0.829740
0.880988 0.986695 0.856202
0.986695 0.986695 0.899927
0.220916 0.220916 0.980535
0.245103 0.220916 0.983351
0.456352 0.220916 0.986695
0.835756 0.220916 0.986695
0.986695 0.220916 0.986695
0.220916 0.231335 0.986593
0.247091 0.231368 0.986695
0.472376 0.233416 0.986695
0.857533 0.239554 0.986695
0.986695 0.234912 0.986695
0.220916 0.481447 0.986695
0.249337 0.484210 0.986695
0.495615 0.480113 0.986695
0.858704 0.472727 0.986695
0.986695 0.461637 0.986695
0.220916 0.842933 0.986695
0.234643 0.842108 0.986695
0.470868 0.839680 0.986695
0.837889 0.828708 0.986695
0.986695 0.807227 0.986695
0.221863 0.986695 0.986695
0.275305 0.986695 0.986695
0.550088 0.986695 0.986695
0.894766 0.986695 0.986695
0.986695 0.986695 0.986695
