studio/assets/luts/business.cube
TITLE "Business — Professional"
# Navy shadows, silver midtones, ice blue highlights. Clean, professional.
# Generated by Like One Studio — cinema-grade pipeline
# Color science: lift/gamma/gain + filmic S-curve + zone tinting
LUT_3D_SIZE 9
# Domain: standard 0-1 range
DOMAIN_MIN 0.0 0.0 0.0
DOMAIN_MAX 1.0 1.0 1.0
0.220916 0.220916 0.221235
0.220916 0.220916 0.221430
0.220916 0.220916 0.222087
0.232121 0.220916 0.223726
0.307202 0.220916 0.226890
0.455080 0.220919 0.231583
0.650099 0.221440 0.236605
0.854441 0.221885 0.238605
0.985398 0.221076 0.228132
0.220916 0.220916 0.222045
0.220916 0.220916 0.222364
0.220916 0.220916 0.223289
0.236004 0.220916 0.225265
0.315955 0.221197 0.228650
0.466061 0.222616 0.233226
0.661181 0.224646 0.237636
0.864225 0.225450 0.236773
0.986398 0.223179 0.226114
0.220916 0.225424 0.225506
0.220916 0.225998 0.226002
0.221166 0.227508 0.227283
0.246408 0.230342 0.229604
0.336392 0.234640 0.232944
0.491200 0.239879 0.236662
0.686520 0.244410 0.239151
0.886187 0.244905 0.231628
0.986695 0.238592 0.222120
0.220916 0.278194 0.233106
0.220916 0.279623 0.233573
0.224795 0.283080 0.234684
0.263700 0.288741 0.236405
0.366232 0.296032 0.238286
0.528613 0.303387 0.238262
0.728955 0.307814 0.231319
0.917121 0.305947 0.223062
0.986695 0.308858 0.222553
0.220916 0.409277 0.238945
0.220917 0.410640 0.238430
0.230221 0.413860 0.237071
0.283002 0.418892 0.234467
0.401999 0.424851 0.230302
0.575933 0.429972 0.224891
0.769372 0.433138 0.221991
0.925840 0.438335 0.222889
0.986695 0.444579 0.224318
0.220916 0.598878 0.221935
0.220916 0.599488 0.221796
0.231691 0.600290 0.221921
0.294072 0.601705 0.222161
0.422738 0.603817 0.222567
0.594383 0.606690 0.223211
0.776895 0.610379 0.224191
0.930073 0.614927 0.225634
0.986695 0.620370 0.227697
0.220916 0.787201 0.224559
0.221558 0.787442 0.224656
0.238703 0.788043 0.224904
0.306935 0.789105 0.225360
0.436878 0.790686 0.226086
0.606898 0.792834 0.227160
0.786416 0.795587 0.228681
0.935321 0.798972 0.230775
0.986695 0.800895 0.231889
0.221310 0.940111 0.230599
0.225054 0.940236 0.230752
0.249328 0.940550 0.231139
0.323296 0.941048 0.231762
0.452464 0.941194 0.231841
0.618529 0.941394 0.231950
0.793223 0.941650 0.232092
0.942160 0.946787 0.240538
0.986695 0.954388 0.270324
0.230752 0.986695 0.251856
0.241995 0.986695 0.253813
0.282615 0.986695 0.258930
0.374439 0.986695 0.268705
0.515832 0.986695 0.284900
0.684827 0.986695 0.309594
0.850145 0.986695 0.344857
0.967710 0.986695 0.392325
0.986695 0.986695 0.452868
0.220916 0.220916 0.222995
0.220916 0.220916 0.223468
0.220916 0.220916 0.224805
0.232500 0.220916 0.227578
0.308099 0.220916 0.232265
0.456213 0.220922 0.238700
0.651244 0.221460 0.245425
0.855456 0.221880 0.248394
0.985532 0.221060 0.235961
0.220916 0.220916 0.224727
0.220916 0.220916 0.225310
0.220916 0.220916 0.226879
0.236410 0.220916 0.229919
0.316822 0.221233 0.234720
0.467140 0.222679 0.240897
0.662269 0.224694 0.246844
0.865180 0.225435 0.246376
0.986459 0.223115 0.233211
0.220916 0.225617 0.230274
0.220916 0.226197 0.230995
0.221209 0.227720 0.232818
0.246832 0.230565 0.236025
0.337168 0.234855 0.240521
0.492145 0.240052 0.245504
0.687474 0.244496 0.249119
0.887001 0.244849 0.240380
0.986695 0.238406 0.226724
0.220916 0.278682 0.240737
0.220916 0.280102 0.241360
0.224895 0.283536 0.242842
0.264046 0.289152 0.245154
0.366811 0.296367 0.247766
0.529501 0.303591 0.248021
0.729822 0.307864 0.240002
0.917723 0.305804 0.228493
0.986695 0.308972 0.227947
0.220916 0.409745 0.248762
0.220917 0.411093 0.248204
0.230314 0.414277 0.246708
0.283269 0.419244 0.243750
0.402442 0.425107 0.238744
0.576493 0.430097 0.231431
0.769457 0.433261 0.226753
0.925888 0.438458 0.228606
0.986695 0.444701 0.231143
0.220916 0.599174 0.226334
0.220916 0.599596 0.226300
0.231745 0.600399 0.226594
0.294182 0.601814 0.227131
0.422862 0.603925 0.227976
0.594492 0.606798 0.229209
0.776979 0.610487 0.230930
0.930119 0.615035 0.233262
0.986695 0.620477 0.236348
0.220916 0.787283 0.231542
0.221572 0.787523 0.231702
0.238770 0.788125 0.232105
0.307049 0.789186 0.232833
0.437001 0.790767 0.233958
0.607007 0.792915 0.235565
0.786498 0.795667 0.237753
0.935366 0.799051 0.240638
0.986695 0.800909 0.242061
0.221321 0.940153 0.240400
0.225089 0.940279 0.240607
0.249409 0.940592 0.241128
0.323329 0.941056 0.241892
0.452498 0.941202 0.241998
0.618559 0.941401 0.242142
0.793245 0.941657 0.242329
0.942311 0.946943 0.253311
0.986695 0.954537 0.287283
0.231135 0.986695 0.266883
0.242521 0.986695 0.269100
0.283366 0.986695 0.274826
0.375293 0.986695 0.285533
0.516615 0.986695 0.302809
0.685442 0.986695 0.328459
0.850545 0.986695 0.364272
0.967855 0.986695 0.411692
0.986695 0.986695 0.471529
0.220916 0.220916 0.233749
0.220916 0.220916 0.234931
0.220916 0.220916 0.237978
0.233462 0.220916 0.243566
0.310328 0.220916 0.251978
0.459022 0.220935 0.262657
0.654080 0.221508 0.273657
0.857968 0.221863 0.279376
0.985834 0.221023 0.265169
0.220916 0.220916 0.237808
0.220916 0.220916 0.239054
0.220916 0.220916 0.242219
0.237433 0.220916 0.247874
0.318976 0.221334 0.256124
0.469815 0.222840 0.266220
0.664966 0.224808 0.276098
0.867543 0.225390 0.277354
0.986582 0.222955 0.261436
0.220916 0.226108 0.248506
0.220916 0.226704 0.249778
0.221330 0.228255 0.252924
0.247892 0.231122 0.258287
0.339089 0.235389 0.265610
0.494486 0.240475 0.273790
0.689837 0.244696 0.280545
0.889016 0.244698 0.270682
0.986695 0.238008 0.251313
0.220916 0.279890 0.265960
0.220916 0.281288 0.266971
0.225147 0.284661 0.269382
0.264899 0.290162 0.273200
0.368239 0.297186 0.277765
0.531698 0.304081 0.279013
0.731969 0.307969 0.270232
0.919207 0.305429 0.254250
0.986695 0.309259 0.255044
0.220916 0.410893 0.279730
0.220920 0.412204 0.279192
0.230539 0.415297 0.277696
0.283919 0.420103 0.274545
0.403526 0.425725 0.268703
0.577872 0.430389 0.258862
0.769670 0.433568 0.252649
0.926009 0.438765 0.256310
0.986695 0.445007 0.260900
0.220916 0.599548 0.251452
0.220916 0.599869 0.251698
0.231881 0.600671 0.252318
0.294456 0.602086 0.253423
0.423170 0.604197 0.255101
0.594766 0.607069 0.257439
0.777188 0.610756 0.260529
0.930236 0.615303 0.264474
0.986695 0.620743 0.269380
0.220916 0.787487 0.261590
0.221608 0.787728 0.261863
0.238939 0.788329 0.262547
0.307334 0.789390 0.263766
0.437308 0.790970 0.265609
0.607277 0.793117 0.268164
0.786702 0.795868 0.271520
0.935478 0.799251 0.275773
0.986695 0.800944 0.277572
0.221349 0.940260 0.275429
0.225176 0.940385 0.275728
0.249613 0.940698 0.276478
0.323412 0.941074 0.277333
0.452584 0.941221 0.277483
0.618634 0.941420 0.277687
0.793302 0.941676 0.277951
0.942688 0.947333 0.293795
0.986695 0.954910 0.334218
0.232123 0.986695 0.311241
0.243865 0.986695 0.313819
0.285261 0.986695 0.320376
0.377436 0.986695 0.332304
0.518577 0.986695 0.350879
0.686982 0.986695 0.377460
0.851544 0.986695 0.413379
0.968217 0.986695 0.459757
0.986695 0.986695 0.517273
0.220916 0.220916 0.270602
0.220916 0.220916 0.272872
0.220916 0.220916 0.278522
0.235205 0.220916 0.288319
0.314223 0.220916 0.302227
0.463902 0.220975 0.319200
0.659004 0.221591 0.336851
0.862311 0.221825 0.347485
0.986255 0.220968 0.336713
0.220916 0.220916 0.278214
0.220916 0.220916 0.280458
0.220916 0.220916 0.286010
0.239266 0.220929 0.295536
0.322730 0.221536 0.308866
0.474457 0.223124 0.324834
0.669644 0.224991 0.340991
0.871625 0.225288 0.346364
0.986689 0.222673 0.333196
0.220916 0.227008 0.296577
0.220916 0.227625 0.298659
0.221585 0.229217 0.303751
0.249753 0.232107 0.312297
0.342419 0.236315 0.323867
0.498539 0.241188 0.337071
0.694495 0.244956 0.348027
0.892493 0.244385 0.341495
0.986695 0.238302 0.325252
0.220916 0.281977 0.324422
0.220916 0.283333 0.326026
0.225587 0.286597 0.329876
0.266361 0.291888 0.336092
0.370688 0.298569 0.343941
0.535500 0.304879 0.347304
0.735686 0.308086 0.341126
0.921764 0.304697 0.325845
0.986695 0.309764 0.330432
0.220916 0.412844 0.347650
0.220927 0.414092 0.347394
0.230911 0.417023 0.346571
0.285006 0.421545 0.344478
0.405366 0.426743 0.339841
0.580236 0.430829 0.330650
0.770044 0.434111 0.327128
0.926221 0.439307 0.332151
0.986695 0.445548 0.338240
0.220916 0.600030 0.325448
0.220916 0.600350 0.325795
0.232124 0.601152 0.326665
0.294942 0.602566 0.328204
0.423714 0.604676 0.330510
0.595250 0.607546 0.333668
0.777557 0.611232 0.337755
0.930442 0.615776 0.342844
0.986695 0.621213 0.349001
0.220916 0.787848 0.339137
0.221673 0.788089 0.339490
0.239240 0.788690 0.340375
0.307837 0.789749 0.341940
0.437850 0.791328 0.344284
0.607754 0.793473 0.347490
0.787064 0.796222 0.351634
0.935674 0.799602 0.356785
0.986695 0.801007 0.358434
0.221402 0.940448 0.356372
0.225334 0.940573 0.356731
0.249974 0.940886 0.357629
0.323558 0.941108 0.358150
0.452735 0.941254 0.358328
0.618766 0.941453 0.358571
0.793402 0.941709 0.358885
0.943350 0.948016 0.379408
0.986695 0.955570 0.422898
0.233977 0.986695 0.399619
0.246328 0.986695 0.402280
0.288660 0.986695 0.408984
0.381245 0.986695 0.420991
0.522053 0.986695 0.439298
0.689710 0.986695 0.464893
0.853314 0.986695 0.498724
0.968853 0.986695 0.541604
0.986695 0.986695 0.594031
0.220916 0.220916 0.349526
0.220916 0.220916 0.352858
0.220916 0.220916 0.361042
0.237893 0.220916 0.374935
0.319930 0.220916 0.394251
0.470997 0.221065 0.417636
0.666157 0.221700 0.442547
0.868584 0.221745 0.459218
0.986622 0.220921 0.458029
0.220916 0.220916 0.360599
0.220916 0.220916 0.363814
0.220919 0.220916 0.371689
0.242048 0.221044 0.385000
0.328210 0.221886 0.403392
0.481197 0.223543 0.425463
0.676436 0.225221 0.448664
0.877518 0.225088 0.459975
0.986695 0.222260 0.456330
0.220916 0.228409 0.386443
0.220916 0.229050 0.389325
0.222051 0.230679 0.396352
0.252499 0.233568 0.408113
0.347239 0.237647 0.424115
0.504405 0.242168 0.442869
0.701354 0.245226 0.458306
0.897501 0.243811 0.459780
0.986695 0.238745 0.454629
0.220916 0.284977 0.424888
0.220916 0.286268 0.427130
0.226225 0.289361 0.432546
0.268433 0.294327 0.441444
0.374174 0.300485 0.453150
0.540992 0.305909 0.459403
0.741068 0.308093 0.459678
0.923365 0.304714 0.453753
0.986695 0.310521 0.459958
0.220916 0.415581 0.459012
0.220943 0.416732 0.459315
0.231401 0.419423 0.459888
0.286484 0.423519 0.460256
0.407937 0.428084 0.459272
0.583597 0.431307 0.454959
0.770604 0.434922 0.456565
0.926538 0.440116 0.461716
0.986695 0.446355 0.467897
0.220916 0.600748 0.454831
0.220916 0.601069 0.455190
0.232491 0.601870 0.456088
0.295670 0.603283 0.457672
0.424527 0.605391 0.460038
0.595972 0.608259 0.463262
0.778108 0.611942 0.467408
0.930748 0.616482 0.472531
0.986695 0.621915 0.478678
0.220916 0.788387 0.468803
0.221777 0.788628 0.469159
0.239693 0.789228 0.470051
0.308591 0.790286 0.471625
0.438660 0.791863 0.473974
0.608467 0.794005 0.477175
0.787604 0.796751 0.481290
0.935968 0.800127 0.486374
0.986695 0.801100 0.487263
0.221486 0.940729 0.485968
0.225574 0.940854 0.486321
0.250337 0.941059 0.486866
0.323776 0.941157 0.486984
0.452962 0.941304 0.487159
0.618964 0.941503 0.487398
0.794535 0.942333 0.489531
0.944330 0.949027 0.510871
0.986695 0.956559 0.551482
0.237001 0.986695 0.530983
0.250221 0.986695 0.533340
0.293865 0.986695 0.539261
0.386993 0.986695 0.549812
0.527278 0.986695 0.565785
0.693806 0.986695 0.587925
0.855966 0.986695 0.616930
0.969795 0.986695 0.653368
0.986695 0.986695 0.697531
0.220916 0.220916 0.471114
0.220916 0.220916 0.475189
0.220917 0.220916 0.485161
0.241669 0.220916 0.501997
0.327476 0.220916 0.525330
0.480296 0.221227 0.553714
0.675528 0.221816 0.584670
0.876733 0.221602 0.606807
0.986695 0.220916 0.617444
0.220916 0.220916 0.484622
0.220916 0.220916 0.488527
0.221116 0.220961 0.498071
0.245878 0.221359 0.514157
0.335421 0.222426 0.536387
0.490015 0.224084 0.563322
0.685325 0.225443 0.592510
0.885165 0.224728 0.609761
0.986695 0.221740 0.618212
0.220916 0.230390 0.515899
0.220916 0.231045 0.519379
0.222812 0.232685 0.527868
0.256142 0.235514 0.542114
0.353508 0.239348 0.561660
0.512038 0.243327 0.585079
0.710332 0.245381 0.604226
0.903980 0.242831 0.615270
0.986695 0.239357 0.620587
0.220916 0.288829 0.562612
0.220916 0.290024 0.565378
0.227040 0.292870 0.572096
0.271027 0.297374 0.583269
0.379069 0.302750 0.597577
0.548122 0.306999 0.607416
0.748079 0.307783 0.615507
0.923807 0.305736 0.619822
0.986695 0.311556 0.625234
0.220916 0.418967 0.606172
0.220964 0.419987 0.607121
0.231932 0.422349 0.609327
0.288212 0.425866 0.612641
0.411096 0.429567 0.616222
0.587155 0.431829 0.618637
0.771367 0.436028 0.622277
0.926970 0.441221 0.626764
0.986695 0.447457 0.632133
0.220916 0.601728 0.620764
0.220916 0.602049 0.621077
0.233001 0.602849 0.621860
0.296666 0.604260 0.623242
0.425636 0.606366 0.625304
0.596957 0.609231 0.628109
0.778859 0.612910 0.631709
0.931166 0.617445 0.636147
0.986695 0.622873 0.641456
0.220916 0.789122 0.632918
0.221929 0.789362 0.633227
0.240319 0.789961 0.634000
0.309622 0.791017 0.635362
0.439765 0.792592 0.637394
0.609439 0.794731 0.640159
0.788340 0.797471 0.643707
0.936204 0.800507 0.647591
0.986695 0.801227 0.647986
0.221593 0.941050 0.647565
0.225784 0.941072 0.647588
0.250546 0.941127 0.647645
0.324074 0.941225 0.647746
0.453271 0.941371 0.647896
0.619234 0.941570 0.648102
0.797147 0.943800 0.653783
0.945614 0.950339 0.673444
0.986695 0.957909 0.704717
0.241605 0.986695 0.688983
0.255928 0.986695 0.690794
0.301198 0.986695 0.695342
0.394937 0.986695 0.703437
0.534461 0.986695 0.715668
0.699427 0.986695 0.732576
0.859597 0.986695 0.754637
0.971061 0.986695 0.782185
0.986695 0.986695 0.815258
0.220916 0.220916 0.623819
0.220916 0.220916 0.628245
0.221185 0.220916 0.639057
0.246602 0.220916 0.657271
0.336747 0.220983 0.682464
0.491632 0.221459 0.713146
0.686957 0.221893 0.746898
0.886560 0.221377 0.771768
0.986695 0.220916 0.791557
0.220916 0.220984 0.638474
0.220916 0.221051 0.642702
0.221746 0.221300 0.653027
0.250775 0.221953 0.670403
0.344225 0.223168 0.694404
0.500737 0.224692 0.723571
0.697061 0.225520 0.754026
0.894372 0.224137 0.776362
0.986695 0.221612 0.792942
0.220916 0.232973 0.672284
0.220916 0.233622 0.676041
0.223926 0.235216 0.685205
0.260600 0.237877 0.700593
0.361041 0.241296 0.721766
0.521252 0.244492 0.747348
0.721272 0.245214 0.767960
0.911751 0.241251 0.786256
0.986695 0.240159 0.794939
0.220916 0.293350 0.722801
0.220916 0.294413 0.725808
0.227954 0.296922 0.733126
0.273950 0.300806 0.745358
0.386284 0.304996 0.758701
0.556701 0.307862 0.772692
0.756564 0.306838 0.786759
0.924373 0.307055 0.794361
0.986695 0.312893 0.798443
0.220916 0.422738 0.770817
0.220977 0.423588 0.772244
0.232365 0.425528 0.775667
0.289938 0.428300 0.781217
0.414575 0.430889 0.788360
0.588436 0.433256 0.793466
0.772348 0.437453 0.796214
0.927523 0.442643 0.799595
0.986695 0.448876 0.803627
0.220916 0.602990 0.795072
0.220926 0.603309 0.795309
0.233671 0.604108 0.795900
0.297953 0.605518 0.796943
0.427065 0.607621 0.798496
0.598225 0.610482 0.800606
0.779825 0.614156 0.803309
0.931701 0.618685 0.806633
0.986695 0.624105 0.810598
0.220916 0.790066 0.804216
0.222143 0.790306 0.804447
0.241137 0.790904 0.805026
0.310953 0.791958 0.806046
0.441188 0.793529 0.807566
0.610690 0.795663 0.809630
0.789286 0.798398 0.812275
0.936348 0.800671 0.814340
0.986695 0.801391 0.814634
0.221640 0.941137 0.814320
0.225907 0.941159 0.814337
0.250816 0.941215 0.814380
0.324458 0.941312 0.814455
0.453669 0.941458 0.814567
0.619582 0.941657 0.814720
0.800490 0.945655 0.822587
0.947290 0.952043 0.837187
0.986695 0.959650 0.856963
0.248314 0.986695 0.847027
0.263918 0.986695 0.848173
0.311014 0.986695 0.851047
0.405338 0.986695 0.856156
0.543802 0.986695 0.863854
0.706723 0.986695 0.874439
0.864294 0.986695 0.888120
0.972655 0.986695 0.904922
0.986695 0.986695 0.924508
0.220916 0.220916 0.788780
0.220916 0.220916 0.792988
0.222075 0.220916 0.803219
0.252627 0.220935 0.820289
0.347463 0.221217 0.843528
0.504677 0.221713 0.871151
0.701672 0.221832 0.898797
0.897732 0.221100 0.921301
0.986695 0.220916 0.937196
0.220916 0.221480 0.802669
0.220916 0.221625 0.806652
0.222923 0.222033 0.816331
0.256620 0.222843 0.832460
0.354321 0.224053 0.854373
0.513030 0.225246 0.880340
0.711504 0.225307 0.904683
0.904819 0.223270 0.925633
0.986695 0.221838 0.937630
0.220916 0.236073 0.834193
0.220916 0.236681 0.837647
0.225372 0.238142 0.846027
0.265652 0.240482 0.859947
0.369499 0.243263 0.878757
0.533649 0.245251 0.899104
0.733876 0.244441 0.917725
0.920521 0.238854 0.935110
0.986695 0.241172 0.938708
0.220916 0.298213 0.879664
0.220916 0.299104 0.882297
0.228812 0.301173 0.888662
0.278256 0.304089 0.897741
0.394310 0.306944 0.909057
0.566395 0.308080 0.922170
0.766248 0.304825 0.935600
0.925072 0.308695 0.938397
0.986695 0.314554 0.940585
0.220916 0.426484 0.920407
0.220963 0.427126 0.921748
0.232490 0.428543 0.924976
0.291277 0.430394 0.930247
0.417842 0.431762 0.936750
0.590020 0.435022 0.937913
0.773561 0.439216 0.939393
0.928206 0.444403 0.941197
0.986695 0.450633 0.943326
0.220916 0.604549 0.938780
0.220967 0.604869 0.938907
0.234524 0.605666 0.939225
0.299554 0.607074 0.939783
0.428834 0.609173 0.940613
0.599793 0.612029 0.941733
0.781019 0.615697 0.943159
0.932361 0.620218 0.944895
0.986695 0.625628 0.946942
0.220916 0.791234 0.943634
0.222436 0.791472 0.943755
0.242170 0.792069 0.944058
0.312607 0.793120 0.944590
0.442949 0.794687 0.945379
0.612236 0.796816 0.946445
0.790455 0.799543 0.947799
0.936527 0.800875 0.948330
0.986695 0.801593 0.948480
0.221702 0.941245 0.948320
0.226062 0.941267 0.948329
0.251152 0.941323 0.948351
0.324934 0.941420 0.948389
0.454161 0.941566 0.948446
0.621600 0.942467 0.949247
0.804594 0.947902 0.954655
0.949399 0.954175 0.960734
0.986695 0.961801 0.967906
0.257765 0.986695 0.964364
0.274735 0.986695 0.964779
0.323701 0.986695 0.965813
0.418462 0.986695 0.967624
0.555499 0.986695 0.970276
0.715835 0.986695 0.973748
0.870132 0.986695 0.977864
0.974563 0.986695 0.982166
0.986695 0.986695 0.985677
0.220916 0.220916 0.932985
0.220916 0.220920 0.935861
0.223629 0.220974 0.942674
0.259476 0.221176 0.953409
0.359152 0.221558 0.966472
0.518935 0.221884 0.978844
0.718508 0.221584 0.985788
0.909801 0.220917 0.986695
0.986695 0.220916 0.986695
0.220916 0.222459 0.942314
0.220916 0.222646 0.944900
0.224621 0.223119 0.950997
0.263097 0.223928 0.960501
0.365224 0.224919 0.971807
0.527072 0.225527 0.981780
0.727451 0.224684 0.986491
0.916076 0.222178 0.986695
0.986695 0.222150 0.986695
0.220916 0.239442 0.961468
0.220916 0.239961 0.963361
0.226999 0.241176 0.967749
0.270897 0.243004 0.974322
0.378759 0.244859 0.981357
0.547756 0.245285 0.985836
0.747718 0.242714 0.986695
0.923783 0.238836 0.986695
0.986695 0.242418 0.986695
0.220916 0.302865 0.981601
0.220917 0.303484 0.982282
0.230352 0.304865 0.983761
0.283378 0.306713 0.985614
0.402623 0.308049 0.986691
0.576723 0.307094 0.986695
0.769492 0.305843 0.986695
0.925908 0.310676 0.986695
0.986695 0.316560 0.986695
0.220916 0.429641 0.986695
0.220923 0.430032 0.986695
0.232031 0.430822 0.986695
0.291702 0.431565 0.986695
0.419975 0.433888 0.986695
0.591922 0.437146 0.986695
0.775016 0.441337 0.986695
0.929022 0.446521 0.986695
0.986695 0.452744 0.986695
0.220916 0.606423 0.986695
0.221059 0.606741 0.986695
0.235581 0.607537 0.986695
0.301491 0.608942 0.986695
0.430962 0.611037 0.986695
0.601676 0.613888 0.986695
0.782451 0.617547 0.986695
0.933151 0.622059 0.986695
0.986695 0.627457 0.986695
0.220916 0.792634 0.986695
0.222829 0.792872 0.986695
0.243441 0.793467 0.986695
0.314605 0.794515 0.986695
0.445068 0.796077 0.986695
0.614094 0.798199 0.986695
0.791504 0.800521 0.986695
0.936741 0.801119 0.986695
0.986695 0.803855 0.986695
0.221779 0.941375 0.986695
0.226251 0.941397 0.986695
0.251558 0.941453 0.986695
0.325508 0.941550 0.986695
0.454754 0.941696 0.986695
0.628225 0.945259 0.986695
0.810210 0.950478 0.986695
0.951978 0.956761 0.986695
0.986695 0.964370 0.986695
0.270663 0.986695 0.986695
0.288972 0.986695 0.986695
0.339668 0.986695 0.986695
0.434578 0.986695 0.986695
0.569747 0.986695 0.986695
0.726898 0.986695 0.986695
0.877175 0.986695 0.986695
0.976746 0.986695 0.986695
0.986695 0.986695 0.986695
