studio/assets/luts/business.cube
TITLE "Business — Professional"
# Navy shadows, silver midtones, ice blue highlights. Clean, professional.
# Generated by Like One Studio — cinema-grade pipeline
# Color science: lift/gamma/gain + filmic S-curve + zone tinting
LUT_3D_SIZE 33
# Domain: standard 0-1 range
DOMAIN_MIN 0.0 0.0 0.0
DOMAIN_MAX 1.0 1.0 1.0
0.220916 0.220916 0.221235
0.220916 0.220916 0.221266
0.220916 0.220916 0.221301
0.220916 0.220916 0.221354
0.220916 0.220916 0.221430
0.220916 0.220916 0.221534
0.220916 0.220916 0.221673
0.220916 0.220916 0.221854
0.220916 0.220916 0.222087
0.220916 0.220916 0.222381
0.221620 0.220916 0.222746
0.225060 0.220916 0.223191
0.232121 0.220916 0.223726
0.243519 0.220916 0.224359
0.259739 0.220916 0.225096
0.280988 0.220916 0.225940
0.307202 0.220916 0.226890
0.338122 0.220916 0.227942
0.373367 0.220916 0.229086
0.412505 0.220916 0.230307
0.455080 0.220919 0.231583
0.500628 0.220974 0.232888
0.548667 0.221091 0.234188
0.598683 0.221254 0.235442
0.650099 0.221440 0.236605
0.702248 0.221624 0.237627
0.754326 0.221778 0.238453
0.805348 0.221876 0.239026
0.854441 0.221885 0.238605
0.900189 0.221780 0.236382
0.939485 0.221586 0.233837
0.969310 0.221332 0.231044
0.985398 0.221076 0.228132
0.220916 0.220916 0.221343
0.220916 0.220916 0.221377
0.220916 0.220916 0.221417
0.220916 0.220916 0.221477
0.220916 0.220916 0.221561
0.220916 0.220916 0.221675
0.220916 0.220916 0.221826
0.220916 0.220916 0.222022
0.220916 0.220916 0.222270
0.220916 0.220916 0.222580
0.221789 0.220916 0.222962
0.225459 0.220916 0.223424
0.232767 0.220916 0.223976
0.244414 0.220916 0.224624
0.260871 0.220916 0.225375
0.282331 0.220916 0.226230
0.308724 0.220916 0.227189
0.339788 0.220916 0.228245
0.375146 0.220916 0.229390
0.414368 0.220921 0.230606
0.457002 0.220986 0.231873
0.502586 0.221122 0.233162
0.550641 0.221313 0.234441
0.600651 0.221542 0.235668
0.652040 0.221784 0.236798
0.704138 0.222012 0.237781
0.756139 0.222198 0.238563
0.807051 0.222312 0.239088
0.856162 0.222312 0.238303
0.901674 0.222181 0.236047
0.940661 0.221940 0.233478
0.970080 0.221616 0.230676
0.985621 0.221264 0.227776
0.220916 0.220916 0.221479
0.220916 0.220916 0.221518
0.220916 0.220916 0.221563
0.220916 0.220916 0.221629
0.220916 0.220916 0.221722
0.220916 0.220916 0.221848
0.220916 0.220916 0.222012
0.220916 0.220916 0.222222
0.220916 0.220916 0.222486
0.220916 0.220916 0.222813
0.221996 0.220916 0.223213
0.225919 0.220916 0.223693
0.233498 0.220916 0.224262
0.245418 0.220916 0.224927
0.262134 0.220916 0.225691
0.283824 0.220916 0.226558
0.310412 0.220916 0.227524
0.341634 0.220916 0.228584
0.377116 0.220928 0.229728
0.416429 0.221012 0.230938
0.459127 0.221171 0.232193
0.504751 0.221395 0.233464
0.552823 0.221667 0.234717
0.602827 0.221967 0.235913
0.654186 0.222270 0.237005
0.706228 0.222545 0.237945
0.758143 0.222763 0.238677
0.808933 0.222893 0.239147
0.858061 0.222879 0.237960
0.903309 0.222717 0.235667
0.941952 0.222423 0.233074
0.970915 0.222019 0.230265
0.985844 0.221558 0.227383
0.220916 0.220916 0.221701
0.220916 0.220916 0.221746
0.220916 0.220916 0.221797
0.220916 0.220916 0.221873
0.220916 0.220916 0.221978
0.220916 0.220916 0.222118
0.220916 0.220916 0.222299
0.220916 0.220916 0.222529
0.220916 0.220916 0.222815
0.220929 0.220916 0.223165
0.222322 0.220916 0.223588
0.226601 0.220916 0.224091
0.234558 0.220916 0.224682
0.246858 0.220916 0.225367
0.263932 0.220916 0.226150
0.285941 0.220916 0.227030
0.312799 0.220920 0.228005
0.344240 0.220982 0.229068
0.379893 0.221125 0.230207
0.419334 0.221345 0.231406
0.462122 0.221634 0.232641
0.507801 0.221979 0.233884
0.555896 0.222363 0.235100
0.605891 0.222761 0.236250
0.657208 0.223145 0.237287
0.709170 0.223484 0.238163
0.760963 0.223744 0.238823
0.811578 0.223893 0.239215
0.860729 0.223852 0.237461
0.905601 0.223644 0.235119
0.943751 0.223270 0.232495
0.972065 0.222749 0.229682
0.986117 0.222132 0.226832
0.220916 0.220916 0.222045
0.220916 0.220916 0.222098
0.220916 0.220916 0.222157
0.220916 0.220916 0.222244
0.220916 0.220916 0.222364
0.220916 0.220916 0.222522
0.220916 0.220916 0.222725
0.220916 0.220916 0.222978
0.220916 0.220916 0.223289
0.221007 0.220916 0.223667
0.222814 0.220916 0.224117
0.227555 0.220916 0.224648
0.236004 0.220916 0.225265
0.248795 0.220916 0.225973
0.266330 0.220939 0.226774
0.288750 0.221030 0.227668
0.315955 0.221197 0.228650
0.347678 0.221442 0.229712
0.383551 0.221765 0.230842
0.423157 0.222160 0.232021
0.466061 0.222616 0.233226
0.511812 0.223117 0.234428
0.559937 0.223641 0.235591
0.609921 0.224161 0.236675
0.661181 0.224646 0.237636
0.713038 0.225062 0.238425
0.764667 0.225372 0.238989
0.815303 0.225526 0.238861
0.864225 0.225450 0.236773
0.908593 0.225174 0.234373
0.946084 0.224689 0.231716
0.973526 0.224010 0.228908
0.986398 0.223179 0.226114
0.220916 0.220916 0.222555
0.220916 0.220916 0.222616
0.220916 0.220916 0.222685
0.220916 0.220916 0.222784
0.220916 0.220916 0.222920
0.220916 0.220916 0.223099
0.220916 0.220916 0.223324
0.220916 0.220916 0.223604
0.220916 0.220916 0.223944
0.221202 0.220916 0.224350
0.223520 0.220928 0.224831
0.228830 0.220981 0.225390
0.237880 0.221085 0.226033
0.251268 0.221251 0.226764
0.269363 0.221487 0.227582
0.292278 0.221797 0.228486
0.319903 0.222186 0.229470
0.351968 0.222653 0.230524
0.388109 0.223194 0.231635
0.427917 0.223799 0.232783
0.470964 0.224454 0.233943
0.516803 0.225139 0.235086
0.564965 0.225827 0.236177
0.614933 0.226490 0.237175
0.666123 0.227091 0.238035
0.717847 0.227592 0.238710
0.769271 0.227952 0.239149
0.820121 0.228082 0.238048
0.868555 0.227961 0.235871
0.912282 0.227591 0.233407
0.948933 0.226960 0.230723
0.975260 0.226073 0.227938
0.986621 0.224967 0.225239
0.220916 0.220936 0.223275
0.220916 0.220943 0.223345
0.220916 0.220953 0.223423
0.220916 0.220969 0.223535
0.220916 0.220994 0.223689
0.220916 0.221034 0.223887
0.220916 0.221093 0.224137
0.220916 0.221178 0.224443
0.220916 0.221295 0.224811
0.221571 0.221454 0.225246
0.224494 0.221662 0.225755
0.230475 0.221929 0.226341
0.240226 0.222261 0.227008
0.254306 0.222667 0.227756
0.273048 0.223150 0.228585
0.296536 0.223715 0.229491
0.324647 0.224359 0.230468
0.357107 0.225080 0.231502
0.393560 0.225868 0.232580
0.433604 0.226709 0.233680
0.476819 0.227586 0.234777
0.522763 0.228473 0.235840
0.570969 0.229342 0.236835
0.620919 0.230156 0.237720
0.672024 0.230878 0.238452
0.723587 0.231463 0.238984
0.774959 0.231854 0.238971
0.825860 0.231937 0.236998
0.873695 0.231747 0.234727
0.916636 0.231253 0.232202
0.952253 0.230435 0.229508
0.977204 0.229289 0.226782
0.986695 0.227843 0.224235
0.220916 0.222035 0.224249
0.220916 0.222085 0.224326
0.220916 0.222143 0.224413
0.220916 0.222227 0.224538
0.220916 0.222342 0.224707
0.220916 0.222494 0.224925
0.220916 0.222688 0.225196
0.220916 0.222931 0.225526
0.220942 0.223229 0.225919
0.222175 0.223589 0.226379
0.225788 0.224018 0.226911
0.232527 0.224522 0.227517
0.243066 0.225107 0.228199
0.257922 0.225777 0.228956
0.277384 0.226532 0.229785
0.301509 0.227373 0.230681
0.330161 0.228293 0.231634
0.363064 0.229286 0.232632
0.399868 0.230336 0.233657
0.440180 0.231427 0.234688
0.483587 0.232535 0.235699
0.529653 0.233631 0.236657
0.577909 0.234681 0.237528
0.627839 0.235645 0.238271
0.678844 0.236480 0.238844
0.730219 0.237139 0.239201
0.782112 0.237483 0.237774
0.832476 0.237525 0.235679
0.879598 0.237239 0.233317
0.921598 0.236585 0.230749
0.955974 0.235535 0.228079
0.979269 0.234077 0.225470
0.986695 0.232226 0.223161
0.220916 0.225424 0.225506
0.220916 0.225521 0.225591
0.220916 0.225630 0.225685
0.220916 0.225786 0.225820
0.220916 0.225998 0.226002
0.220916 0.226270 0.226235
0.220916 0.226608 0.226524
0.220916 0.227019 0.226872
0.221166 0.227508 0.227283
0.223066 0.228081 0.227759
0.227441 0.228742 0.228305
0.235010 0.229495 0.228920
0.246408 0.230342 0.229604
0.262102 0.231285 0.230354
0.282341 0.232319 0.231167
0.307155 0.233441 0.232034
0.336392 0.234640 0.232944
0.369779 0.235904 0.233883
0.406968 0.237215 0.234832
0.447578 0.238549 0.235767
0.491200 0.239879 0.236662
0.537403 0.241171 0.237486
0.585719 0.242387 0.238201
0.635627 0.243483 0.238770
0.686520 0.244410 0.239151
0.738455 0.245046 0.238223
0.790159 0.245352 0.236274
0.839899 0.245322 0.234061
0.886187 0.244905 0.231628
0.927086 0.244053 0.229055
0.960003 0.242728 0.226470
0.981341 0.240908 0.224065
0.986695 0.238592 0.222120
0.220916 0.231987 0.227060
0.220916 0.232130 0.227149
0.220916 0.232291 0.227248
0.220916 0.232520 0.227390
0.220916 0.232827 0.227580
0.220916 0.233219 0.227823
0.220916 0.233701 0.228121
0.220917 0.234278 0.228477
0.221658 0.234956 0.228895
0.224277 0.235737 0.229376
0.229470 0.236624 0.229921
0.237922 0.237618 0.230529
0.250226 0.238719 0.231197
0.266802 0.239921 0.231922
0.287859 0.241220 0.232696
0.313398 0.242606 0.233510
0.343255 0.244064 0.234352
0.377157 0.245577 0.235204
0.414764 0.247122 0.236046
0.455697 0.248672 0.236856
0.499558 0.250195 0.237603
0.545915 0.251652 0.238258
0.594301 0.253001 0.238784
0.644188 0.254195 0.239144
0.695684 0.255109 0.238358
0.747823 0.255691 0.236523
0.799006 0.255943 0.234436
0.848032 0.255805 0.232131
0.893364 0.255219 0.229670
0.932994 0.254131 0.227158
0.964222 0.252491 0.224753
0.983283 0.250264 0.222688
0.986695 0.249181 0.221871
0.220916 0.242565 0.228890
0.220916 0.242752 0.228981
0.220916 0.242960 0.229082
0.220916 0.243256 0.229225
0.220916 0.243651 0.229417
0.220916 0.244152 0.229660
0.220916 0.244764 0.229957
0.221061 0.245492 0.230311
0.222442 0.246339 0.230722
0.225815 0.247307 0.231190
0.231857 0.248396 0.231716
0.241222 0.249603 0.232296
0.254459 0.250925 0.232926
0.271942 0.252354 0.233600
0.293838 0.253880 0.234309
0.320126 0.255489 0.235042
0.350629 0.257163 0.235784
0.385073 0.258881 0.236517
0.423123 0.260614 0.237220
0.464408 0.262332 0.237869
0.508530 0.263999 0.238433
0.555062 0.265572 0.238883
0.603532 0.267006 0.239184
0.654318 0.268154 0.238180
0.706198 0.269003 0.236429
0.757933 0.269537 0.234444
0.808533 0.269693 0.232252
0.856756 0.269408 0.229906
0.901008 0.268616 0.227493
0.939196 0.267255 0.225149
0.968494 0.265266 0.223071
0.984606 0.263406 0.221815
0.986695 0.264686 0.222054
0.220916 0.257833 0.230940
0.220916 0.258055 0.231028
0.220916 0.258302 0.231126
0.220916 0.258653 0.231265
0.220916 0.259120 0.231450
0.220916 0.259709 0.231684
0.220916 0.260428 0.231968
0.221473 0.261278 0.232303
0.223507 0.262261 0.232689
0.227644 0.263378 0.233126
0.234544 0.264627 0.233610
0.244829 0.266001 0.234138
0.259002 0.267495 0.234703
0.277395 0.269097 0.235298
0.300139 0.270794 0.235911
0.327187 0.272567 0.236530
0.358354 0.274396 0.237139
0.393363 0.276255 0.237719
0.431883 0.278114 0.238246
0.473546 0.279937 0.238697
0.517958 0.281685 0.239042
0.564781 0.283304 0.239147
0.614656 0.284621 0.237674
0.665741 0.285704 0.235981
0.717346 0.286496 0.234076
0.768639 0.286934 0.231984
0.818598 0.286951 0.229751
0.865932 0.286478 0.227455
0.908978 0.285446 0.225214
0.945548 0.283783 0.223204
0.972326 0.281768 0.221792
0.984718 0.283134 0.222017
0.986695 0.284568 0.222279
0.220916 0.278194 0.233106
0.220916 0.278441 0.233187
0.220916 0.278716 0.233277
0.220916 0.279105 0.233404
0.220916 0.279623 0.233573
0.220916 0.280276 0.233785
0.221038 0.281068 0.234041
0.222121 0.282002 0.234341
0.224795 0.283080 0.234684
0.229681 0.284298 0.235066
0.237422 0.285653 0.235485
0.248607 0.287138 0.235933
0.263700 0.288741 0.236405
0.282989 0.290451 0.236889
0.306575 0.292251 0.237374
0.334388 0.294119 0.237845
0.366232 0.296032 0.238286
0.401828 0.297961 0.238675
0.440845 0.299873 0.238991
0.482917 0.301730 0.239208
0.528613 0.303387 0.238262
0.576812 0.304860 0.236806
0.626689 0.306127 0.235155
0.677639 0.307132 0.233318
0.728955 0.307814 0.231319
0.779777 0.308108 0.229202
0.829041 0.307944 0.227038
0.875402 0.307249 0.224939
0.917121 0.305947 0.223062
0.951244 0.304419 0.221798
0.972643 0.305831 0.222014
0.984839 0.307310 0.222265
0.986695 0.308858 0.222553
0.220916 0.303755 0.235237
0.220916 0.304016 0.235306
0.220916 0.304306 0.235383
0.220916 0.304717 0.235491
0.220916 0.305263 0.235634
0.220917 0.305949 0.235811
0.221348 0.306781 0.236024
0.222923 0.307760 0.236271
0.226198 0.308885 0.236549
0.231791 0.310154 0.236854
0.240328 0.311559 0.237181
0.252370 0.313093 0.237523
0.268344 0.314743 0.237870
0.288504 0.316494 0.238213
0.312916 0.318326 0.238536
0.341492 0.320218 0.238826
0.374025 0.322142 0.239063
0.410231 0.324068 0.239229
0.450795 0.325853 0.238254
0.494493 0.327542 0.236980
0.540754 0.329105 0.235536
0.589098 0.330493 0.233922
0.638990 0.331653 0.232152
0.689813 0.332526 0.230249
0.740834 0.333050 0.228259
0.791162 0.333157 0.226254
0.839687 0.332775 0.224338
0.885000 0.331827 0.222661
0.923351 0.331295 0.221837
0.951778 0.332713 0.222047
0.972989 0.334199 0.222290
0.984968 0.335753 0.222567
0.986695 0.337377 0.222884
0.220916 0.334365 0.237136
0.220916 0.334629 0.237188
0.220916 0.334923 0.237246
0.220916 0.335340 0.237327
0.220916 0.335891 0.237433
0.220987 0.336585 0.237564
0.221752 0.337424 0.237719
0.223754 0.338410 0.237894
0.227560 0.339540 0.238087
0.233786 0.340811 0.238292
0.243046 0.342215 0.238503
0.255878 0.343742 0.238712
0.272679 0.345379 0.238907
0.293668 0.347108 0.239078
0.318885 0.348909 0.239210
0.348836 0.350691 0.238649
0.383078 0.352452 0.237655
0.420998 0.354193 0.236523
0.462216 0.355876 0.235244
0.506324 0.357461 0.233820
0.552878 0.358902 0.232255
0.601396 0.360151 0.230565
0.651329 0.361152 0.228780
0.702042 0.361847 0.226948
0.752774 0.362171 0.225142
0.802597 0.362056 0.223467
0.850348 0.361427 0.222068
0.890214 0.362157 0.221909
0.924115 0.363549 0.222117
0.952360 0.365007 0.222355
0.973365 0.366533 0.222626
0.985105 0.368128 0.222934
0.986695 0.369793 0.223281
0.220916 0.369695 0.238567
0.220916 0.369954 0.238598
0.220916 0.370242 0.238632
0.220916 0.370649 0.238679
0.220916 0.371189 0.238739
0.221106 0.371867 0.238812
0.222118 0.372685 0.238893
0.224450 0.373645 0.238982
0.228681 0.374744 0.239071
0.235433 0.375977 0.239156
0.245314 0.377335 0.239229
0.259209 0.378754 0.238775
0.277385 0.380250 0.238095
0.299934 0.381821 0.237312
0.326837 0.383445 0.236418
0.357925 0.385095 0.235406
0.392925 0.386745 0.234272
0.431497 0.388360 0.233014
0.473265 0.389904 0.231637
0.517817 0.391335 0.230152
0.564706 0.392608 0.228579
0.613439 0.393673 0.226955
0.663453 0.394475 0.225334
0.714087 0.394954 0.223792
0.764552 0.395046 0.222438
0.811665 0.395375 0.221839
0.853108 0.396649 0.222020
0.891223 0.397988 0.222228
0.924945 0.399392 0.222464
0.952991 0.400863 0.222732
0.973769 0.402401 0.223035
0.985248 0.404008 0.223375
0.986695 0.405683 0.223756
0.220916 0.409277 0.238945
0.220916 0.409514 0.238858
0.220916 0.409777 0.238760
0.220916 0.410148 0.238620
0.220917 0.410640 0.238430
0.221256 0.411256 0.238186
0.222548 0.411999 0.237882
0.225329 0.412868 0.237513
0.230221 0.413860 0.237071
0.237878 0.414969 0.236553
0.248920 0.416186 0.235949
0.263852 0.417499 0.235256
0.283002 0.418892 0.234467
0.306506 0.420348 0.233579
0.334314 0.421844 0.232587
0.366240 0.423354 0.231493
0.401999 0.424851 0.230302
0.441249 0.426300 0.229022
0.483606 0.427665 0.227672
0.528653 0.428904 0.226281
0.575933 0.429972 0.224891
0.624940 0.430819 0.223564
0.675090 0.431390 0.222384
0.723999 0.431996 0.221829
0.769372 0.433138 0.221991
0.813091 0.434342 0.222175
0.854373 0.435609 0.222385
0.892312 0.436940 0.222622
0.925840 0.438335 0.222889
0.953669 0.439796 0.223190
0.974201 0.441323 0.223526
0.985396 0.442917 0.223901
0.986695 0.444579 0.224318
0.220916 0.452301 0.235153
0.220916 0.452520 0.235049
0.220916 0.452764 0.234934
0.220916 0.453107 0.234768
0.220956 0.453562 0.234546
0.221524 0.454131 0.234262
0.223130 0.454816 0.233911
0.226326 0.455616 0.233489
0.231743 0.456527 0.232991
0.240039 0.457543 0.232414
0.251819 0.458654 0.231755
0.267565 0.459849 0.231010
0.287575 0.461111 0.230182
0.311950 0.462422 0.229270
0.340618 0.463761 0.228282
0.373369 0.465101 0.227227
0.409905 0.466414 0.226124
0.449871 0.467668 0.224998
0.492872 0.468825 0.223885
0.538482 0.469844 0.222840
0.586230 0.470681 0.221930
0.633093 0.471583 0.221879
0.679643 0.472586 0.222026
0.725842 0.473648 0.222193
0.771068 0.474769 0.222382
0.814627 0.475952 0.222596
0.855735 0.477196 0.222836
0.893483 0.478503 0.223105
0.926801 0.479872 0.223405
0.954394 0.481306 0.223740
0.974661 0.482803 0.224112
0.985547 0.484366 0.224524
0.986695 0.485993 0.224980
0.220916 0.498602 0.230571
0.220916 0.498800 0.230461
0.220916 0.499020 0.230339
0.220916 0.499331 0.230166
0.220975 0.499740 0.229934
0.221614 0.500253 0.229640
0.223348 0.500869 0.229281
0.226752 0.501587 0.228854
0.232477 0.502403 0.228358
0.241195 0.503310 0.227794
0.253513 0.504299 0.227163
0.269903 0.505357 0.226469
0.290642 0.506468 0.225722
0.315805 0.507615 0.224931
0.345289 0.508776 0.224117
0.378862 0.509926 0.223304
0.416203 0.511035 0.222526
0.456940 0.512073 0.221832
0.499469 0.512851 0.221871
0.543674 0.513658 0.221991
0.589139 0.514521 0.222128
0.635348 0.515439 0.222282
0.681766 0.516414 0.222456
0.727819 0.517446 0.222651
0.772886 0.518536 0.222870
0.816273 0.519686 0.223114
0.857193 0.520894 0.223386
0.894736 0.522163 0.223689
0.927826 0.523493 0.224025
0.955167 0.524885 0.224397
0.975146 0.526338 0.224807
0.985699 0.527854 0.225258
0.986695 0.529433 0.225754
0.220916 0.547652 0.225769
0.220916 0.547827 0.225672
0.220916 0.548021 0.225565
0.220916 0.548294 0.225413
0.220927 0.548654 0.225213
0.221427 0.549105 0.224962
0.223043 0.549645 0.224661
0.226381 0.550273 0.224312
0.232127 0.550985 0.223918
0.240985 0.551773 0.223487
0.253587 0.552627 0.223026
0.270410 0.553537 0.222552
0.291720 0.554485 0.222083
0.317691 0.555310 0.221796
0.348140 0.555838 0.221873
0.382302 0.556414 0.221962
0.419700 0.557040 0.222062
0.459836 0.557715 0.222176
0.502210 0.558441 0.222304
0.546324 0.559219 0.222448
0.591677 0.560050 0.222609
0.637759 0.560934 0.222790
0.684034 0.561873 0.222992
0.729932 0.562867 0.223217
0.774829 0.563916 0.223467
0.818030 0.565022 0.223744
0.858748 0.566185 0.224051
0.896070 0.567406 0.224390
0.928917 0.568686 0.224763
0.955985 0.570024 0.225173
0.975655 0.571421 0.225624
0.985850 0.572879 0.226117
0.986695 0.574397 0.226655
0.220916 0.598878 0.221935
0.220916 0.599028 0.221881
0.220916 0.599194 0.221823
0.220916 0.599371 0.221779
0.220916 0.599488 0.221796
0.221120 0.599636 0.221819
0.222493 0.599818 0.221847
0.225766 0.600036 0.221881
0.231691 0.600290 0.221921
0.240997 0.600583 0.221969
0.254287 0.600915 0.222024
0.271938 0.601289 0.222088
0.294072 0.601705 0.222161
0.320569 0.602165 0.222245
0.351129 0.602670 0.222340
0.385341 0.603220 0.222447
0.422738 0.603817 0.222567
0.462833 0.604461 0.222703
0.505133 0.605155 0.222854
0.549148 0.605897 0.223023
0.594383 0.606690 0.223211
0.640327 0.607534 0.223420
0.686450 0.608430 0.223652
0.732181 0.609378 0.223908
0.776895 0.610379 0.224191
0.819899 0.611434 0.224503
0.860401 0.612543 0.224845
0.897487 0.613708 0.225222
0.930073 0.614927 0.225634
0.956849 0.616203 0.226085
0.976188 0.617535 0.226577
0.985998 0.618924 0.227114
0.986695 0.620370 0.227697
0.220916 0.646774 0.222219
0.220916 0.646826 0.222229
0.220916 0.646884 0.222241
0.220916 0.646967 0.222257
0.220917 0.647078 0.222278
0.221381 0.647219 0.222306
0.223117 0.647391 0.222341
0.226798 0.647597 0.222383
0.233157 0.647837 0.222432
0.242895 0.648114 0.222490
0.256581 0.648429 0.222558
0.274571 0.648783 0.222635
0.296968 0.649177 0.222723
0.323650 0.649612 0.222823
0.354321 0.650089 0.222936
0.388580 0.650610 0.223062
0.425973 0.651174 0.223204
0.466020 0.651784 0.223362
0.508241 0.652440 0.223538
0.552150 0.653142 0.223733
0.597256 0.653892 0.223949
0.643055 0.654690 0.224187
0.689015 0.655537 0.224450
0.734567 0.656433 0.224739
0.779087 0.657379 0.225057
0.821879 0.658376 0.225405
0.862151 0.659425 0.225785
0.898985 0.660525 0.226201
0.931292 0.661677 0.226654
0.957757 0.662882 0.227147
0.976741 0.664140 0.227684
0.986141 0.665451 0.228266
0.986695 0.666817 0.228896
0.220916 0.694409 0.222831
0.220916 0.694458 0.222844
0.220916 0.694513 0.222857
0.220916 0.694590 0.222877
0.220988 0.694694 0.222903
0.221773 0.694826 0.222936
0.223890 0.694987 0.222978
0.227997 0.695180 0.223027
0.234805 0.695406 0.223087
0.244985 0.695665 0.223156
0.259078 0.695960 0.223236
0.277410 0.696291 0.223327
0.300073 0.696660 0.223431
0.326940 0.697068 0.223548
0.357720 0.697515 0.223679
0.392023 0.698003 0.223826
0.429406 0.698531 0.223990
0.469401 0.699102 0.224172
0.511535 0.699716 0.224374
0.555329 0.700374 0.224596
0.600299 0.701076 0.224841
0.645942 0.701823 0.225110
0.691729 0.702615 0.225405
0.737091 0.703454 0.225729
0.781404 0.704340 0.226082
0.823971 0.705273 0.226467
0.863999 0.706253 0.226887
0.900564 0.707282 0.227344
0.932574 0.708360 0.227839
0.958707 0.709487 0.228377
0.977314 0.710663 0.228959
0.986274 0.711888 0.229588
0.986695 0.713164 0.230267
0.220916 0.741447 0.223605
0.220916 0.741492 0.223619
0.220916 0.741543 0.223635
0.220916 0.741614 0.223658
0.221194 0.741711 0.223688
0.222316 0.741833 0.223728
0.224830 0.741982 0.223776
0.229378 0.742161 0.223835
0.236648 0.742370 0.223904
0.247281 0.742610 0.223984
0.261786 0.742883 0.224077
0.280465 0.743190 0.224183
0.303394 0.743532 0.224303
0.330443 0.743909 0.224438
0.361330 0.744323 0.224589
0.395673 0.744774 0.224758
0.433040 0.745264 0.224945
0.472976 0.745792 0.225151
0.515016 0.746361 0.225379
0.558689 0.746969 0.225630
0.603513 0.747619 0.225905
0.648990 0.748310 0.226206
0.694593 0.749043 0.226535
0.739753 0.749819 0.226894
0.783847 0.750638 0.227284
0.826176 0.751501 0.227708
0.865943 0.752407 0.228169
0.902223 0.753358 0.228668
0.933918 0.754354 0.229207
0.959697 0.755395 0.229790
0.977902 0.756482 0.230419
0.986396 0.757614 0.231097
0.986695 0.758700 0.231761
0.220916 0.787201 0.224559
0.220916 0.787242 0.224575
0.220916 0.787288 0.224594
0.220996 0.787354 0.224620
0.221558 0.787442 0.224656
0.223032 0.787553 0.224701
0.225957 0.787690 0.224757
0.230960 0.787853 0.224824
0.238703 0.788043 0.224904
0.249796 0.788263 0.224996
0.264716 0.788512 0.225102
0.283741 0.788793 0.225223
0.306935 0.789105 0.225360
0.334165 0.789449 0.225514
0.365154 0.789827 0.225685
0.399532 0.790239 0.225875
0.436878 0.790686 0.226086
0.476749 0.791168 0.226318
0.518687 0.791686 0.226574
0.562229 0.792241 0.226854
0.606898 0.792834 0.227160
0.652200 0.793464 0.227494
0.697607 0.794133 0.227857
0.742554 0.794840 0.228253
0.786416 0.795587 0.228681
0.828492 0.796373 0.229146
0.867983 0.797199 0.229648
0.903961 0.798065 0.230190
0.935321 0.798972 0.230775
0.960726 0.799920 0.231405
0.978424 0.800519 0.231780
0.986459 0.800703 0.231833
0.986695 0.800895 0.231889
0.220916 0.830903 0.225714
0.220916 0.830940 0.225733
0.220950 0.830981 0.225754
0.221243 0.831040 0.225784
0.222102 0.831119 0.225825
0.223941 0.831219 0.225876
0.227290 0.831341 0.225940
0.232760 0.831487 0.226016
0.240983 0.831658 0.226106
0.252541 0.831855 0.226211
0.267877 0.832079 0.226331
0.287249 0.832330 0.226468
0.310704 0.832609 0.226622
0.338110 0.832918 0.226794
0.369196 0.833257 0.226987
0.403603 0.833626 0.227200
0.440922 0.834026 0.227435
0.480720 0.834458 0.227693
0.522549 0.834922 0.227977
0.565951 0.835419 0.228287
0.610456 0.835949 0.228625
0.655571 0.836513 0.228993
0.700773 0.837111 0.229392
0.745494 0.837744 0.229825
0.789110 0.838411 0.230293
0.830918 0.839114 0.230798
0.870119 0.839852 0.231343
0.905651 0.840439 0.231768
0.936321 0.840583 0.231815
0.961179 0.840735 0.231864
0.978599 0.840893 0.231915
0.986489 0.841058 0.231969
0.986695 0.841230 0.232025
0.220916 0.871674 0.227092
0.220963 0.871706 0.227113
0.221155 0.871742 0.227137
0.221683 0.871794 0.227171
0.222849 0.871863 0.227216
0.225066 0.871950 0.227274
0.228851 0.872057 0.227346
0.234795 0.872185 0.227432
0.243505 0.872334 0.227533
0.255528 0.872506 0.227650
0.271280 0.872701 0.227784
0.290993 0.872921 0.227937
0.314705 0.873165 0.228109
0.342281 0.873434 0.228301
0.373458 0.873730 0.228514
0.407888 0.874052 0.228750
0.445173 0.874401 0.229011
0.484891 0.874778 0.229296
0.526602 0.875183 0.229608
