studio/assets/luts/business.cube
TITLE "Business — Professional"
# Navy shadows, silver midtones, ice blue highlights. Clean, professional.
# Generated by Like One Studio — cinema-grade pipeline
# Color science: lift/gamma/gain + filmic S-curve + zone tinting
LUT_3D_SIZE 5
# Domain: standard 0-1 range
DOMAIN_MIN 0.0 0.0 0.0
DOMAIN_MAX 1.0 1.0 1.0
0.220916 0.220916 0.221235
0.220916 0.220916 0.222087
0.307202 0.220916 0.226890
0.650099 0.221440 0.236605
0.985398 0.221076 0.228132
0.220916 0.225424 0.225506
0.221166 0.227508 0.227283
0.336392 0.234640 0.232944
0.686520 0.244410 0.239151
0.986695 0.238592 0.222120
0.220916 0.409277 0.238945
0.230221 0.413860 0.237071
0.401999 0.424851 0.230302
0.769372 0.433138 0.221991
0.986695 0.444579 0.224318
0.220916 0.787201 0.224559
0.238703 0.788043 0.224904
0.436878 0.790686 0.226086
0.786416 0.795587 0.228681
0.986695 0.800895 0.231889
0.230752 0.986695 0.251856
0.282615 0.986695 0.258930
0.515832 0.986695 0.284900
0.850145 0.986695 0.344857
0.986695 0.986695 0.452868
0.220916 0.220916 0.233749
0.220916 0.220916 0.237978
0.310328 0.220916 0.251978
0.654080 0.221508 0.273657
0.985834 0.221023 0.265169
0.220916 0.226108 0.248506
0.221330 0.228255 0.252924
0.339089 0.235389 0.265610
0.689837 0.244696 0.280545
0.986695 0.238008 0.251313
0.220916 0.410893 0.279730
0.230539 0.415297 0.277696
0.403526 0.425725 0.268703
0.769670 0.433568 0.252649
0.986695 0.445007 0.260900
0.220916 0.787487 0.261590
0.238939 0.788329 0.262547
0.437308 0.790970 0.265609
0.786702 0.795868 0.271520
0.986695 0.800944 0.277572
0.232123 0.986695 0.311241
0.285261 0.986695 0.320376
0.518577 0.986695 0.350879
0.851544 0.986695 0.413379
0.986695 0.986695 0.517273
0.220916 0.220916 0.349526
0.220916 0.220916 0.361042
0.319930 0.220916 0.394251
0.666157 0.221700 0.442547
0.986622 0.220921 0.458029
0.220916 0.228409 0.386443
0.222051 0.230679 0.396352
0.347239 0.237647 0.424115
0.701354 0.245226 0.458306
0.986695 0.238745 0.454629
0.220916 0.415581 0.459012
0.231401 0.419423 0.459888
0.407937 0.428084 0.459272
0.770604 0.434922 0.456565
0.986695 0.446355 0.467897
0.220916 0.788387 0.468803
0.239693 0.789228 0.470051
0.438660 0.791863 0.473974
0.787604 0.796751 0.481290
0.986695 0.801100 0.487263
0.237001 0.986695 0.530983
0.293865 0.986695 0.539261
0.527278 0.986695 0.565785
0.855966 0.986695 0.616930
0.986695 0.986695 0.697531
0.220916 0.220916 0.623819
0.221185 0.220916 0.639057
0.336747 0.220983 0.682464
0.686957 0.221893 0.746898
0.986695 0.220916 0.791557
0.220916 0.232973 0.672284
0.223926 0.235216 0.685205
0.361041 0.241296 0.721766
0.721272 0.245214 0.767960
0.986695 0.240159 0.794939
0.220916 0.422738 0.770817
0.232365 0.425528 0.775667
0.414575 0.430889 0.788360
0.772348 0.437453 0.796214
0.986695 0.448876 0.803627
0.220916 0.790066 0.804216
0.241137 0.790904 0.805026
0.441188 0.793529 0.807566
0.789286 0.798398 0.812275
0.986695 0.801391 0.814634
0.248314 0.986695 0.847027
0.311014 0.986695 0.851047
0.543802 0.986695 0.863854
0.864294 0.986695 0.888120
0.986695 0.986695 0.924508
0.220916 0.220916 0.932985
0.223629 0.220974 0.942674
0.359152 0.221558 0.966472
0.718508 0.221584 0.985788
0.986695 0.220916 0.986695
0.220916 0.239442 0.961468
0.226999 0.241176 0.967749
0.378759 0.244859 0.981357
0.747718 0.242714 0.986695
0.986695 0.242418 0.986695
0.220916 0.429641 0.986695
0.232031 0.430822 0.986695
0.419975 0.433888 0.986695
0.775016 0.441337 0.986695
0.986695 0.452744 0.986695
0.220916 0.792634 0.986695
0.243441 0.793467 0.986695
0.445068 0.796077 0.986695
0.791504 0.800521 0.986695
0.986695 0.803855 0.986695
0.270663 0.986695 0.986695
0.339668 0.986695 0.986695
0.569747 0.986695 0.986695
0.877175 0.986695 0.986695
0.986695 0.986695 0.986695
