studio/assets/luts/claude-beginners.cube
TITLE "Claude for Beginners — Friendly"
# Soft purple with lavender highlights. Approachable, friendly mood.
# Generated by Like One Studio — cinema-grade pipeline
# Color science: lift/gamma/gain + filmic S-curve + zone tinting
LUT_3D_SIZE 5
# Domain: standard 0-1 range
DOMAIN_MIN 0.0 0.0 0.0
DOMAIN_MAX 1.0 1.0 1.0
0.220916 0.220916 0.221903
0.239272 0.220916 0.222468
0.422319 0.220916 0.224018
0.766864 0.220916 0.224781
0.986695 0.220916 0.222408
0.220981 0.237974 0.223794
0.246612 0.239651 0.224249
0.441192 0.243051 0.224903
0.788508 0.244203 0.223791
0.986695 0.240100 0.221154
0.220963 0.451243 0.223652
0.251798 0.454817 0.223363
0.472472 0.462162 0.222155
0.822679 0.462382 0.221023
0.986695 0.454787 0.220916
0.220916 0.811364 0.220916
0.239177 0.810708 0.220916
0.460065 0.808846 0.220916
0.811842 0.805541 0.220916
0.986695 0.802194 0.220916
0.220916 0.986695 0.220916
0.245860 0.986695 0.220916
0.495008 0.986695 0.225548
0.848292 0.986695 0.259833
0.986695 0.986695 0.353650
0.220916 0.220916 0.249830
0.240116 0.220916 0.252952
0.424491 0.220916 0.260309
0.769179 0.220916 0.266465
0.986695 0.220916 0.264575
0.221008 0.238567 0.259269
0.247200 0.240169 0.261410
0.442771 0.243308 0.265508
0.790736 0.244354 0.266612
0.986695 0.239900 0.259510
0.220953 0.452515 0.266713
0.251714 0.455914 0.266518
0.473004 0.462770 0.263825
0.822463 0.462032 0.257856
0.986695 0.454436 0.252423
0.220916 0.811142 0.251988
0.238981 0.810485 0.251278
0.459715 0.808622 0.249301
0.811620 0.805315 0.245941
0.986695 0.802100 0.235494
0.220916 0.986695 0.247405
0.248060 0.986695 0.254660
0.498034 0.986695 0.279359
0.849741 0.986695 0.335101
0.986695 0.986695 0.435370
0.220916 0.220916 0.424645
0.242397 0.220916 0.432161
0.430314 0.220916 0.450581
0.775452 0.220916 0.472921
0.986695 0.220916 0.493124
0.221092 0.240111 0.447839
0.248681 0.241480 0.453589
0.446915 0.243847 0.467050
0.796774 0.244585 0.484350
0.986695 0.239339 0.492541
0.220925 0.455791 0.486468
0.251258 0.458700 0.489063
0.474194 0.464173 0.493696
0.821850 0.461041 0.490349
0.986695 0.453442 0.482867
0.220916 0.810511 0.482247
0.238432 0.809853 0.481228
0.458723 0.807987 0.478339
0.810990 0.804675 0.473233
0.986695 0.801834 0.452755
0.220916 0.986695 0.482677
0.254766 0.986695 0.491799
0.506709 0.986695 0.518578
0.853888 0.986695 0.568832
0.986695 0.986695 0.648050
0.220955 0.220916 0.733800
0.245937 0.220916 0.743065
0.439408 0.220916 0.766531
0.786028 0.220916 0.799374
0.986695 0.220916 0.836190
0.221208 0.242275 0.762939
0.250588 0.243180 0.770528
0.453064 0.244103 0.789547
0.806485 0.244285 0.819088
0.986695 0.238366 0.834122
0.220916 0.460419 0.822627
0.249693 0.462465 0.827358
0.474240 0.464436 0.835861
0.820768 0.459293 0.832786
0.986695 0.451689 0.828203
0.220916 0.809396 0.827822
0.237480 0.808737 0.827194
0.456974 0.806865 0.825410
0.809876 0.803544 0.822244
0.986695 0.801364 0.806711
0.221383 0.986695 0.831615
0.268244 0.986695 0.835707
0.522397 0.986695 0.847771
0.861359 0.986695 0.870453
0.986695 0.986695 0.905578
0.221158 0.220916 0.981526
0.249730 0.220916 0.983734
0.450107 0.220916 0.986653
0.801670 0.220916 0.986695
0.986695 0.220916 0.986695
0.221195 0.243977 0.986493
0.251641 0.244123 0.986695
0.461718 0.244414 0.986695
0.818743 0.242238 0.986695
0.986695 0.236973 0.986695
0.220916 0.464581 0.986695
0.246174 0.464777 0.986695
0.471679 0.461862 0.986695
0.819166 0.456714 0.986695
0.986695 0.449100 0.986695
0.220916 0.807747 0.986695
0.236118 0.807085 0.986695
0.454391 0.805206 0.986695
0.807488 0.802710 0.986695
0.986695 0.805407 0.986695
0.228129 0.986695 0.986695
0.291616 0.986695 0.986695
0.546379 0.986695 0.986695
0.872687 0.986695 0.986695
0.986695 0.986695 0.986695
