studio/assets/luts/claude-beginners.cube
TITLE "Claude for Beginners — Friendly"
# Soft purple with lavender highlights. Approachable, friendly mood.
# Generated by Like One Studio — cinema-grade pipeline
# Color science: lift/gamma/gain + filmic S-curve + zone tinting
LUT_3D_SIZE 9
# Domain: standard 0-1 range
DOMAIN_MIN 0.0 0.0 0.0
DOMAIN_MAX 1.0 1.0 1.0
0.220916 0.220916 0.221903
0.221970 0.220916 0.222071
0.239272 0.220916 0.222468
0.302192 0.220916 0.223144
0.422319 0.220916 0.224018
0.585392 0.220916 0.224764
0.766864 0.220916 0.224781
0.928188 0.220916 0.223790
0.986695 0.220916 0.222408
0.220916 0.221074 0.222486
0.222611 0.221143 0.222666
0.241774 0.221327 0.223070
0.306986 0.221686 0.223707
0.428728 0.222193 0.224437
0.592541 0.222627 0.224897
0.773731 0.222557 0.224516
0.933546 0.222196 0.223566
0.986695 0.221386 0.221925
0.220981 0.237974 0.223794
0.224082 0.238510 0.223943
0.246612 0.239651 0.224249
0.316138 0.241304 0.224643
0.441192 0.243051 0.224903
0.606763 0.244096 0.224648
0.788508 0.244203 0.223791
0.944138 0.244096 0.222693
0.986695 0.240100 0.221154
0.221232 0.310392 0.224906
0.225484 0.311143 0.224908
0.251220 0.312682 0.224864
0.325797 0.314750 0.224641
0.455757 0.316595 0.224026
0.627654 0.320598 0.223541
0.811224 0.323038 0.222449
0.956281 0.321088 0.221160
0.986695 0.317143 0.220955
0.220963 0.451243 0.223652
0.224611 0.452393 0.223574
0.251798 0.454817 0.223363
0.332981 0.458323 0.222917
0.472472 0.462162 0.222155
0.649762 0.465070 0.221224
0.822679 0.462382 0.221023
0.954588 0.458905 0.220922
0.986695 0.454787 0.220916
0.220916 0.640513 0.221101
0.221690 0.640243 0.221082
0.244906 0.639631 0.221042
0.327607 0.638605 0.220988
0.469686 0.637128 0.220937
0.643602 0.635168 0.220916
0.817916 0.632697 0.220916
0.952281 0.629690 0.220916
0.986695 0.626121 0.220916
0.220916 0.811364 0.220916
0.220950 0.811164 0.220916
0.239177 0.810708 0.220916
0.318293 0.809945 0.220916
0.460065 0.808846 0.220916
0.635345 0.807385 0.220916
0.811842 0.805541 0.220916
0.949274 0.803297 0.220916
0.986695 0.802194 0.220916
0.220916 0.946376 0.220916
0.220916 0.946272 0.220916
0.233088 0.946069 0.220916
0.306533 0.945906 0.220916
0.446703 0.945670 0.220916
0.622756 0.945358 0.220916
0.802791 0.945445 0.220916
0.949760 0.949232 0.220916
0.986695 0.953471 0.222520
0.220916 0.986695 0.220916
0.221151 0.986695 0.220916
0.245860 0.986695 0.220916
0.339636 0.986695 0.221495
0.495008 0.986695 0.225548
0.676531 0.986695 0.236851
0.848292 0.986695 0.259833
0.967192 0.986695 0.298195
0.986695 0.986695 0.353650
0.220916 0.220916 0.226639
0.222032 0.220916 0.227056
0.239532 0.220916 0.227987
0.302696 0.220916 0.229459
0.422991 0.220916 0.231266
0.586138 0.220916 0.232864
0.767579 0.220916 0.233301
0.928749 0.220916 0.232094
0.986695 0.220916 0.229761
0.220916 0.221097 0.228027
0.222678 0.221168 0.228428
0.242016 0.221358 0.229301
0.307446 0.221719 0.230627
0.429344 0.222221 0.232138
0.593232 0.222637 0.233240
0.774398 0.222541 0.232994
0.934063 0.222186 0.231810
0.986695 0.221360 0.228687
0.220989 0.238158 0.230807
0.224142 0.238688 0.231114
0.246796 0.239812 0.231744
0.316489 0.241435 0.232584
0.441682 0.243133 0.233268
0.607335 0.244108 0.233157
0.789196 0.244253 0.232095
0.944564 0.244037 0.230329
0.986695 0.240039 0.226433
0.221233 0.310652 0.233284
0.225493 0.311388 0.233333
0.251274 0.312893 0.233361
0.325955 0.314904 0.233149
0.456038 0.316665 0.232296
0.628195 0.320757 0.231775
0.811746 0.323056 0.229846
0.956250 0.320985 0.226460
0.986695 0.317040 0.225187
0.220960 0.451639 0.231930
0.224589 0.452772 0.231822
0.251777 0.455160 0.231504
0.333032 0.458604 0.230746
0.472642 0.462354 0.229220
0.650018 0.465136 0.226643
0.822613 0.462274 0.225724
0.954556 0.458797 0.224712
0.986695 0.454680 0.223664
0.220916 0.640421 0.226172
0.221677 0.640151 0.226072
0.244839 0.639539 0.225847
0.327502 0.638513 0.225481
0.469580 0.637036 0.224979
0.643510 0.635076 0.224357
0.817849 0.632605 0.223645
0.952248 0.629597 0.222889
0.986695 0.626027 0.222151
0.220916 0.811296 0.223519
0.220947 0.811095 0.223447
0.239117 0.810640 0.223288
0.318190 0.809877 0.223033
0.459958 0.808777 0.222691
0.635253 0.807316 0.222283
0.811774 0.805472 0.221845
0.949222 0.803268 0.221397
0.986695 0.802165 0.220916
0.220916 0.946341 0.221519
0.220916 0.946237 0.221485
0.233011 0.946054 0.221346
0.306380 0.945891 0.221049
0.446539 0.945656 0.220916
0.622613 0.945343 0.220916
0.803035 0.945564 0.220916
0.949872 0.949340 0.220917
0.986695 0.953593 0.230777
0.220916 0.986695 0.221853
0.221231 0.986695 0.222372
0.246525 0.986695 0.223977
0.340624 0.986695 0.228003
0.495933 0.986695 0.236690
0.677239 0.986695 0.253134
0.848735 0.986695 0.280702
0.967347 0.986695 0.322088
0.986695 0.986695 0.378613
0.220916 0.220916 0.249830
0.222174 0.220916 0.250811
0.240116 0.220916 0.252952
0.303820 0.220916 0.256259
0.424491 0.220916 0.260309
0.587807 0.220916 0.264201
0.769179 0.220916 0.266465
0.930002 0.220916 0.266614
0.986695 0.220916 0.264575
0.220916 0.221151 0.253044
0.222831 0.221229 0.253950
0.242556 0.221428 0.255907
0.308468 0.221794 0.258865
0.430718 0.222282 0.262344
0.594778 0.222658 0.265393
0.775891 0.222501 0.266527
0.935217 0.222161 0.266692
0.986695 0.221301 0.263041
0.221008 0.238567 0.259269
0.224273 0.239082 0.259961
0.247200 0.240169 0.261410
0.317265 0.241722 0.263453
0.442771 0.243308 0.265508
0.608611 0.244122 0.266553
0.790736 0.244354 0.266612
0.945514 0.243889 0.265304
0.986695 0.239900 0.259510
0.221233 0.311222 0.265575
0.225507 0.311925 0.265826
0.251384 0.313353 0.266258
0.326291 0.315233 0.266553
0.456699 0.316854 0.266068
0.629401 0.321098 0.266679
0.812912 0.323078 0.264688
0.956180 0.320751 0.259572
0.986695 0.316808 0.256542
0.220953 0.452515 0.266713
0.224534 0.453611 0.266696
0.251714 0.455914 0.266518
0.333126 0.459219 0.265792
0.473004 0.462770 0.263825
0.649813 0.464894 0.259986
0.822463 0.462032 0.257856
0.954484 0.458554 0.255328
0.986695 0.454436 0.252423
0.220916 0.640214 0.258911
0.221647 0.639943 0.258677
0.244687 0.639331 0.258148
0.327266 0.638305 0.257268
0.469338 0.636827 0.256015
0.643303 0.634867 0.254381
0.817697 0.632395 0.252367
0.952174 0.629386 0.249986
0.986695 0.625816 0.247263
0.220916 0.811142 0.251988
0.220941 0.810941 0.251770
0.238981 0.810485 0.251278
0.317957 0.809722 0.250461
0.459715 0.808622 0.249301
0.635044 0.807160 0.247793
0.811620 0.805315 0.245941
0.949104 0.803203 0.243243
0.986695 0.802100 0.235494
0.220916 0.946261 0.244306
0.220916 0.946157 0.244110
0.232837 0.946021 0.242924
0.306033 0.945858 0.240541
0.446166 0.945622 0.237315
0.622289 0.945310 0.233429
0.803585 0.945834 0.231536
0.950106 0.949564 0.239712
0.986695 0.953873 0.269417
0.220916 0.986695 0.247405
0.221457 0.986695 0.249540
0.248060 0.986695 0.254660
0.342874 0.986695 0.264078
0.498034 0.986695 0.279359
0.678847 0.986695 0.302390
0.849741 0.986695 0.335101
0.967697 0.986695 0.379101
0.986695 0.986695 0.435370
0.220916 0.220916 0.313524
0.222421 0.220916 0.315245
0.241072 0.220916 0.318993
0.305650 0.220916 0.324794
0.426938 0.220916 0.332056
0.590536 0.220916 0.339631
0.771801 0.220916 0.345750
0.932047 0.220916 0.350584
0.986695 0.220916 0.352694
0.220916 0.221253 0.319155
0.223087 0.221339 0.320740
0.243433 0.221550 0.324175
0.310125 0.221918 0.329432
0.432952 0.222377 0.335883
0.597303 0.222680 0.342348
0.778336 0.222423 0.347040
0.937100 0.222110 0.351899
0.986695 0.221208 0.351932
0.221042 0.239226 0.330161
0.224482 0.239713 0.331419
0.247841 0.240735 0.334103
0.318505 0.242168 0.338077
0.444528 0.243563 0.342637
0.610686 0.244108 0.346548
0.793261 0.244484 0.350572
0.947061 0.243604 0.352893
0.986695 0.239669 0.349269
0.221228 0.312118 0.342810
0.225512 0.312764 0.343486
0.251523 0.314064 0.344844
0.326792 0.315726 0.346578
0.458369 0.317782 0.348607
0.631361 0.321607 0.351985
0.814815 0.323053 0.352734
0.956062 0.320360 0.349352
0.986695 0.316419 0.345262
0.220941 0.453916 0.351527
0.224427 0.454950 0.351867
0.251566 0.457114 0.352461
0.333222 0.460185 0.352911
0.473548 0.463402 0.352364
0.649469 0.464488 0.349903
0.822212 0.461625 0.347048
0.954364 0.458147 0.343594
0.986695 0.454029 0.339525
0.220916 0.639866 0.348469
0.221598 0.639595 0.348154
0.244434 0.638983 0.347442
0.326871 0.637956 0.346251
0.468933 0.636478 0.344541
0.642957 0.634516 0.342280
0.817443 0.632044 0.339445
0.952049 0.629034 0.336017
0.986695 0.625462 0.331983
0.220916 0.810883 0.338906
0.220933 0.810682 0.338594
0.238755 0.810226 0.337888
0.317568 0.809462 0.336709
0.459308 0.808362 0.335015
0.634694 0.806899 0.332778
0.811361 0.805053 0.329975
0.948907 0.803094 0.324827
0.986695 0.801991 0.311578
0.220916 0.946127 0.327438
0.220916 0.946063 0.326651
0.232549 0.945966 0.324317
0.305454 0.945802 0.320429
0.445542 0.945567 0.314885
0.621747 0.945254 0.307636
0.804504 0.946283 0.306651
0.950504 0.949947 0.323826
0.986695 0.954348 0.363809
0.220916 0.986695 0.335457
0.221973 0.986695 0.338469
0.250725 0.986695 0.345407
0.346680 0.986695 0.357371
0.501572 0.986695 0.375308
0.681555 0.986695 0.400263
0.851434 0.986695 0.433322
0.968284 0.986695 0.475479
0.986695 0.986695 0.527455
0.220916 0.220916 0.424645
0.222785 0.220916 0.427004
0.242397 0.220916 0.432161
0.308167 0.220916 0.440225
0.430314 0.220916 0.450581
0.594323 0.220916 0.462061
0.775452 0.220916 0.472921
0.934878 0.220916 0.484374
0.986695 0.220916 0.493124
0.220923 0.221416 0.432384
0.223453 0.221510 0.434576
0.244633 0.221730 0.439357
0.312387 0.222089 0.446793
0.436024 0.222494 0.456250
0.600799 0.222685 0.466551
0.781737 0.222291 0.475949
0.939702 0.222018 0.487401
0.986695 0.221087 0.494095
0.221092 0.240111 0.447839
0.224755 0.240557 0.449656
0.248681 0.241480 0.453589
0.320161 0.242733 0.459611
0.446915 0.243847 0.467050
0.613541 0.244002 0.474706
0.796774 0.244585 0.484350
0.949193 0.243113 0.492282
0.986695 0.239339 0.492541
0.221209 0.313279 0.467350
0.225478 0.313843 0.468549
0.251630 0.314956 0.471084
0.327380 0.316303 0.474779
0.460631 0.318986 0.480580
0.634053 0.322208 0.487633
0.817449 0.322885 0.493016
0.955893 0.319797 0.492623
0.986695 0.315861 0.488580
0.220925 0.455791 0.486468
0.224240 0.456737 0.487316
0.251258 0.458700 0.489063
0.333224 0.461436 0.491447
0.474194 0.464173 0.493696
0.648975 0.463904 0.493165
0.821850 0.461041 0.490349
0.954190 0.457562 0.486924
0.986695 0.453442 0.482867
0.220916 0.639365 0.491752
0.221530 0.639095 0.491441
0.244072 0.638481 0.490738
0.326303 0.637454 0.489560
0.468351 0.635975 0.487865
0.642458 0.634013 0.485617
0.817077 0.631538 0.482787
0.951870 0.628527 0.479348
0.986695 0.624953 0.475273
0.220916 0.810511 0.482247
0.220924 0.810310 0.481935
0.238432 0.809853 0.481228
0.317009 0.809089 0.480043
0.458723 0.807987 0.478339
0.634190 0.806523 0.476079
0.810990 0.804675 0.473233
0.948622 0.802937 0.466590
0.986695 0.801834 0.452755
0.220916 0.946027 0.469522
0.220916 0.945984 0.468463
0.232141 0.945886 0.466065
0.304623 0.945722 0.462044
0.444644 0.945487 0.456249
0.620966 0.945173 0.448552
0.805823 0.946926 0.451916
0.951095 0.950516 0.471836
0.986695 0.955044 0.508376
0.220916 0.986695 0.482677
0.223022 0.986695 0.485452
0.254766 0.986695 0.491799
0.352242 0.986695 0.502615
0.506709 0.986695 0.518578
0.685482 0.986695 0.540403
0.853888 0.986695 0.568832
0.969126 0.986695 0.604549
0.986695 0.986695 0.648050
0.220917 0.220916 0.571208
0.223273 0.220916 0.573989
0.244049 0.220916 0.580097
0.311287 0.220916 0.589742
0.434527 0.220916 0.602378
0.599091 0.220916 0.616945
0.780073 0.220916 0.631899
0.938431 0.220916 0.649381
0.986695 0.220916 0.664340
0.220961 0.221651 0.580362
0.223917 0.221749 0.582972
0.246100 0.221966 0.588698
0.315162 0.222293 0.597715
0.439835 0.222609 0.609474
0.605185 0.222646 0.622921
0.786618 0.222243 0.637249
0.942965 0.221865 0.653926
0.986695 0.220990 0.666291
0.221152 0.241163 0.598997
0.225059 0.241550 0.601234
0.249640 0.242334 0.606123
0.322120 0.243338 0.613766
0.449821 0.244071 0.623600
0.617153 0.243761 0.634649
0.801221 0.244564 0.649347
0.951857 0.242320 0.662467
0.986695 0.238905 0.664297
0.221167 0.314582 0.624009
0.225358 0.315037 0.625659
0.251598 0.315901 0.629228
0.328033 0.316957 0.634798
0.463372 0.320345 0.644037
0.637389 0.322763 0.654289
0.820755 0.322421 0.664084
0.955668 0.319054 0.664366
0.986695 0.315123 0.660949
0.220916 0.458022 0.652489
0.223938 0.458850 0.653795
0.250683 0.460548 0.656594
0.332983 0.462842 0.660803
0.474800 0.464943 0.665825
0.648319 0.463131 0.664825
0.821371 0.460267 0.662445
0.953959 0.456787 0.659547
0.986695 0.452666 0.656108
0.220916 0.638702 0.663630
0.221446 0.638431 0.663368
0.243595 0.637817 0.662774
0.325551 0.636790 0.661778
0.467579 0.635309 0.660344
0.641797 0.633345 0.658440
0.816592 0.630869 0.656040
0.951632 0.627855 0.653118
0.986695 0.624278 0.649650
0.220916 0.810018 0.655582
0.220917 0.809816 0.655316
0.238007 0.809359 0.654716
0.316269 0.808594 0.653709
0.457948 0.807490 0.652260
0.633523 0.806025 0.650336
0.810497 0.804175 0.647911
0.948243 0.802730 0.640671
0.986695 0.801625 0.628760
0.220916 0.945921 0.643184
0.220916 0.945878 0.642277
0.231610 0.945780 0.640221
0.303526 0.945616 0.636768
0.443454 0.945380 0.631777
0.619932 0.945067 0.625121
0.807562 0.947769 0.633079
0.951906 0.951300 0.650939
0.986695 0.955990 0.678201
0.220916 0.986695 0.659027
0.224975 0.986695 0.661098
0.260483 0.986695 0.665833
0.359761 0.986695 0.673903
0.513598 0.986695 0.685810
0.690745 0.986695 0.702082
0.857174 0.986695 0.723251
0.970239 0.986695 0.749786
0.986695 0.986695 0.781959
0.220955 0.220916 0.733800
0.223864 0.220916 0.736695
0.245937 0.220916 0.743065
0.314853 0.220916 0.753169
0.439408 0.220916 0.766531
0.604690 0.220916 0.782218
0.786028 0.220916 0.799374
0.942597 0.220916 0.819127
0.986695 0.220916 0.836190
0.221036 0.221949 0.743341
0.224445 0.222042 0.746071
0.247727 0.222237 0.752072
0.318284 0.222498 0.761580
0.444213 0.222681 0.774123
0.610312 0.222522 0.788792
0.792804 0.222224 0.805910
0.946781 0.221639 0.824267
0.986695 0.220957 0.835558
0.221208 0.242275 0.762939
0.225337 0.242583 0.765314
0.250588 0.243180 0.770528
0.324200 0.243858 0.778758
0.453064 0.244103 0.789547
0.622706 0.244303 0.803139
0.806485 0.244285 0.819088
0.954959 0.241103 0.834455
0.986695 0.238366 0.834122
0.221093 0.315839 0.790002
0.225092 0.316156 0.791844
0.251281 0.316705 0.795868
0.329951 0.319037 0.803298
0.466410 0.321668 0.813234
0.641219 0.323070 0.824684
0.824343 0.321462 0.836244
0.955383 0.318121 0.834172
0.986695 0.314197 0.831707
0.220916 0.460419 0.822627
0.223485 0.461100 0.824116
0.249693 0.462465 0.827358
0.332282 0.464203 0.832392
0.474240 0.464436 0.835861
0.647494 0.462159 0.834502
0.820768 0.459293 0.832786
0.953668 0.455811 0.830694
0.986695 0.451689 0.828203
0.220916 0.637867 0.833642
0.221349 0.637596 0.833452
0.243002 0.636982 0.833024
0.324608 0.635953 0.832305
0.466609 0.634471 0.831269
0.640966 0.632505 0.829893
0.815981 0.630026 0.828154
0.951331 0.627009 0.826034
0.986695 0.623429 0.823511
0.220916 0.809396 0.827822
0.220916 0.809194 0.827630
0.237480 0.808737 0.827194
0.315340 0.807970 0.826463
0.456974 0.806865 0.825410
0.632683 0.805397 0.824011
0.809876 0.803544 0.822244
0.947763 0.802468 0.815507
0.986695 0.801364 0.806711
0.220916 0.945788 0.817354
0.220916 0.945745 0.816688
0.230959 0.945647 0.815176
0.302150 0.945483 0.812632
0.441958 0.945247 0.808945
0.621299 0.945693 0.806958
0.809738 0.948818 0.814557
0.952973 0.952332 0.826770
0.986695 0.957215 0.843168
0.221383 0.986695 0.831615
0.228348 0.986695 0.832859
0.268244 0.986695 0.835707
0.369457 0.986695 0.840572
0.522397 0.986695 0.847771
0.697458 0.986695 0.857630
0.861359 0.986695 0.870453
0.971631 0.986695 0.886446
0.986695 0.986695 0.905578
0.221046 0.220916 0.885894
0.224503 0.220916 0.888337
0.247906 0.220916 0.893682
0.318633 0.220916 0.902077
0.444711 0.220916 0.913006
0.610903 0.220916 0.925563
0.793526 0.220916 0.939533
0.947223 0.220916 0.953437
0.986695 0.220916 0.961488
0.221134 0.222274 0.893914
0.224968 0.222350 0.896191
0.249347 0.222496 0.901171
0.321511 0.222651 0.908980
0.448906 0.222656 0.919121
0.615961 0.222276 0.930733
0.799798 0.222105 0.944225
0.951009 0.221347 0.956913
0.986695 0.220930 0.961205
0.221233 0.243287 0.910088
0.225502 0.243492 0.912019
0.251338 0.243851 0.916235
0.326145 0.244119 0.922820
0.456386 0.243768 0.931323
0.628871 0.244590 0.942247
0.812399 0.243577 0.953411
0.956211 0.240009 0.961657
0.986695 0.237722 0.960561
0.220995 0.316790 0.931678
0.224762 0.317514 0.933308
0.251698 0.319006 0.936858
0.331692 0.320987 0.942361
0.469487 0.322692 0.949377
0.645327 0.322858 0.957192
0.823617 0.320325 0.961512
0.955037 0.316990 0.960584
0.986695 0.313075 0.959467
0.220916 0.462719 0.955810
0.222861 0.463222 0.956812
0.248109 0.464184 0.958973
0.330922 0.464975 0.961796
0.473067 0.463257 0.961341
0.646492 0.460979 0.960732
0.820035 0.458111 0.959958
0.953313 0.454628 0.959004
0.986695 0.450503 0.957857
0.220916 0.636853 0.960345
0.221244 0.636582 0.960259
0.242291 0.635967 0.960065
0.323465 0.634937 0.959739
0.465431 0.633453 0.959268
0.639956 0.631484 0.958637
0.815238 0.629003 0.957834
0.950965 0.625982 0.956846
0.986695 0.622397 0.955659
0.220916 0.808641 0.957680
0.220916 0.808439 0.957591
0.236850 0.807981 0.957388
0.314216 0.807213 0.957047
0.455791 0.806106 0.956554
0.631662 0.804635 0.955895
0.808852 0.803084 0.954497
0.947179 0.802151 0.950943
0.986695 0.802378 0.947856
0.220916 0.945627 0.951853
0.220916 0.945583 0.951526
0.230193 0.945485 0.950779
0.300487 0.945321 0.949514
0.440142 0.945084 0.947659
0.624902 0.946994 0.949514
0.813038 0.949982 0.953119
0.954332 0.953653 0.957445
0.986695 0.958751 0.963116
0.223469 0.986695 0.959125
0.233803 0.986695 0.959556
0.278468 0.986695 0.960542
0.381566 0.986695 0.962223
0.533267 0.986695 0.964691
0.705737 0.986695 0.968008
0.866509 0.986695 0.972160
0.973297 0.986695 0.976961
0.986695 0.986695 0.981880
0.221158 0.220916 0.981526
0.225087 0.220916 0.982271
0.249730 0.220916 0.983734
0.322309 0.220916 0.985506
0.450107 0.220916 0.986653
0.617629 0.220916 0.986695
0.801670 0.220916 0.986695
0.952124 0.220916 0.986695
0.986695 0.220916 0.986695
0.221215 0.222555 0.983791
0.225373 0.222599 0.984334
0.250724 0.222665 0.985348
0.324520 0.222675 0.986402
0.453584 0.222470 0.986695
0.623634 0.222237 0.986695
0.807370 0.221850 0.986695
0.955475 0.221049 0.986695
0.986695 0.220917 0.986695
0.221195 0.243977 0.986493
0.225441 0.244055 0.986612
0.251641 0.244123 0.986695
0.327619 0.243901 0.986695
0.461718 0.244414 0.986695
0.635365 0.244397 0.986695
0.818743 0.242238 0.986695
0.955806 0.239219 0.986695
0.986695 0.236973 0.986695
0.220967 0.319678 0.986695
0.224634 0.320211 0.986695
0.251819 0.321253 0.986695
0.332916 0.322473 0.986695
0.472268 0.323077 0.986695
0.649433 0.321782 0.986695
0.822756 0.318984 0.986695
0.954625 0.315657 0.986695
0.986695 0.311752 0.986695
0.220916 0.464581 0.986695
0.222096 0.464874 0.986695
0.246174 0.464777 0.986695
0.329559 0.463582 0.986695
0.471679 0.461862 0.986695
0.645307 0.459583 0.986695
0.819166 0.456714 0.986695
0.952891 0.453228 0.986695
0.986695 0.449100 0.986695
0.220916 0.635653 0.986695
0.221139 0.635381 0.986695
0.241463 0.634765 0.986695
0.322116 0.633734 0.986695
0.464038 0.632248 0.986695
0.638760 0.630277 0.986695
0.814358 0.627791 0.986695
0.950529 0.624766 0.986695
0.986695 0.621251 0.986695
0.220916 0.807747 0.986695
0.220916 0.807544 0.986695
0.236118 0.807085 0.986695
0.312890 0.806315 0.986695
0.454391 0.805206 0.986695
0.630455 0.803732 0.986695
0.807488 0.802710 0.986695
0.946482 0.801776 0.986695
0.986695 0.805407 0.986695
0.220916 0.945435 0.986695
0.220916 0.945392 0.986695
0.229324 0.945294 0.986695
0.298532 0.945129 0.986695
0.442570 0.946022 0.986695
0.629141 0.948507 0.986695
0.817600 0.951375 0.986695
0.956024 0.955303 0.986695
0.986695 0.960627 0.986695
0.228129 0.986695 0.986695
0.242123 0.986695 0.986695
0.291616 0.986695 0.986695
0.396336 0.986695 0.986695
0.546379 0.986695 0.986695
0.715702 0.986695 0.986695
0.872687 0.986695 0.986695
0.975223 0.986695 0.986695
0.986695 0.986695 0.986695
