studio/assets/luts/claude-beginners.cube
TITLE "Claude for Beginners — Friendly"
# Soft purple with lavender highlights. Approachable, friendly mood.
# Generated by Like One Studio — cinema-grade pipeline
# Color science: lift/gamma/gain + filmic S-curve + zone tinting
LUT_3D_SIZE 33
# Domain: standard 0-1 range
DOMAIN_MIN 0.0 0.0 0.0
DOMAIN_MAX 1.0 1.0 1.0
0.220916 0.220916 0.221903
0.220916 0.220916 0.221934
0.220929 0.220916 0.221967
0.221176 0.220916 0.222012
0.221970 0.220916 0.222071
0.223686 0.220916 0.222145
0.226788 0.220916 0.222236
0.231802 0.220916 0.222343
0.239272 0.220916 0.222468
0.249707 0.220916 0.222612
0.263519 0.220916 0.222772
0.280977 0.220916 0.222951
0.302192 0.220916 0.223144
0.327127 0.220916 0.223352
0.355627 0.220916 0.223570
0.387455 0.220916 0.223793
0.422319 0.220916 0.224018
0.459897 0.220916 0.224236
0.499847 0.220916 0.224439
0.541807 0.220916 0.224618
0.585392 0.220916 0.224764
0.630186 0.220916 0.224864
0.675726 0.220916 0.224908
0.721488 0.220916 0.224884
0.766864 0.220916 0.224781
0.811137 0.220916 0.224591
0.853442 0.220916 0.224310
0.892720 0.220916 0.223936
0.928188 0.220916 0.223790
0.957407 0.220916 0.223590
0.977948 0.220916 0.223286
0.986636 0.220916 0.222884
0.986695 0.220916 0.222408
0.220916 0.220916 0.222009
0.220916 0.220916 0.222041
0.220944 0.220916 0.222075
0.221235 0.220916 0.222121
0.222086 0.220916 0.222181
0.223875 0.220916 0.222257
0.227064 0.220916 0.222348
0.232178 0.220916 0.222457
0.239759 0.220916 0.222583
0.250311 0.220916 0.222726
0.264241 0.220916 0.222887
0.281812 0.220916 0.223063
0.303133 0.220916 0.223255
0.328165 0.220916 0.223459
0.356749 0.220916 0.223672
0.388650 0.220916 0.223890
0.423575 0.220916 0.224106
0.461204 0.220916 0.224313
0.501194 0.220916 0.224505
0.543183 0.220916 0.224671
0.586787 0.220916 0.224801
0.631588 0.220917 0.224884
0.677122 0.220918 0.224908
0.722863 0.220917 0.224864
0.768201 0.220916 0.224741
0.812414 0.220916 0.224532
0.854634 0.220916 0.224232
0.893857 0.220916 0.223872
0.929236 0.220916 0.223756
0.958204 0.220916 0.223537
0.978418 0.220916 0.223214
0.986671 0.220916 0.222799
0.986695 0.220916 0.222316
0.220916 0.220916 0.222121
0.220916 0.220916 0.222154
0.220964 0.220916 0.222188
0.221299 0.220916 0.222235
0.222209 0.220916 0.222296
0.224070 0.220916 0.222372
0.227347 0.220916 0.222465
0.232562 0.220916 0.222574
0.240254 0.220916 0.222700
0.250924 0.220916 0.222843
0.264971 0.220916 0.223003
0.282658 0.220916 0.223178
0.304086 0.220916 0.223367
0.329214 0.220916 0.223567
0.357884 0.220916 0.223775
0.389858 0.220919 0.223985
0.424846 0.220930 0.224192
0.462527 0.220948 0.224389
0.502558 0.220971 0.224568
0.544578 0.220994 0.224719
0.588202 0.221015 0.224833
0.633011 0.221031 0.224898
0.678539 0.221036 0.224903
0.724259 0.221030 0.224839
0.769558 0.221011 0.224696
0.813710 0.220981 0.224466
0.855843 0.220946 0.224147
0.895118 0.220927 0.223855
0.930298 0.220924 0.223718
0.959009 0.220918 0.223478
0.978885 0.220916 0.223138
0.986691 0.220916 0.222710
0.986695 0.220916 0.222221
0.220916 0.220916 0.222278
0.220916 0.220916 0.222312
0.221001 0.220916 0.222346
0.221394 0.220916 0.222394
0.222381 0.220916 0.222456
0.224340 0.220916 0.222533
0.227734 0.220916 0.222626
0.233083 0.220916 0.222736
0.240924 0.220919 0.222862
0.251750 0.220929 0.223004
0.265956 0.220945 0.223162
0.283796 0.220971 0.223334
0.305368 0.221005 0.223518
0.330627 0.221049 0.223711
0.359412 0.221102 0.223910
0.391487 0.221163 0.224110
0.426560 0.221229 0.224304
0.464312 0.221298 0.224486
0.504400 0.221365 0.224646
0.546463 0.221426 0.224777
0.590114 0.221475 0.224868
0.634934 0.221507 0.224908
0.680456 0.221517 0.224887
0.726148 0.221499 0.224795
0.771395 0.221451 0.224624
0.815465 0.221373 0.224368
0.857480 0.221268 0.224024
0.896822 0.221229 0.223823
0.931731 0.221210 0.223657
0.960088 0.221159 0.223390
0.979502 0.221082 0.223028
0.986695 0.220995 0.222585
0.986695 0.220928 0.222092
0.220916 0.221074 0.222486
0.220924 0.221087 0.222520
0.221061 0.221100 0.222555
0.221527 0.221118 0.222603
0.222611 0.221143 0.222666
0.224691 0.221175 0.222743
0.228230 0.221216 0.222837
0.233747 0.221267 0.222945
0.241774 0.221327 0.223070
0.252796 0.221399 0.223210
0.267201 0.221483 0.223364
0.285234 0.221579 0.223530
0.306986 0.221686 0.223707
0.332410 0.221803 0.223890
0.361342 0.221929 0.224077
0.393545 0.222060 0.224261
0.428728 0.222193 0.224437
0.466571 0.222322 0.224597
0.506733 0.222442 0.224734
0.548852 0.222546 0.224837
0.592541 0.222627 0.224897
0.637377 0.222676 0.224905
0.682892 0.222685 0.224849
0.728550 0.222648 0.224722
0.773731 0.222557 0.224516
0.817698 0.222411 0.224227
0.859608 0.222226 0.223874
0.898989 0.222243 0.223768
0.933546 0.222196 0.223566
0.961446 0.222079 0.223266
0.980259 0.221895 0.222878
0.986695 0.221656 0.222419
0.986695 0.221386 0.221925
0.220916 0.222188 0.222747
0.220952 0.222222 0.222781
0.221150 0.222256 0.222816
0.221703 0.222304 0.222864
0.222900 0.222366 0.222926
0.225122 0.222444 0.223003
0.228833 0.222538 0.223095
0.234549 0.222649 0.223201
0.242794 0.222777 0.223322
0.254048 0.222922 0.223457
0.268688 0.223083 0.223604
0.286950 0.223260 0.223762
0.308919 0.223450 0.223927
0.334540 0.223651 0.224097
0.363650 0.223859 0.224266
0.396008 0.224070 0.224430
0.431325 0.224276 0.224581
0.469282 0.224473 0.224714
0.509536 0.224650 0.224818
0.551726 0.224799 0.224886
0.595463 0.224909 0.224909
0.640322 0.224971 0.224876
0.685831 0.224972 0.224778
0.731451 0.224902 0.224609
0.776554 0.224752 0.224361
0.820394 0.224516 0.224033
0.862553 0.224446 0.223830
0.901603 0.224459 0.223679
0.935728 0.224366 0.223434
0.963061 0.224159 0.223097
0.981130 0.223834 0.222681
0.986695 0.223398 0.222210
0.986695 0.222870 0.221723
0.220917 0.224908 0.223059
0.221009 0.224965 0.223092
0.221275 0.225023 0.223126
0.221923 0.225103 0.223173
0.223247 0.225206 0.223234
0.225630 0.225334 0.223308
0.229534 0.225486 0.223396
0.235472 0.225663 0.223498
0.243965 0.225863 0.223613
0.255481 0.226087 0.223740
0.270388 0.226332 0.223876
0.288911 0.226596 0.224020
0.311128 0.226875 0.224169
0.336977 0.227165 0.224319
0.366293 0.227460 0.224465
0.398834 0.227753 0.224601
0.434311 0.228036 0.224721
0.472403 0.228299 0.224818
0.512770 0.228531 0.224884
0.555047 0.228721 0.224909
0.598845 0.228855 0.224885
0.643736 0.228919 0.224804
0.689242 0.228899 0.224657
0.734820 0.228780 0.224439
0.779834 0.228551 0.224145
0.823753 0.228351 0.223861
0.865982 0.228476 0.223746
0.904639 0.228468 0.223543
0.938248 0.228308 0.223251
0.964905 0.227981 0.222876
0.982081 0.227479 0.222435
0.986695 0.226801 0.221959
0.986695 0.225959 0.221496
0.220935 0.229932 0.223413
0.221096 0.230012 0.223445
0.221435 0.230095 0.223477
0.222186 0.230207 0.223522
0.223647 0.230353 0.223579
0.226202 0.230531 0.223648
0.230313 0.230742 0.223730
0.236493 0.230986 0.223824
0.245253 0.231260 0.223929
0.257055 0.231563 0.224043
0.272254 0.231892 0.224164
0.291066 0.232243 0.224289
0.313558 0.232609 0.224416
0.339664 0.232985 0.224539
0.369214 0.233364 0.224655
0.401964 0.233734 0.224756
0.437626 0.234087 0.224838
0.475878 0.234410 0.224891
0.516378 0.234689 0.224909
0.558761 0.234909 0.224883
0.602634 0.235053 0.224806
0.647567 0.235105 0.224669
0.693078 0.235047 0.224468
0.738613 0.234860 0.224197
0.783585 0.234572 0.223874
0.827965 0.234851 0.223781
0.869855 0.234977 0.223606
0.908058 0.234925 0.223347
0.941068 0.234670 0.223006
0.966937 0.234193 0.222596
0.983069 0.233478 0.222140
0.986695 0.232515 0.221675
0.986695 0.231307 0.221260
0.220981 0.237974 0.223794
0.221213 0.238077 0.223823
0.221626 0.238182 0.223852
0.222482 0.238326 0.223892
0.224082 0.238510 0.223943
0.226814 0.238736 0.224005
0.231141 0.239003 0.224078
0.237571 0.239308 0.224159
0.246612 0.239651 0.224249
0.258716 0.240027 0.224345
0.274226 0.240432 0.224445
0.293347 0.240860 0.224546
0.316138 0.241304 0.224643
0.342525 0.241756 0.224733
0.372335 0.242206 0.224810
0.405321 0.242642 0.224869
0.441192 0.243051 0.224903
0.479628 0.243418 0.224905
0.520285 0.243727 0.224868
0.562795 0.243959 0.224785
0.606763 0.244096 0.224648
0.651752 0.244116 0.224451
0.697275 0.243998 0.224192
0.742798 0.243745 0.223876
0.788508 0.244203 0.223791
0.832611 0.244498 0.223631
0.874119 0.244598 0.223393
0.911809 0.244474 0.223077
0.944138 0.244096 0.222693
0.969107 0.243438 0.222259
0.984041 0.242476 0.221805
0.986695 0.241193 0.221379
0.986695 0.240100 0.221154
0.221050 0.249676 0.224176
0.221349 0.249798 0.224200
0.221834 0.249922 0.224225
0.222791 0.250092 0.224258
0.224527 0.250310 0.224301
0.227433 0.250575 0.224352
0.231973 0.250887 0.224410
0.238654 0.251244 0.224475
0.247979 0.251643 0.224545
0.260390 0.252078 0.224617
0.276222 0.252544 0.224690
0.295667 0.253034 0.224758
0.318775 0.253538 0.224819
0.345465 0.254047 0.224868
0.375558 0.254548 0.224900
0.408805 0.255029 0.224908
0.444914 0.255472 0.224888
0.483561 0.255861 0.224832
0.524400 0.256177 0.224733
0.567061 0.256400 0.224587
0.611144 0.256505 0.224386
0.656208 0.256471 0.224129
0.701940 0.256460 0.223868
0.748316 0.257101 0.223779
0.793821 0.257577 0.223622
0.837623 0.257853 0.223393
0.878711 0.257895 0.223093
0.915833 0.257670 0.222728
0.947402 0.257141 0.222313
0.971360 0.256276 0.221875
0.984942 0.255043 0.221454
0.986695 0.253702 0.221171
0.986695 0.252938 0.221098
0.221129 0.265513 0.224521
0.221487 0.265649 0.224539
0.222036 0.265788 0.224558
0.223084 0.265976 0.224583
0.224944 0.266218 0.224613
0.228011 0.266512 0.224650
0.232751 0.266857 0.224690
0.239672 0.267250 0.224734
0.249272 0.267687 0.224778
0.261987 0.268162 0.224820
0.278142 0.268668 0.224858
0.297919 0.269197 0.224888
0.321357 0.269738 0.224906
0.348368 0.270279 0.224907
0.378767 0.270806 0.224886
0.412302 0.271304 0.224838
0.448675 0.271755 0.224757
0.487562 0.272139 0.224638
0.528613 0.272436 0.224475
0.571454 0.272622 0.224264
0.615679 0.272672 0.224002
0.661400 0.273179 0.223844
0.707898 0.273987 0.223741
0.754150 0.274635 0.223577
0.799443 0.275087 0.223347
0.842925 0.275308 0.223053
0.883560 0.275259 0.222700
0.920062 0.274903 0.222302
0.950797 0.274198 0.221881
0.973637 0.273107 0.221475
0.985559 0.271759 0.221178
0.986695 0.270905 0.221106
0.986695 0.270023 0.221044
0.221198 0.285742 0.224783
0.221601 0.285886 0.224793
0.222200 0.286032 0.224804
0.223321 0.286232 0.224817
0.225283 0.286486 0.224834
0.228486 0.286795 0.224852
0.233401 0.287157 0.224870
0.240537 0.287569 0.224887
0.250392 0.288024 0.224901
0.263396 0.288517 0.224908
0.279865 0.289040 0.224906
0.299973 0.289582 0.224892
0.323749 0.290132 0.224861
0.351097 0.290677 0.224808
0.381824 0.291202 0.224730
0.415672 0.291689 0.224621
0.452342 0.292118 0.224478
0.491501 0.292470 0.224295
0.532797 0.292720 0.224069
0.576110 0.293129 0.223865
0.621438 0.294186 0.223792
0.667604 0.295127 0.223667
0.714065 0.295919 0.223487
0.760200 0.296527 0.223249
0.805279 0.296916 0.222954
0.848428 0.297045 0.222608
0.888584 0.296875 0.222224
0.924421 0.296362 0.221823
0.954253 0.295465 0.221440
0.975323 0.294293 0.221174
0.985495 0.293384 0.221106
0.986695 0.292442 0.221045
0.986695 0.291467 0.220995
0.221232 0.310392 0.224906
0.221661 0.310537 0.224907
0.222287 0.310685 0.224908
0.223454 0.310886 0.224909
0.225484 0.311143 0.224908
0.228785 0.311454 0.224905
0.233835 0.311817 0.224898
0.241146 0.312228 0.224885
0.251220 0.312682 0.224864
0.264484 0.313171 0.224832
0.281250 0.313686 0.224787
0.301681 0.314216 0.224724
0.325797 0.314750 0.224641
0.353494 0.315272 0.224533
0.384570 0.315766 0.224397
0.418760 0.316214 0.224229
0.455757 0.316595 0.224026
0.495550 0.317242 0.223863
0.538024 0.318442 0.223798
0.582207 0.319571 0.223693
0.627654 0.320598 0.223541
0.673876 0.321494 0.223340
0.720321 0.322223 0.223089
0.766353 0.322751 0.222790
0.811224 0.323038 0.222449
0.854037 0.323044 0.222079
0.893696 0.322727 0.221703
0.928833 0.322040 0.221351
0.956281 0.321088 0.221160
0.975110 0.320157 0.221096
0.985422 0.319189 0.221039
0.986695 0.318184 0.220992
0.986695 0.317143 0.220955
0.221212 0.339301 0.224833
0.221635 0.339443 0.224824
0.222261 0.339587 0.224815
0.223433 0.339782 0.224801
0.225484 0.340030 0.224782
0.228828 0.340331 0.224756
0.233954 0.340681 0.224721
0.241384 0.341076 0.224677
0.251623 0.341509 0.224619
0.265104 0.341974 0.224547
0.282134 0.342459 0.224458
0.302870 0.342955 0.224347
0.327323 0.343448 0.224214
0.355378 0.343923 0.224054
0.386866 0.344410 0.223876
0.422209 0.345653 0.223834
0.460392 0.346889 0.223765
0.501044 0.348093 0.223663
0.543774 0.349242 0.223523
0.588165 0.350307 0.223343
0.633766 0.351260 0.223120
0.680077 0.352068 0.222855
0.726535 0.352696 0.222552
0.772488 0.353108 0.222219
0.817167 0.353264 0.221870
0.859649 0.353123 0.221526
0.898804 0.352638 0.221220
0.930214 0.351769 0.221135
0.955911 0.350842 0.221077
0.974874 0.349877 0.221026
0.985340 0.348873 0.220983
0.986695 0.347829 0.220950
0.986695 0.346746 0.220927
0.221127 0.372177 0.224515
0.221505 0.372310 0.224496
0.222091 0.372445 0.224476
0.223217 0.372627 0.224448
0.225223 0.372859 0.224410
0.228536 0.373139 0.224362
0.233657 0.373464 0.224301
0.241125 0.373828 0.224226
0.251456 0.374227 0.224134
0.265090 0.374650 0.224025
0.282337 0.375090 0.223896
0.303789 0.376070 0.223855
0.329173 0.377182 0.223816
0.358279 0.378334 0.223757
0.390858 0.379508 0.223675
0.426598 0.380687 0.223567
0.465150 0.381848 0.223428
0.506139 0.382971 0.223257
0.549168 0.384028 0.223051
0.593811 0.384993 0.222811
0.639610 0.385835 0.222538
0.686053 0.386522 0.222239
0.732563 0.387019 0.221922
0.778471 0.387289 0.221605
0.822986 0.387291 0.221310
0.863184 0.386735 0.221160
0.898527 0.385873 0.221103
0.929680 0.384972 0.221051
0.955507 0.384031 0.221007
0.974615 0.383051 0.220969
0.985247 0.382030 0.220941
0.986695 0.380968 0.220923
0.986695 0.379866 0.220916
0.221002 0.408646 0.223925
0.221284 0.408767 0.223897
0.221781 0.408925 0.223876
0.222821 0.409256 0.223870
0.224762 0.409681 0.223861
0.228064 0.410200 0.223848
0.233269 0.410812 0.223829
0.240953 0.411515 0.223804
0.251665 0.412302 0.223769
0.265861 0.413167 0.223723
0.283848 0.414102 0.223664
0.305761 0.415095 0.223588
0.331571 0.416135 0.223493
0.361113 0.417206 0.223377
0.394128 0.418291 0.223236
0.430295 0.419373 0.223069
0.469256 0.420431 0.222875
0.510629 0.421440 0.222653
0.554006 0.422377 0.222406
0.598956 0.423213 0.222139
0.645007 0.423918 0.221858
0.691636 0.424460 0.221576
0.738250 0.424804 0.221311
0.782574 0.424513 0.221165
0.823677 0.423731 0.221113
0.862364 0.422909 0.221064
0.897822 0.422048 0.221021
0.929100 0.421148 0.220983
0.955066 0.420207 0.220953
0.974331 0.419226 0.220931
0.985144 0.418205 0.220919
0.986695 0.417143 0.220916
0.986695 0.416039 0.220916
0.220963 0.451243 0.223652
0.221210 0.451465 0.223638
0.221683 0.451691 0.223623
0.222692 0.451998 0.223602
0.224611 0.452393 0.223574
0.227913 0.452875 0.223537
0.233156 0.453442 0.223491
0.240931 0.454091 0.223433
0.251798 0.454817 0.223363
0.266220 0.455613 0.223278
0.284501 0.456471 0.223176
0.306769 0.457378 0.223056
0.332981 0.458323 0.222917
0.362959 0.459292 0.222757
0.396428 0.460267 0.222576
0.433056 0.461231 0.222375
0.472472 0.462162 0.222155
0.514283 0.463037 0.221921
0.558071 0.463832 0.221681
0.603392 0.464520 0.221443
0.649762 0.465070 0.221224
0.694587 0.464584 0.221152
0.738565 0.463888 0.221106
0.781472 0.463154 0.221062
0.822679 0.462382 0.221023
0.861479 0.461571 0.220988
0.897059 0.460722 0.220959
0.928472 0.459833 0.220936
0.954588 0.458905 0.220922
0.974022 0.457936 0.220916
0.985029 0.456928 0.220916
0.986695 0.455878 0.220916
0.986695 0.454787 0.220916
0.220919 0.496869 0.223112
0.221059 0.497071 0.223089
0.221431 0.497276 0.223065
0.222314 0.497556 0.223032
0.224093 0.497914 0.222988
0.227259 0.498351 0.222933
0.232391 0.498864 0.222865
0.240106 0.499450 0.222783
0.250988 0.500104 0.222688
0.265514 0.500819 0.222576
0.283995 0.501586 0.222449
0.306554 0.502394 0.222306
0.333136 0.503231 0.222148
0.363544 0.504083 0.221976
0.397488 0.504933 0.221792
0.434615 0.505763 0.221602
0.474539 0.506553 0.221412
0.516852 0.507281 0.221233
0.560107 0.507029 0.221162
0.604109 0.506457 0.221121
0.648640 0.505850 0.221083
0.693205 0.505206 0.221046
0.737277 0.504527 0.221012
0.780287 0.503810 0.220982
0.821605 0.503056 0.220956
0.860526 0.502265 0.220936
0.896237 0.501435 0.220923
0.927796 0.500567 0.220917
0.954072 0.499660 0.220916
0.973687 0.498714 0.220916
0.984902 0.497728 0.220916
0.986695 0.496702 0.220916
0.986695 0.495636 0.220916
0.220916 0.544757 0.222318
0.220924 0.544936 0.222290
0.221104 0.545119 0.222262
0.221740 0.545367 0.222224
0.223226 0.545685 0.222173
0.226077 0.546072 0.222111
0.230904 0.546525 0.222037
0.238359 0.547042 0.221950
0.249066 0.547617 0.221851
0.263531 0.548243 0.221741
0.282083 0.548912 0.221621
0.304844 0.549612 0.221494
0.331746 0.550332 0.221363
0.362573 0.551058 0.221233
0.396901 0.551023 0.221172
0.434112 0.550603 0.221140
0.473739 0.550151 0.221109
0.515315 0.549665 0.221077
0.558375 0.549146 0.221047
0.602452 0.548593 0.221018
0.647067 0.548005 0.220991
0.691724 0.547383 0.220967
0.735898 0.546725 0.220947
0.779017 0.546032 0.220931
0.820455 0.545302 0.220921
0.859504 0.544536 0.220916
0.895356 0.543733 0.220916
0.927069 0.542893 0.220916
0.953516 0.542015 0.220916
0.973324 0.541098 0.220916
0.984760 0.540143 0.220916
0.986695 0.539149 0.220916
0.986695 0.538116 0.220916
0.220916 0.594331 0.221457
0.220916 0.594487 0.221434
0.220916 0.594645 0.221411
0.221150 0.594861 0.221379
0.222148 0.595136 0.221340
0.224452 0.595470 0.221292
0.228714 0.595861 0.221238
0.235693 0.596151 0.221189
0.246235 0.595951 0.221173
0.260733 0.595724 0.221155
0.279476 0.595469 0.221135
0.302506 0.595186 0.221114
0.329652 0.594874 0.221093
0.360587 0.594532 0.221070
0.394894 0.594159 0.221048
0.432114 0.593756 0.221025
0.471774 0.593322 0.221004
0.513402 0.592856 0.220983
0.556529 0.592358 0.220964
0.600684 0.591827 0.220947
0.645388 0.591263 0.220933
0.690144 0.590666 0.220923
0.734425 0.590035 0.220917
0.777662 0.589369 0.220916
0.819226 0.588669 0.220916
0.858412 0.587933 0.220916
0.894413 0.587162 0.220916
0.926290 0.586355 0.220916
0.952920 0.585511 0.220916
0.972932 0.584631 0.220916
0.984604 0.583714 0.220916
0.986695 0.582759 0.220916
0.986695 0.581766 0.220916
0.220916 0.640513 0.221101
0.220916 0.640462 0.221097
0.220916 0.640409 0.221093
0.220968 0.640337 0.221088
0.221690 0.640243 0.221082
0.223740 0.640126 0.221074
0.227808 0.639986 0.221064
0.234634 0.639821 0.221054
0.244906 0.639631 0.221042
0.259159 0.639415 0.221030
0.277696 0.639172 0.221016
0.300569 0.638903 0.221002
0.327607 0.638605 0.220988
0.358480 0.638280 0.220974
0.392764 0.637925 0.220961
0.429992 0.637542 0.220948
0.469686 0.637128 0.220937
0.511369 0.636685 0.220928
0.554565 0.636210 0.220921
0.598803 0.635705 0.220917
0.643602 0.635168 0.220916
0.688463 0.634599 0.220916
0.732858 0.633998 0.220916
0.776218 0.633364 0.220916
0.817916 0.632697 0.220916
0.857247 0.631997 0.220916
0.893408 0.631262 0.220916
0.925458 0.630493 0.220916
0.952281 0.629690 0.220916
0.972511 0.628851 0.220916
0.984431 0.627977 0.220916
0.986695 0.627067 0.220916
0.986695 0.626121 0.220916
0.220916 0.684295 0.220988
0.220916 0.684247 0.220986
0.220916 0.684197 0.220984
0.220921 0.684129 0.220981
0.221435 0.684040 0.220977
0.223234 0.683930 0.220972
0.227022 0.683797 0.220966
0.233551 0.683641 0.220960
0.243530 0.683462 0.220954
0.257516 0.683258 0.220947
0.275829 0.683029 0.220940
0.298529 0.682775 0.220934
0.325448 0.682494 0.220928
0.356251 0.682187 0.220923
0.390508 0.681852 0.220919
0.427744 0.681490 0.220917
0.467473 0.681100 0.220916
0.509212 0.680681 0.220916
0.552482 0.680233 0.220916
0.596808 0.679756 0.220916
0.641706 0.679249 0.220916
0.686678 0.678712 0.220916
0.731194 0.678145 0.220916
0.774685 0.677546 0.220916
0.816525 0.676916 0.220916
0.856010 0.676254 0.220916
0.892338 0.675560 0.220916
0.924572 0.674834 0.220916
0.951599 0.674075 0.220916
0.972058 0.673282 0.220916
0.984241 0.672456 0.220916
0.986695 0.671596 0.220916
0.986695 0.670701 0.220916
0.220916 0.727729 0.220926
0.220916 0.727684 0.220925
0.220916 0.727637 0.220924
0.220916 0.727573 0.220923
0.221220 0.727490 0.220922
0.222753 0.727387 0.220921
0.226240 0.727263 0.220919
0.232449 0.727118 0.220918
0.242113 0.726950 0.220917
0.255808 0.726760 0.220916
0.273876 0.726546 0.220916
0.296388 0.726308 0.220916
0.323176 0.726045 0.220916
0.353902 0.725758 0.220916
0.388127 0.725445 0.220916
0.425369 0.725106 0.220916
0.465133 0.724741 0.220916
0.506930 0.724350 0.220916
0.550278 0.723931 0.220916
0.594696 0.723485 0.220916
0.639700 0.723011 0.220916
0.684788 0.722508 0.220916
0.729431 0.721977 0.220916
0.773061 0.721417 0.220916
0.815050 0.720827 0.220916
0.854697 0.720208 0.220916
0.891201 0.719559 0.220916
0.923630 0.718879 0.220916
0.950872 0.718168 0.220916
0.971573 0.717426 0.220916
0.984032 0.716652 0.220916
0.986695 0.715847 0.220916
0.986695 0.715009 0.220916
0.220916 0.770281 0.220916
0.220916 0.770239 0.220916
0.220916 0.770196 0.220916
0.220916 0.770137 0.220916
0.221055 0.770060 0.220916
0.222306 0.769965 0.220916
0.225471 0.769850 0.220916
0.231337 0.769716 0.220916
0.240659 0.769561 0.220916
0.254041 0.769385 0.220916
0.271842 0.769187 0.220916
0.294147 0.768967 0.220916
0.320790 0.768724 0.220916
0.351430 0.768458 0.220916
0.385619 0.768169 0.220916
0.422864 0.767856 0.220916
0.462664 0.767519 0.220916
0.504522 0.767156 0.220916
0.547951 0.766769 0.220916
0.592466 0.766356 0.220916
0.637580 0.765917 0.220916
0.682791 0.765453 0.220916
0.727568 0.764961 0.220916
0.771343 0.764443 0.220916
0.813490 0.763897 0.220916
0.853307 0.763324 0.220916
0.889998 0.762723 0.220916
0.922630 0.762093 0.220916
0.950098 0.761435 0.220916
0.971053 0.760748 0.220916
0.983803 0.760032 0.220916
0.986695 0.759467 0.220916
0.986695 0.759146 0.220916
0.220916 0.811364 0.220916
0.220916 0.811326 0.220916
0.220916 0.811287 0.220916
0.220916 0.811233 0.220916
0.220950 0.811164 0.220916
0.221901 0.811077 0.220916
0.224723 0.810972 0.220916
0.230223 0.810850 0.220916
0.239177 0.810708 0.220916
0.252218 0.810548 0.220916
0.269730 0.810367 0.220916
0.291808 0.810167 0.220916
0.318293 0.809945 0.220916
0.348836 0.809703 0.220916
0.382982 0.809439 0.220916
0.420229 0.809154 0.220916
0.460065 0.808846 0.220916
0.501986 0.808516 0.220916
0.545499 0.808162 0.220916
0.590115 0.807785 0.220916
0.635345 0.807385 0.220916
0.680684 0.806961 0.220916
0.725603 0.806512 0.220916
0.769530 0.806039 0.220916
0.811842 0.805541 0.220916
0.851839 0.805018 0.220916
0.888725 0.804469 0.220916
0.921571 0.803894 0.220916
0.949274 0.803297 0.220916
0.970387 0.803037 0.220916
0.983449 0.802767 0.220916
0.986695 0.802486 0.220916
0.986695 0.802194 0.220916
0.220916 0.850325 0.220916
0.220916 0.850291 0.220916
0.220916 0.850256 0.220916
0.220916 0.850207 0.220916
0.220916 0.850145 0.220916
0.221550 0.850067 0.220916
0.224008 0.849974 0.220916
0.229115 0.849864 0.220916
0.237674 0.849738 0.220916
0.250347 0.849594 0.220916
0.267543 0.849432 0.220916
0.289374 0.849253 0.220916
0.315684 0.849055 0.220916
0.346120 0.848838 0.220916
0.380217 0.848601 0.220916
0.417463 0.848346 0.220916
0.457334 0.848070 0.220916
0.499320 0.847774 0.220916
0.542920 0.847457 0.220916
0.587642 0.847120 0.220916
0.632993 0.846761 0.220916
0.678467 0.846381 0.220916
0.723533 0.845979 0.220916
0.767621 0.845555 0.220916
0.810106 0.845108 0.220916
0.850269 0.844663 0.220916
0.887141 0.844460 0.220916
0.920058 0.844247 0.220916
0.947941 0.844025 0.220916
0.969476 0.843793 0.220916
0.983020 0.843551 0.220916
0.986695 0.843299 0.220916
0.986695 0.843038 0.220916
0.220916 0.886416 0.220916
0.220916 0.886386 0.220916
0.220916 0.886355 0.220916
0.220916 0.886313 0.220916
0.220916 0.886259 0.220916
0.221265 0.886191 0.220916
0.223337 0.886110 0.220916
0.228024 0.886014 0.220916
0.236159 0.885903 0.220916
0.248434 0.885778 0.220916
0.265286 0.885637 0.220916
0.286847 0.885480 0.220916
0.312965 0.885307 0.220916
0.343282 0.885118 0.220916
0.377323 0.884912 0.220916
0.414563 0.884688 0.220916
0.454470 0.884448 0.220916
0.496522 0.884189 0.220916
0.540212 0.883912 0.220916
