studio/assets/luts/creatives.cube
TITLE "Creatives — Energy"
# Magenta midtones, coral highlights. Expressive, energetic mood.
# Generated by Like One Studio — cinema-grade pipeline
# Color science: lift/gamma/gain + filmic S-curve + zone tinting
LUT_3D_SIZE 33
# Domain: standard 0-1 range
DOMAIN_MIN 0.0 0.0 0.0
DOMAIN_MAX 1.0 1.0 1.0
0.220916 0.220916 0.220916
0.220916 0.220916 0.220916
0.220916 0.220916 0.220916
0.220916 0.220916 0.220916
0.220916 0.220916 0.220916
0.220916 0.220916 0.220916
0.220936 0.220916 0.220916
0.222048 0.220916 0.220916
0.225460 0.220916 0.220916
0.232021 0.220916 0.220916
0.242527 0.220916 0.220916
0.257602 0.220916 0.220916
0.277607 0.220916 0.220916
0.302620 0.220916 0.220916
0.332480 0.220916 0.220916
0.366859 0.220916 0.220916
0.405335 0.220916 0.220916
0.447440 0.220916 0.220916
0.492686 0.220916 0.220916
0.540560 0.220916 0.220916
0.590521 0.220916 0.220916
0.641970 0.220916 0.220916
0.694228 0.220916 0.220916
0.746493 0.220916 0.220916
0.797795 0.220916 0.220916
0.846930 0.220916 0.220916
0.892371 0.220916 0.220916
0.932130 0.220916 0.220916
0.965482 0.220916 0.220916
0.984468 0.220916 0.220916
0.986695 0.220916 0.220916
0.986695 0.220916 0.220916
0.986695 0.220916 0.220916
0.220916 0.220916 0.220916
0.220916 0.220916 0.220916
0.220916 0.220916 0.220916
0.220916 0.220916 0.220916
0.220916 0.220916 0.220916
0.220916 0.220916 0.220916
0.220956 0.220916 0.220916
0.222185 0.220916 0.220916
0.225735 0.220916 0.220916
0.232453 0.220916 0.220916
0.243126 0.220916 0.220916
0.258369 0.220916 0.220916
0.278534 0.220916 0.220916
0.303692 0.220916 0.220916
0.333678 0.220916 0.220916
0.368164 0.220916 0.220916
0.406728 0.220916 0.220916
0.448904 0.220916 0.220916
0.494204 0.220916 0.220916
0.542117 0.220916 0.220916
0.592100 0.220916 0.220916
0.643553 0.220916 0.220916
0.695795 0.220916 0.220916
0.748020 0.220916 0.220916
0.799254 0.220916 0.220916
0.848285 0.220916 0.220916
0.893576 0.220916 0.220916
0.933597 0.220916 0.220916
0.966482 0.220916 0.220916
0.984812 0.220916 0.220916
0.986695 0.220916 0.220916
0.986695 0.220916 0.220916
0.986695 0.220916 0.220916
0.220916 0.220916 0.220916
0.220916 0.220916 0.220916
0.220916 0.220916 0.220916
0.220916 0.220916 0.220916
0.220916 0.220916 0.220916
0.220916 0.220916 0.220916
0.220986 0.220916 0.220916
0.222339 0.220916 0.220916
0.226036 0.220916 0.220916
0.232919 0.220916 0.220916
0.243769 0.220916 0.220916
0.259191 0.220916 0.220916
0.279525 0.220916 0.220916
0.304838 0.220916 0.220916
0.334959 0.220916 0.220916
0.369559 0.220916 0.220916
0.408217 0.220916 0.220916
0.450470 0.220916 0.220916
0.495829 0.220916 0.220916
0.543783 0.220916 0.220916
0.593790 0.220916 0.220916
0.645248 0.220916 0.220916
0.697473 0.220916 0.220916
0.749656 0.220916 0.220916
0.800816 0.220916 0.220916
0.849735 0.220916 0.220916
0.894866 0.220916 0.220916
0.935188 0.220916 0.220916
0.967537 0.220916 0.220916
0.985152 0.220916 0.220916
0.986695 0.220916 0.220916
0.986695 0.220916 0.220916
0.986695 0.220916 0.220916
0.220916 0.220916 0.220916
0.220916 0.220916 0.220916
0.220916 0.220916 0.220916
0.220916 0.220916 0.220916
0.220916 0.220916 0.220916
0.220916 0.220916 0.220916
0.221041 0.220916 0.220916
0.222562 0.220916 0.220916
0.226460 0.220916 0.220916
0.233570 0.220916 0.220916
0.244662 0.220916 0.220916
0.260327 0.220916 0.220916
0.280895 0.220916 0.220916
0.306419 0.220916 0.220916
0.336725 0.220916 0.220916
0.371483 0.220916 0.220916
0.410273 0.220916 0.220916
0.452632 0.220916 0.220916
0.498073 0.220916 0.220916
0.546087 0.220916 0.220916
0.596128 0.220916 0.220916
0.647595 0.220916 0.220916
0.699797 0.220916 0.220916
0.751922 0.220916 0.220916
0.802980 0.220916 0.220916
0.851743 0.220916 0.220916
0.896648 0.220916 0.220916
0.937375 0.220916 0.220916
0.968967 0.220916 0.220916
0.985571 0.220916 0.220916
0.986695 0.220916 0.220916
0.986695 0.220916 0.220916
0.986695 0.220916 0.220916
0.220916 0.220916 0.220916
0.220916 0.220916 0.220916
0.220916 0.220916 0.220916
0.220916 0.220916 0.220916
0.220916 0.220916 0.220916
0.220916 0.220916 0.220916
0.221132 0.220916 0.220916
0.222868 0.220916 0.220916
0.227022 0.220916 0.220916
0.234420 0.220916 0.220916
0.245820 0.220916 0.220916
0.261795 0.220916 0.220916
0.282659 0.220916 0.220916
0.308453 0.220916 0.220916
0.338997 0.220916 0.220916
0.373959 0.220916 0.220916
0.412920 0.220916 0.220916
0.455418 0.220916 0.220916
0.500968 0.220916 0.220916
0.549061 0.220916 0.220916
0.599149 0.220916 0.220916
0.650629 0.220916 0.220916
0.702804 0.220916 0.220916
0.754854 0.220916 0.220916
0.805780 0.220916 0.220916
0.854339 0.220916 0.220916
0.898950 0.220916 0.220916
0.940178 0.220916 0.220916
0.970764 0.220916 0.220916
0.986023 0.220916 0.220916
0.986695 0.220916 0.220916
0.986695 0.220916 0.220916
0.986695 0.220916 0.220916
0.220916 0.220916 0.220916
0.220916 0.220916 0.220916
0.220916 0.220916 0.220916
0.220916 0.220916 0.220916
0.220916 0.220916 0.220916
0.220916 0.220916 0.220916
0.221272 0.220916 0.220916
0.223265 0.220916 0.220916
0.227723 0.220916 0.220916
0.235466 0.220916 0.220916
0.247234 0.220916 0.220916
0.263581 0.220916 0.220916
0.284801 0.220916 0.220916
0.310922 0.220916 0.220916
0.341755 0.220916 0.220916
0.376967 0.220916 0.220916
0.416138 0.220916 0.220916
0.458810 0.220916 0.220916
0.504497 0.220916 0.220916
0.552690 0.220916 0.220916
0.602841 0.220916 0.220916
0.654339 0.220916 0.220916
0.706483 0.220916 0.220916
0.758444 0.220916 0.220916
0.809208 0.220916 0.220916
0.857516 0.220916 0.220916
0.903286 0.220916 0.220916
0.943565 0.220916 0.220916
0.972877 0.220916 0.220916
0.986426 0.220916 0.220916
0.986695 0.220916 0.220916
0.986695 0.220916 0.220916
0.986695 0.220916 0.220916
0.220916 0.220916 0.220916
0.220916 0.220916 0.220916
0.220916 0.220916 0.220916
0.220916 0.220916 0.220916
0.220916 0.220916 0.220916
0.220916 0.220916 0.220916
0.221470 0.220916 0.220916
0.223754 0.220916 0.220916
0.228559 0.220916 0.220916
0.236693 0.220916 0.220916
0.248881 0.220916 0.220916
0.265653 0.220916 0.220916
0.287282 0.220916 0.220916
0.313781 0.220916 0.220916
0.344952 0.220916 0.220916
0.380457 0.220916 0.220916
0.419880 0.220916 0.220916
0.462760 0.220916 0.220916
0.508614 0.220916 0.220916
0.556932 0.220916 0.220916
0.607162 0.220916 0.220916
0.658688 0.220916 0.220916
0.710802 0.220916 0.220916
0.762660 0.220916 0.220916
0.813234 0.220916 0.220916
0.861426 0.220916 0.220916
0.908384 0.220916 0.220916
0.947475 0.220916 0.220916
0.975226 0.220916 0.220916
0.986671 0.220916 0.220916
0.986695 0.220916 0.220916
0.986695 0.220916 0.220916
0.986695 0.220916 0.220916
0.220916 0.220916 0.220916
0.220916 0.220916 0.220916
0.220916 0.220916 0.220916
0.220916 0.220916 0.220916
0.220916 0.220916 0.220916
0.220926 0.220916 0.220916
0.221729 0.220916 0.220916
0.224328 0.220916 0.220916
0.229509 0.220916 0.220916
0.238070 0.220916 0.220916
0.250717 0.220916 0.220916
0.267957 0.220916 0.220916
0.290040 0.220916 0.220916
0.316961 0.220916 0.220916
0.348513 0.220916 0.220916
0.384355 0.220916 0.220916
0.424067 0.220916 0.220916
0.467193 0.220916 0.220916
0.513247 0.220916 0.220916
0.561717 0.220916 0.220916
0.612047 0.220916 0.220916
0.663614 0.220916 0.220916
0.715700 0.220916 0.220916
0.767446 0.220916 0.220916
0.817806 0.220916 0.220916
0.868276 0.220916 0.220916
0.914143 0.220916 0.220916
0.951818 0.220916 0.220916
0.977704 0.220916 0.220916
0.986695 0.220916 0.220916
0.986695 0.220916 0.220916
0.986695 0.220916 0.220916
0.986695 0.220916 0.220916
0.220916 0.220916 0.220916
0.220916 0.220916 0.220916
0.220916 0.220916 0.220916
0.220916 0.220916 0.220916
0.220916 0.220916 0.220916
0.220980 0.220918 0.220916
0.222040 0.220923 0.220916
0.224963 0.220931 0.220916
0.230534 0.220945 0.220916
0.239542 0.220966 0.220916
0.252673 0.220993 0.220916
0.270410 0.221027 0.220916
0.292980 0.221069 0.220916
0.320361 0.221115 0.220916
0.352334 0.221165 0.220916
0.388552 0.221214 0.220916
0.428595 0.221259 0.220916
0.472004 0.221294 0.220916
0.518294 0.221313 0.220916
0.566947 0.221311 0.220916
0.617403 0.221284 0.220916
0.669030 0.221229 0.220916
0.721096 0.221150 0.220916
0.772726 0.221056 0.220916
0.825402 0.221024 0.220916
0.875857 0.221008 0.220916
0.920457 0.220972 0.220916
0.956480 0.220931 0.220916
0.980178 0.220916 0.220916
0.986695 0.220916 0.220916
0.986695 0.220916 0.220916
0.986695 0.220916 0.220916
0.986695 0.220916 0.220916
0.220916 0.222819 0.220916
0.220916 0.222854 0.220916
0.220916 0.222891 0.220916
0.220916 0.222943 0.220916
0.220916 0.223012 0.220916
0.221071 0.223098 0.220916
0.222379 0.223201 0.220916
0.225618 0.223323 0.220916
0.231574 0.223461 0.220916
0.241029 0.223615 0.220916
0.254650 0.223783 0.220916
0.272900 0.223960 0.220916
0.295980 0.224143 0.220916
0.323849 0.224324 0.220916
0.356278 0.224498 0.220916
0.392911 0.224653 0.220916
0.433326 0.224780 0.220916
0.477060 0.224866 0.220916
0.523624 0.224899 0.220916
0.572498 0.224863 0.220916
0.623111 0.224746 0.220916
0.674822 0.224538 0.220916
0.726884 0.224229 0.220916
0.781304 0.224177 0.220916
0.834706 0.224176 0.220916
0.884047 0.224048 0.220916
0.927197 0.223782 0.220916
0.961323 0.223377 0.220916
0.982490 0.222850 0.220916
0.986695 0.222242 0.220916
0.986695 0.221627 0.220916
0.986695 0.221146 0.220916
0.986695 0.220980 0.220916
0.220916 0.229806 0.220916
0.220916 0.229873 0.220916
0.220916 0.229945 0.220916
0.220916 0.230046 0.220916
0.220916 0.230177 0.220916
0.221179 0.230340 0.220916
0.222703 0.230533 0.220916
0.226227 0.230755 0.220916
0.232540 0.231004 0.220916
0.242420 0.231275 0.220916
0.256520 0.231563 0.220916
0.275280 0.231860 0.220916
0.298880 0.232159 0.220916
0.327260 0.232448 0.220916
0.360174 0.232713 0.220916
0.397261 0.232940 0.220916
0.438090 0.233112 0.220916
0.482194 0.233209 0.220916
0.529079 0.233210 0.220916
0.578216 0.233094 0.220916
0.629026 0.232838 0.220916
0.680854 0.232420 0.220916
0.737061 0.232681 0.220916
0.792157 0.232808 0.220916
0.844605 0.232732 0.220916
0.892697 0.232420 0.220916
0.934214 0.231847 0.220916
0.966187 0.230994 0.220916
0.984466 0.229857 0.220916
0.986695 0.228454 0.220916
0.986695 0.226834 0.220916
0.986695 0.225816 0.220916
0.986695 0.224888 0.220916
0.220916 0.243069 0.220916
0.220916 0.243162 0.220916
0.220916 0.243261 0.220916
0.220916 0.243400 0.220916
0.220916 0.243580 0.220916
0.221268 0.243801 0.220916
0.222953 0.244062 0.220916
0.226704 0.244359 0.220916
0.233319 0.244689 0.220916
0.243576 0.245044 0.220916
0.258119 0.245417 0.220916
0.277369 0.245796 0.220916
0.301486 0.246169 0.220916
0.330389 0.246519 0.220916
0.363818 0.246830 0.220916
0.401396 0.247081 0.220916
0.442685 0.247248 0.220916
0.487210 0.247306 0.220916
0.534468 0.247226 0.220916
0.583921 0.246979 0.220916
0.637223 0.247109 0.220916
0.693402 0.247626 0.220916
0.749219 0.247940 0.220916
0.803531 0.248008 0.220916
0.854932 0.247783 0.220916
0.901643 0.247220 0.220916
0.941343 0.246278 0.220916
0.970903 0.244921 0.220916
0.985916 0.243122 0.220916
0.986695 0.240874 0.220916
0.986695 0.239145 0.220916
0.986695 0.237488 0.220916
0.986695 0.235834 0.220916
0.220916 0.263267 0.220916
0.220916 0.263376 0.220916
0.220916 0.263492 0.220916
0.220916 0.263653 0.220916
0.220916 0.263861 0.220916
0.221298 0.264116 0.220916
0.223058 0.264416 0.220916
0.226945 0.264755 0.220916
0.233774 0.265128 0.220916
0.244327 0.265526 0.220916
0.259249 0.265937 0.220916
0.278948 0.266348 0.220916
0.303565 0.266743 0.220916
0.332997 0.267103 0.220916
0.366963 0.267405 0.220916
0.405073 0.267625 0.220916
0.446873 0.267735 0.220916
0.491877 0.267702 0.220916
0.541357 0.268006 0.220916
0.595430 0.268888 0.220916
0.650778 0.269605 0.220916
0.706551 0.270111 0.220916
0.761763 0.270355 0.220916
0.815235 0.270286 0.220916
0.865503 0.269847 0.220916
0.910707 0.268983 0.220916
0.948407 0.267639 0.220916
0.975290 0.265761 0.220916
0.986637 0.263322 0.220916
0.986695 0.261203 0.220916
0.986695 0.259030 0.220916
0.986695 0.256808 0.220916
0.986695 0.254545 0.220916
0.220916 0.290443 0.220916
0.220916 0.290556 0.220916
0.220916 0.290677 0.220916
0.220916 0.290845 0.220916
0.220916 0.291061 0.220916
0.221237 0.291324 0.220916
0.222949 0.291632 0.220916
0.226840 0.291978 0.220916
0.233750 0.292354 0.220916
0.244482 0.292750 0.220916
0.259686 0.293154 0.220916
0.279768 0.293549 0.220916
0.304848 0.293915 0.220916
0.334804 0.294233 0.220916
0.369329 0.294475 0.220916
0.408012 0.294615 0.220916
0.453729 0.295649 0.220916
0.503272 0.296774 0.220916
0.555407 0.297787 0.220916
0.609418 0.298645 0.220916
0.664536 0.299302 0.220916
0.719894 0.299706 0.220916
0.774479 0.299803 0.220916
0.827064 0.299533 0.220916
0.876124 0.298834 0.220916
0.919704 0.297642 0.220916
0.955229 0.295890 0.220916
0.978153 0.293605 0.220916
0.986580 0.291227 0.220916
0.986695 0.288761 0.220916
0.986695 0.286210 0.220916
0.986695 0.283577 0.220916
0.986695 0.280867 0.220916
0.220916 0.324144 0.220916
0.220916 0.324253 0.220916
0.220916 0.324369 0.220916
0.220916 0.324528 0.220916
0.220916 0.324734 0.220916
0.221088 0.324983 0.220916
0.222581 0.325272 0.220916
0.226293 0.325594 0.220916
0.233098 0.325940 0.220916
0.243837 0.326298 0.220916
0.259183 0.326654 0.220916
0.279545 0.326991 0.220916
0.305642 0.327504 0.220916
0.339098 0.328733 0.220916
0.377616 0.329967 0.220916
0.420567 0.331177 0.220916
0.467289 0.332330 0.220916
0.517115 0.333390 0.220916
0.569368 0.334316 0.220916
0.623336 0.335062 0.220916
0.678239 0.335579 0.220916
0.733189 0.335812 0.220916
0.787136 0.335704 0.220916
0.838805 0.335191 0.220916
0.886596 0.334207 0.220916
0.928450 0.332681 0.220916
0.957633 0.330385 0.220916
0.977547 0.327918 0.220916
0.986496 0.325343 0.220916
0.986695 0.322662 0.220916
0.986695 0.319875 0.220916
0.986695 0.316983 0.220916
0.986695 0.313988 0.220916
0.220916 0.363645 0.220916
0.220916 0.363742 0.220916
0.220916 0.363845 0.220916
0.220916 0.363987 0.220916
0.220916 0.364168 0.220916
0.220935 0.364385 0.220916
0.222013 0.364713 0.220916
0.225762 0.365486 0.220916
0.233250 0.366356 0.220916
0.245468 0.367313 0.220916
0.263132 0.368346 0.220916
0.286570 0.369439 0.220916
0.315727 0.370572 0.220916
0.350250 0.371723 0.220916
0.389612 0.372866 0.220916
0.433206 0.373970 0.220916
0.480394 0.375003 0.220916
0.530526 0.375925 0.220916
0.582931 0.376695 0.220916
0.636890 0.377267 0.220916
0.691611 0.377589 0.220916
0.746177 0.377606 0.220916
0.799498 0.377257 0.220916
0.850241 0.376479 0.220916
0.892567 0.374636 0.220916
0.927722 0.372317 0.220916
0.956468 0.369882 0.220916
0.976865 0.367330 0.220916
0.986380 0.364660 0.220916
0.986695 0.361872 0.220916
0.986695 0.358966 0.220916
0.986695 0.355941 0.220916
0.986695 0.352797 0.220916
0.220916 0.411169 0.220916
0.220916 0.411386 0.220916
0.220916 0.411618 0.220916
0.220916 0.411942 0.220916
0.220916 0.412365 0.220916
0.221243 0.412887 0.220916
0.223370 0.413506 0.220916
0.228354 0.414220 0.220916
0.237233 0.415021 0.220916
0.250912 0.415898 0.220916
0.270011 0.416839 0.220916
0.294774 0.417827 0.220916
0.325091 0.418843 0.220916
0.360593 0.419865 0.220916
0.400759 0.420864 0.220916
0.444993 0.421812 0.220916
0.492672 0.422674 0.220916
0.543152 0.423412 0.220916
0.595761 0.423983 0.220916
0.649769 0.424341 0.220916
0.704363 0.424436 0.220916
0.758593 0.424211 0.220916
0.806112 0.422490 0.220916
0.850048 0.420397 0.220916
0.890426 0.418188 0.220916
0.925984 0.415861 0.220916
0.955184 0.413415 0.220916
0.976100 0.410848 0.220916
0.986224 0.408158 0.220916
0.986695 0.405346 0.220916
0.986695 0.402408 0.220916
0.986695 0.399345 0.220916
0.986695 0.396154 0.220916
0.220916 0.464556 0.220916
0.220916 0.464750 0.220916
0.220916 0.464959 0.220916
0.220916 0.465248 0.220916
0.220933 0.465626 0.220916
0.221845 0.466091 0.220916
0.224796 0.466643 0.220916
0.230777 0.467275 0.220916
0.240789 0.467981 0.220916
0.255675 0.468751 0.220916
0.275981 0.469571 0.220916
0.301887 0.470425 0.220916
0.333242 0.471293 0.220916
0.369657 0.472153 0.220916
0.410607 0.472979 0.220916
0.455501 0.473739 0.220916
0.503719 0.474402 0.220916
0.554613 0.474928 0.220916
0.607503 0.475277 0.220916
0.658936 0.474516 0.220916
0.707980 0.472795 0.220916
0.756282 0.470964 0.220916
0.803035 0.469021 0.220916
0.847326 0.466963 0.220916
0.888095 0.464790 0.220916
0.924086 0.462499 0.220916
0.953773 0.460089 0.220916
0.975245 0.457558 0.220916
0.986021 0.454903 0.220916
0.986695 0.452124 0.220916
0.986695 0.449219 0.220916
0.986695 0.446185 0.220916
0.986695 0.443023 0.220916
0.220916 0.521308 0.220916
0.220916 0.521476 0.220916
0.220916 0.521656 0.220916
0.220916 0.521906 0.220916
0.221044 0.522231 0.220916
0.222370 0.522630 0.220916
0.225874 0.523102 0.220916
0.232554 0.523641 0.220916
0.243396 0.524239 0.220916
0.259208 0.524886 0.220916
0.280487 0.525569 0.220916
0.307363 0.526272 0.220916
0.339648 0.526976 0.220916
0.376930 0.527658 0.220916
0.418671 0.528293 0.220916
0.464032 0.528720 0.220916
0.509397 0.527462 0.220916
0.556704 0.526106 0.220916
0.605336 0.524648 0.220916
0.654654 0.523087 0.220916
0.703987 0.521420 0.220916
0.752606 0.519646 0.220916
0.799707 0.517763 0.220916
0.844377 0.515768 0.220916
0.885564 0.513660 0.220916
0.922019 0.511436 0.220916
0.952226 0.509096 0.220916
0.974293 0.506637 0.220916
0.985764 0.504056 0.220916
0.986695 0.501353 0.220916
0.986695 0.498525 0.220916
0.986695 0.495570 0.220916
0.986695 0.492487 0.220916
0.220916 0.580444 0.220916
0.220916 0.580584 0.220916
0.220916 0.580734 0.220916
0.220916 0.580941 0.220916
0.221073 0.581210 0.220916
0.222509 0.581539 0.220916
0.226219 0.581926 0.220916
0.233229 0.582365 0.220916
0.244541 0.582849 0.220916
0.260960 0.583367 0.220916
0.282449 0.583161 0.220916
0.308885 0.582401 0.220916
0.340236 0.581557 0.220916
0.376025 0.580627 0.220916
0.415675 0.579608 0.220916
0.458568 0.578498 0.220916
0.504078 0.577295 0.220916
0.551583 0.575996 0.220916
0.600454 0.574601 0.220916
0.650048 0.573106 0.220916
0.699688 0.571510 0.220916
0.748646 0.569811 0.220916
0.796117 0.568006 0.220916
0.841193 0.566094 0.220916
0.882825 0.564073 0.220916
0.919774 0.561941 0.220916
0.950536 0.559695 0.220916
0.973234 0.557334 0.220916
0.985444 0.554856 0.220916
0.986695 0.552259 0.220916
0.986695 0.549541 0.220916
0.986695 0.546700 0.220916
0.986695 0.543733 0.220916
0.220916 0.636850 0.220916
0.220916 0.636735 0.220916
0.220916 0.636611 0.220916
0.220916 0.636435 0.220916
0.220929 0.636202 0.220916
0.221870 0.635909 0.220916
0.224962 0.635552 0.220916
0.231213 0.635128 0.220916
0.241593 0.634634 0.220916
0.256872 0.634068 0.220916
0.277473 0.633426 0.220916
0.303441 0.632707 0.220916
0.334493 0.631908 0.220916
0.370135 0.631028 0.220916
0.409761 0.630063 0.220916
0.452727 0.629012 0.220916
0.498386 0.627873 0.220916
0.546097 0.626643 0.220916
0.595221 0.625321 0.220916
0.645107 0.623905 0.220916
0.695074 0.622392 0.220916
0.744392 0.620781 0.220916
0.792257 0.619070 0.220916
0.837764 0.617257 0.220916
0.879870 0.615340 0.220916
0.917343 0.613316 0.220916
0.948692 0.611185 0.220916
0.972061 0.608943 0.220916
0.985052 0.606589 0.220916
0.986695 0.604122 0.220916
0.986695 0.601538 0.220916
0.986695 0.598836 0.220916
0.986695 0.596014 0.220916
0.220916 0.686934 0.220916
0.220916 0.686827 0.220916
0.220916 0.686710 0.220916
0.220916 0.686546 0.220916
0.220916 0.686328 0.220916
0.221197 0.686054 0.220916
0.223392 0.685719 0.220916
0.228667 0.685322 0.220916
0.238071 0.684860 0.220916
0.252457 0.684330 0.220916
0.272319 0.683729 0.220916
0.297737 0.683056 0.220916
0.328433 0.682308 0.220916
0.363889 0.681483 0.220916
0.403471 0.680579 0.220916
0.446502 0.679595 0.220916
0.492311 0.678527 0.220916
0.540237 0.677375 0.220916
0.589627 0.676136 0.220916
0.639821 0.674808 0.220916
0.690134 0.673390 0.220916
0.739833 0.671879 0.220916
0.788116 0.670274 0.220916
0.834080 0.668572 0.220916
0.876688 0.666773 0.220916
0.914715 0.664873 0.220916
0.946687 0.662872 0.220916
0.970763 0.660766 0.220916
0.984578 0.658555 0.220916
0.986695 0.656235 0.220916
0.986695 0.653806 0.220916
0.986695 0.651264 0.220916
0.986695 0.648609 0.220916
0.220916 0.736337 0.220916
0.220916 0.736237 0.220916
0.220916 0.736129 0.220916
0.220916 0.735977 0.220916
0.220916 0.735776 0.220916
0.220919 0.735522 0.220916
0.222137 0.735213 0.220916
0.226336 0.734846 0.220916
0.234645 0.734418 0.220916
0.248014 0.733928 0.220916
0.267021 0.733372 0.220916
0.291795 0.732749 0.220916
0.322064 0.732057 0.220916
0.357290 0.731294 0.220916
0.396801 0.730458 0.220916
0.439887 0.729546 0.220916
0.485845 0.728558 0.220916
0.533992 0.727491 0.220916
0.583661 0.726343 0.220916
0.634180 0.725113 0.220916
0.684858 0.723799 0.220916
0.734960 0.722399 0.220916
0.783684 0.720911 0.220916
0.830131 0.719334 0.220916
0.873268 0.717665 0.220916
0.911882 0.715902 0.220916
0.944509 0.714044 0.220916
0.969331 0.712090 0.220916
0.984013 0.710036 0.220916
0.986695 0.707881 0.220916
0.986695 0.705623 0.220916
0.986695 0.703260 0.220916
0.986695 0.700790 0.220916
0.220916 0.784301 0.220916
0.220916 0.784210 0.220916
0.220916 0.784112 0.220916
0.220916 0.783973 0.220916
0.220916 0.783790 0.220916
0.220916 0.783559 0.220916
0.221283 0.783277 0.220916
0.224302 0.782943 0.220916
0.231389 0.782553 0.220916
0.243602 0.782106 0.220916
0.261623 0.781600 0.220916
0.285641 0.781032 0.220916
0.315401 0.780401 0.220916
0.350341 0.779705 0.220916
0.389749 0.778942 0.220916
0.432875 0.778111 0.220916
0.478979 0.777209 0.220916
0.527354 0.776235 0.220916
0.577312 0.775188 0.220916
0.628171 0.774065 0.220916
0.679234 0.772864 0.220916
0.729761 0.771585 0.220916
0.778950 0.770225 0.220916
0.825906 0.768783 0.220916
0.869602 0.767257 0.220916
0.908832 0.765644 0.220916
0.942148 0.763944 0.220916
0.967754 0.762155 0.220916
0.983344 0.760274 0.220916
0.986695 0.758299 0.220916
0.986695 0.756229 0.220916
0.986695 0.754062 0.220916
0.986695 0.751717 0.220916
0.220916 0.829983 0.220916
0.220916 0.829902 0.220916
0.220916 0.829814 0.220916
0.220916 0.829690 0.220916
0.220916 0.829527 0.220916
0.220916 0.829320 0.220916
0.220922 0.829068 0.220916
0.222657 0.828769 0.220916
0.228388 0.828421 0.220916
0.239294 0.828022 0.220916
0.256178 0.827569 0.220916
0.279312 0.827061 0.220916
0.308464 0.826497 0.220916
0.343051 0.825874 0.220916
0.382316 0.825191 0.220916
0.425460 0.824447 0.220916
0.471705 0.823640 0.220916
0.520311 0.822768 0.220916
0.570570 0.821829 0.220916
0.621785 0.820823 0.220916
0.673251 0.819747 0.220916
0.724224 0.818599 0.220916
0.773903 0.817379 0.220916
0.821394 0.816085 0.220916
0.865676 0.814714 0.220916
0.905555 0.813265 0.220916
0.939594 0.811737 0.220916
0.966020 0.810127 0.220916
0.982560 0.808434 0.220916
0.986695 0.806628 0.220916
0.986695 0.804693 0.220916
0.986695 0.802667 0.220916
0.986695 0.800545 0.220916
0.220916 0.872418 0.220916
0.220916 0.872347 0.220916
0.220916 0.872271 0.220916
0.220916 0.872163 0.220916
0.220916 0.872021 0.220916
0.220916 0.871841 0.220916
0.220916 0.871622 0.220916
0.221503 0.871362 0.220916
0.225740 0.871059 0.220916
0.235174 0.870711 0.220916
0.250751 0.870317 0.220916
0.272850 0.869875 0.220916
0.301278 0.869384 0.220916
0.335430 0.868841 0.220916
0.374502 0.868247 0.220916
0.417639 0.867598 0.220916
0.464014 0.866894 0.220916
0.512854 0.866133 0.220916
0.563423 0.865313 0.220916
0.615009 0.864434 0.220916
0.666897 0.863494 0.220916
0.718339 0.862491 0.220916
0.768531 0.861423 0.220916
0.816584 0.860290 0.220916
0.861481 0.859089 0.220916
0.902038 0.857819 0.220916
0.935853 0.856458 0.220916
0.961627 0.854992 0.220916
0.979345 0.853449 0.220916
0.986649 0.851827 0.220916
0.986695 0.850124 0.220916
0.986695 0.848338 0.220916
0.986695 0.846467 0.220916
0.220916 0.910475 0.220916
0.220916 0.910416 0.220916
0.220916 0.910352 0.220916
0.220916 0.910263 0.220916
0.220916 0.910144 0.220916
0.220916 0.909994 0.220916
0.220916 0.909811 0.220916
0.220949 0.909594 0.220916
0.223554 0.909341 0.220916
0.231341 0.909050 0.220916
0.245422 0.908721 0.220916
0.266312 0.908351 0.220916
0.293875 0.907940 0.220916
0.327495 0.907486 0.220916
0.366312 0.906987 0.220916
0.409408 0.906443 0.220916
0.455901 0.905853 0.220916
0.504973 0.905214 0.220916
0.555861 0.904526 0.220916
