studio/assets/luts/creatives.cube
TITLE "Creatives — Energy"
# Magenta midtones, coral highlights. Expressive, energetic mood.
# Generated by Like One Studio — cinema-grade pipeline
# Color science: lift/gamma/gain + filmic S-curve + zone tinting
LUT_3D_SIZE 5
# Domain: standard 0-1 range
DOMAIN_MIN 0.0 0.0 0.0
DOMAIN_MAX 1.0 1.0 1.0
0.220916 0.220916 0.220916
0.225460 0.220916 0.220916
0.405335 0.220916 0.220916
0.797795 0.220916 0.220916
0.986695 0.220916 0.220916
0.220916 0.220916 0.220916
0.230534 0.220945 0.220916
0.428595 0.221259 0.220916
0.825402 0.221024 0.220916
0.986695 0.220916 0.220916
0.220916 0.411169 0.220916
0.237233 0.415021 0.220916
0.492672 0.422674 0.220916
0.890426 0.418188 0.220916
0.986695 0.396154 0.220916
0.220916 0.829983 0.220916
0.228388 0.828421 0.220916
0.471705 0.823640 0.220916
0.865676 0.814714 0.220916
0.986695 0.800545 0.220916
0.220916 0.986695 0.220916
0.220916 0.986695 0.220916
0.438129 0.986695 0.220916
0.867648 0.986695 0.220916
0.986695 0.986695 0.226028
0.220916 0.220916 0.220916
0.225996 0.220916 0.220916
0.408024 0.220916 0.221467
0.800613 0.220916 0.221968
0.986695 0.220916 0.221127
0.220916 0.220917 0.221289
0.230964 0.220973 0.221555
0.430525 0.221282 0.222095
0.829147 0.221021 0.221491
0.986695 0.220916 0.220916
0.220916 0.412551 0.221534
0.237955 0.416179 0.221545
0.494871 0.423154 0.221196
0.890000 0.417301 0.220916
0.986695 0.395266 0.220916
0.220916 0.829453 0.220916
0.228061 0.827889 0.220916
0.470834 0.823101 0.220916
0.865204 0.814162 0.220916
0.986695 0.799953 0.220916
0.220916 0.986695 0.220916
0.220916 0.986695 0.220916
0.442055 0.986695 0.220916
0.869303 0.986695 0.220916
0.986695 0.986695 0.278192
0.220916 0.220916 0.349504
0.227630 0.220916 0.358270
0.415717 0.220916 0.381098
0.808757 0.220916 0.407453
0.986695 0.220916 0.437540
0.220916 0.220976 0.376556
0.232113 0.221086 0.383223
0.435913 0.221315 0.399466
0.840002 0.220991 0.421471
0.986695 0.220916 0.434221
0.220916 0.416279 0.424312
0.239962 0.419227 0.428420
0.501078 0.424145 0.436856
0.888700 0.414608 0.429577
0.986695 0.392571 0.407573
0.220916 0.827841 0.405771
0.227110 0.826270 0.403155
0.468191 0.821460 0.395216
0.863766 0.812483 0.380680
0.986695 0.798149 0.330294
0.220916 0.986695 0.330687
0.220916 0.986695 0.338699
0.454158 0.986695 0.365309
0.874379 0.986695 0.422353
0.986695 0.986695 0.524968
0.220916 0.220916 0.706439
0.230397 0.220916 0.718826
0.427983 0.220916 0.752049
0.824228 0.220916 0.798991
0.986695 0.220916 0.855099
0.220916 0.221187 0.745250
0.233493 0.221275 0.755281
0.443966 0.221220 0.781880
0.858013 0.220919 0.826927
0.986695 0.220916 0.850208
0.220916 0.421295 0.831320
0.242788 0.422999 0.838072
0.510654 0.424151 0.855534
0.886297 0.409669 0.847582
0.986695 0.387632 0.834881
0.220916 0.824868 0.833820
0.225533 0.823284 0.832275
0.463337 0.818435 0.827546
0.861110 0.809386 0.818713
0.986695 0.794824 0.779086
0.220916 0.986695 0.786804
0.221750 0.986695 0.789944
0.477019 0.986695 0.800583
0.883852 0.986695 0.823997
0.986695 0.986695 0.866801
0.220916 0.220916 0.986297
0.233225 0.220916 0.986695
0.442053 0.220916 0.986695
0.853449 0.220916 0.986695
0.986695 0.220916 0.986695
0.220916 0.221301 0.986695
0.233532 0.221236 0.986695
0.460107 0.221016 0.986695
0.881054 0.220916 0.986695
0.986695 0.220916 0.986695
0.220916 0.424423 0.986695
0.244555 0.424248 0.986695
0.503658 0.416729 0.986695
0.882608 0.402185 0.986695
0.986695 0.380159 0.986695
0.220916 0.820317 0.986695
0.223568 0.818714 0.986695
0.455963 0.813806 0.986695
0.850341 0.804546 0.986695
0.986695 0.794405 0.986695
0.220916 0.986695 0.986695
0.234854 0.986695 0.986695
0.513131 0.986695 0.986695
0.898479 0.986695 0.986695
0.986695 0.986695 0.986695
