studio/assets/luts/creatives.cube
TITLE "Creatives — Energy"
# Magenta midtones, coral highlights. Expressive, energetic mood.
# Generated by Like One Studio — cinema-grade pipeline
# Color science: lift/gamma/gain + filmic S-curve + zone tinting
LUT_3D_SIZE 9
# Domain: standard 0-1 range
DOMAIN_MIN 0.0 0.0 0.0
DOMAIN_MAX 1.0 1.0 1.0
0.220916 0.220916 0.220916
0.220916 0.220916 0.220916
0.225460 0.220916 0.220916
0.277607 0.220916 0.220916
0.405335 0.220916 0.220916
0.590521 0.220916 0.220916
0.797795 0.220916 0.220916
0.965482 0.220916 0.220916
0.986695 0.220916 0.220916
0.220916 0.220916 0.220916
0.220916 0.220916 0.220916
0.227022 0.220916 0.220916
0.282659 0.220916 0.220916
0.412920 0.220916 0.220916
0.599149 0.220916 0.220916
0.805780 0.220916 0.220916
0.970764 0.220916 0.220916
0.986695 0.220916 0.220916
0.220916 0.220916 0.220916
0.220916 0.220916 0.220916
0.230534 0.220945 0.220916
0.292980 0.221069 0.220916
0.428595 0.221259 0.220916
0.617403 0.221284 0.220916
0.825402 0.221024 0.220916
0.980178 0.220916 0.220916
0.986695 0.220916 0.220916
0.220916 0.263267 0.220916
0.220916 0.263861 0.220916
0.233774 0.265128 0.220916
0.303565 0.266743 0.220916
0.446873 0.267735 0.220916
0.650778 0.269605 0.220916
0.865503 0.269847 0.220916
0.986637 0.263322 0.220916
0.986695 0.254545 0.220916
0.220916 0.411169 0.220916
0.220916 0.412365 0.220916
0.237233 0.415021 0.220916
0.325091 0.418843 0.220916
0.492672 0.422674 0.220916
0.704363 0.424436 0.220916
0.890426 0.418188 0.220916
0.986224 0.408158 0.220916
0.986695 0.396154 0.220916
0.220916 0.636850 0.220916
0.220929 0.636202 0.220916
0.241593 0.634634 0.220916
0.334493 0.631908 0.220916
0.498386 0.627873 0.220916
0.695074 0.622392 0.220916
0.879870 0.615340 0.220916
0.985052 0.606589 0.220916
0.986695 0.596014 0.220916
0.220916 0.829983 0.220916
0.220916 0.829527 0.220916
0.228388 0.828421 0.220916
0.308464 0.826497 0.220916
0.471705 0.823640 0.220916
0.673251 0.819747 0.220916
0.865676 0.814714 0.220916
0.982560 0.808434 0.220916
0.986695 0.800545 0.220916
0.220916 0.967714 0.220916
0.220916 0.967539 0.220916
0.221057 0.967112 0.220916
0.272128 0.966337 0.220916
0.417543 0.965164 0.220916
0.612614 0.963531 0.220916
0.810773 0.961364 0.220916
0.971190 0.962993 0.220916
0.986695 0.964902 0.220916
0.220916 0.986695 0.220916
0.220916 0.986695 0.220916
0.220916 0.986695 0.220916
0.262420 0.986695 0.220916
0.438129 0.986695 0.220916
0.662685 0.986695 0.220916
0.867648 0.986695 0.220916
0.983468 0.986695 0.220916
0.986695 0.986695 0.226028
0.220916 0.220916 0.220916
0.220916 0.220916 0.220916
0.225616 0.220916 0.220916
0.278136 0.220916 0.220916
0.406129 0.220916 0.220916
0.591421 0.220916 0.220916
0.798627 0.220916 0.220916
0.966054 0.220916 0.220916
0.986695 0.220916 0.220916
0.220916 0.220916 0.220916
0.220916 0.220916 0.220916
0.227179 0.220916 0.220916
0.283145 0.220916 0.220916
0.413650 0.220916 0.220916
0.599985 0.220916 0.220916
0.806555 0.220916 0.220916
0.971251 0.220916 0.220916
0.986695 0.220916 0.220916
0.220916 0.220916 0.220916
0.220916 0.220918 0.220916
0.230662 0.220953 0.220916
0.293348 0.221080 0.220916
0.429168 0.221267 0.220916
0.618087 0.221278 0.220916
0.826507 0.221023 0.220916
0.980474 0.220916 0.220916
0.986695 0.220916 0.220916
0.220916 0.263474 0.220916
0.220916 0.264054 0.220916
0.233791 0.265287 0.220916
0.303697 0.266841 0.220916
0.447175 0.267740 0.220916
0.651848 0.269692 0.220916
0.866333 0.269771 0.220916
0.986633 0.263125 0.220916
0.986695 0.254363 0.220916
0.220916 0.411582 0.220916
0.220916 0.412758 0.220916
0.237447 0.415367 0.220916
0.325582 0.419110 0.220916
0.493323 0.422822 0.220916
0.705049 0.424425 0.220916
0.890301 0.417929 0.220916
0.986214 0.407899 0.220916
0.986695 0.395895 0.220916
0.220916 0.636630 0.220916
0.220925 0.635982 0.220916
0.241442 0.634414 0.220916
0.334242 0.631687 0.220916
0.498135 0.627650 0.220916
0.694871 0.622168 0.220916
0.879739 0.615114 0.220916
0.985034 0.606362 0.220916
0.986695 0.595784 0.220916
0.220916 0.829828 0.220916
0.220916 0.829371 0.220916
0.228291 0.828266 0.220916
0.308224 0.826340 0.220916
0.471450 0.823482 0.220916
0.673041 0.819587 0.220916
0.865538 0.814552 0.220916
0.982532 0.808270 0.220916
0.986695 0.800372 0.220916
0.220916 0.967655 0.220916
0.220916 0.967479 0.220916
0.221043 0.967052 0.220916
0.271343 0.966273 0.220916
0.416568 0.965098 0.220916
0.611765 0.963463 0.220916
0.810896 0.961393 0.220916
0.971264 0.963035 0.220916
0.986695 0.964959 0.220916
0.220916 0.986695 0.220916
0.220916 0.986695 0.220916
0.220916 0.986695 0.220916
0.263352 0.986695 0.220916
0.439275 0.986695 0.220916
0.663544 0.986695 0.220916
0.868131 0.986695 0.220916
0.983541 0.986695 0.220916
0.986695 0.986695 0.236434
0.220916 0.220916 0.220916
0.220916 0.220916 0.220916
0.225996 0.220916 0.220916
0.279396 0.220916 0.221030
0.408024 0.220916 0.221467
0.593570 0.220916 0.222006
0.800613 0.220916 0.221968
0.967401 0.220916 0.221526
0.986695 0.220916 0.221127
0.220916 0.220916 0.220916
0.220916 0.220916 0.220920
0.227558 0.220916 0.220990
0.284301 0.220916 0.221249
0.415388 0.220916 0.221722
0.601978 0.220916 0.222098
0.808406 0.220916 0.221774
0.972392 0.220916 0.221548
0.986695 0.220916 0.220984
0.220916 0.220917 0.221289
0.220916 0.220924 0.221366
0.230964 0.220973 0.221555
0.294215 0.221109 0.221851
0.430525 0.221282 0.222095
0.619716 0.221261 0.221927
0.829147 0.221021 0.221491
0.981158 0.220916 0.221328
0.986695 0.220916 0.220916
0.220916 0.263953 0.222099
0.220916 0.264499 0.222108
0.233820 0.265650 0.222092
0.303993 0.267057 0.221949
0.447878 0.267733 0.221537
0.654406 0.269879 0.221547
0.868314 0.269566 0.221282
0.986624 0.262649 0.220916
0.986695 0.253924 0.220916
0.220916 0.412551 0.221534
0.220916 0.413681 0.221545
0.237955 0.416179 0.221545
0.326743 0.419727 0.221461
0.494871 0.423154 0.221196
0.706683 0.424371 0.220916
0.890000 0.417301 0.220916
0.986189 0.407270 0.220916
0.986695 0.395266 0.220916
0.220916 0.636098 0.220916
0.220919 0.635450 0.220916
0.241079 0.633880 0.220916
0.333635 0.631152 0.220916
0.497530 0.627113 0.220916
0.694379 0.621627 0.220916
0.879423 0.614568 0.220916
0.984989 0.605811 0.220916
0.986695 0.595227 0.220916
0.220916 0.829453 0.220916
0.220916 0.828996 0.220916
0.228061 0.827889 0.220916
0.307643 0.825962 0.220916
0.470834 0.823101 0.220916
0.672533 0.819202 0.220916
0.865204 0.814162 0.220916
0.982462 0.807874 0.220916
0.986695 0.799953 0.220916
0.220916 0.967511 0.220916
0.220916 0.967335 0.220916
0.220958 0.966901 0.220916
0.269460 0.966119 0.220916
0.414211 0.964940 0.220916
0.609708 0.963299 0.220916
0.811435 0.961498 0.220916
0.971442 0.963136 0.220916
0.986695 0.965099 0.220916
0.220916 0.986695 0.220916
0.220916 0.986695 0.220916
0.220916 0.986695 0.220916
0.265641 0.986695 0.220916
0.442055 0.986695 0.220916
0.665628 0.986695 0.220916
0.869303 0.986695 0.220916
0.983717 0.986695 0.232220
0.986695 0.986695 0.278192
0.220916 0.220916 0.246360
0.220916 0.220916 0.247617
0.226659 0.220916 0.250592
0.281524 0.220916 0.255468
0.411217 0.220916 0.261762
0.597205 0.220916 0.268092
0.803977 0.220916 0.271921
0.969614 0.220916 0.275591
0.986695 0.220916 0.278006
0.220916 0.220916 0.250528
0.220916 0.220916 0.251729
0.228206 0.220916 0.254540
0.286242 0.220916 0.259045
0.418309 0.220916 0.264640
0.605343 0.220916 0.269840
0.811538 0.220916 0.272071
0.974255 0.220916 0.277072
0.986695 0.220916 0.277026
0.220916 0.220930 0.259570
0.220916 0.220949 0.260549
0.231458 0.221015 0.262772
0.295643 0.221157 0.266112
0.432787 0.221303 0.269743
0.622454 0.221225 0.272006
0.833624 0.221012 0.274697
0.982243 0.220916 0.278488
0.986695 0.220916 0.272595
0.220916 0.264718 0.269882
0.220916 0.265207 0.270303
0.233828 0.266213 0.271138
0.304425 0.267362 0.271966
0.449008 0.267650 0.271734
0.658747 0.270132 0.276456
0.871668 0.269140 0.278448
0.986607 0.261829 0.273579
0.986695 0.253169 0.264100
0.220916 0.414142 0.275831
0.220916 0.415191 0.276304
0.238801 0.417495 0.277258
0.328675 0.420707 0.278271
0.497464 0.423638 0.278261
0.709438 0.424187 0.275420
0.889475 0.416213 0.268864
0.986145 0.406181 0.261146
0.986695 0.394177 0.252541
0.220916 0.635175 0.271747
0.220916 0.634526 0.271132
0.240457 0.632955 0.269655
0.332583 0.630223 0.267127
0.496479 0.626180 0.263479
0.693525 0.620688 0.258714
0.878874 0.613622 0.252919
0.984909 0.604855 0.246292
0.986695 0.594260 0.239182
0.220916 0.828803 0.251314
0.220916 0.828345 0.250799
0.227669 0.827236 0.249566
0.306638 0.825305 0.247477
0.469767 0.822439 0.244508
0.671652 0.818533 0.240724
0.864624 0.813484 0.236295
0.982215 0.807176 0.231167
0.986695 0.799225 0.221323
0.220916 0.967260 0.232131
0.220916 0.967083 0.231791
0.220916 0.966637 0.229586
0.266249 0.965850 0.226066
0.410124 0.964664 0.222487
0.606131 0.963014 0.220916
0.812368 0.961678 0.220916
0.971700 0.963260 0.220916
0.986695 0.965352 0.224726
0.220916 0.986695 0.220951
0.220916 0.986695 0.221062
0.220916 0.986695 0.221652
0.269735 0.986695 0.223810
0.446913 0.986695 0.229775
0.669261 0.986695 0.243258
0.871345 0.986695 0.269165
0.984015 0.986695 0.312326
0.986695 0.986695 0.375861
0.220916 0.220916 0.349504
0.220916 0.220916 0.352131
0.227630 0.220916 0.358270
0.284520 0.220916 0.368193
0.415717 0.220916 0.381098
0.602356 0.220916 0.395170
0.808757 0.220916 0.407453
0.972605 0.220916 0.423687
0.986695 0.220916 0.437540
0.220916 0.220916 0.358139
0.220916 0.220916 0.360594
0.229131 0.220916 0.366310
0.288949 0.220916 0.375477
0.422406 0.220916 0.387239
0.610102 0.220916 0.399738
0.815983 0.220916 0.409998
0.976742 0.220916 0.427828
0.986695 0.220916 0.438711
0.220916 0.220976 0.376556
0.220916 0.221005 0.378574
0.232113 0.221086 0.383223
0.297574 0.221221 0.390512
0.435913 0.221315 0.399466
0.626299 0.221162 0.408143
0.840002 0.220991 0.421471
0.983614 0.220916 0.435197
0.986695 0.220916 0.434221
0.220916 0.265694 0.399858
0.220916 0.266094 0.401088
0.233741 0.266883 0.403827
0.304871 0.267649 0.407794
0.454123 0.268353 0.413828
0.664933 0.270340 0.426006
0.876429 0.268349 0.435837
0.986578 0.260628 0.435427
0.986695 0.252066 0.423470
0.220916 0.416279 0.424312
0.220919 0.417210 0.425583
0.239962 0.419227 0.428420
0.331333 0.421943 0.432558
0.501078 0.424145 0.436856
0.708938 0.422757 0.437698
0.888700 0.414608 0.429577
0.986077 0.404574 0.419567
0.986695 0.392571 0.407573
0.220916 0.633812 0.433175
0.220916 0.633162 0.432413
0.239553 0.631588 0.430571
0.331034 0.628852 0.427375
0.494928 0.624802 0.422657
0.692264 0.619302 0.416279
0.878062 0.612224 0.408123
0.984789 0.603444 0.398085
0.986695 0.592833 0.386087
0.220916 0.827841 0.405771
0.220916 0.827382 0.405005
0.227110 0.826270 0.403155
0.305161 0.824334 0.399947
0.468191 0.821460 0.395216
0.670352 0.817544 0.388830
0.863766 0.812483 0.380680
0.981496 0.806121 0.366543
0.986695 0.798149 0.330294
0.220916 0.966882 0.370759
0.220916 0.966696 0.368413
0.220916 0.966245 0.362755
0.261646 0.965451 0.352988
0.404094 0.964254 0.338718
0.600830 0.962590 0.319814
0.813740 0.961943 0.307408
0.972081 0.963448 0.315803
0.986695 0.965746 0.352178
0.220916 0.986695 0.330687
0.220916 0.986695 0.332992
0.220916 0.986695 0.338699
0.276052 0.986695 0.349041
0.454158 0.986695 0.365309
0.674666 0.986695 0.389112
0.874379 0.986695 0.422353
0.984433 0.986695 0.467048
0.986695 0.986695 0.524968
0.220916 0.220916 0.514351
0.220916 0.220916 0.517796
0.228902 0.220916 0.525865
0.288283 0.220916 0.539005
0.421395 0.220916 0.556458
0.608923 0.220916 0.576515
0.814879 0.220916 0.596532
0.976142 0.220916 0.624537
0.986695 0.220916 0.648867
0.220916 0.220916 0.525692
0.220916 0.220916 0.528929
0.230297 0.220916 0.536498
0.292300 0.220916 0.548786
0.427541 0.220916 0.565020
0.616148 0.220916 0.583496
0.823383 0.220916 0.602933
0.979623 0.220916 0.630813
0.986695 0.220916 0.650712
0.220916 0.221065 0.550249
0.220916 0.221100 0.552997
0.232843 0.221181 0.559396
0.299842 0.221285 0.569691
0.439739 0.221297 0.583071
0.631127 0.221065 0.597842
0.848202 0.220955 0.621312
0.985047 0.220916 0.643583
0.986695 0.220916 0.645519
0.220916 0.266716 0.583686
0.220916 0.266994 0.585636
0.233437 0.267485 0.590128
0.305111 0.267728 0.597174
0.462005 0.269373 0.610648
0.672889 0.270306 0.628005
0.882519 0.266981 0.644905
0.986533 0.259027 0.646533
0.986695 0.250600 0.636435
0.220916 0.418771 0.625461
0.220950 0.419542 0.627364
0.241350 0.421172 0.631747
0.334557 0.423220 0.638632
0.505568 0.424436 0.647174
0.707274 0.420592 0.648440
0.887648 0.412440 0.641604
0.985978 0.402405 0.633118
0.986695 0.390402 0.622854
0.220916 0.631968 0.644638
0.220916 0.631316 0.643996
0.238361 0.629739 0.642443
0.328948 0.626997 0.639743
0.492831 0.622938 0.635745
0.690557 0.617426 0.630315
0.876961 0.610334 0.623327
0.984621 0.601535 0.614655
0.986695 0.590903 0.604173
0.220916 0.826539 0.621303
0.220916 0.826078 0.620643
0.226391 0.824962 0.619046
0.303175 0.823019 0.616270
0.466062 0.820135 0.612161
0.668591 0.816205 0.606581
0.862602 0.811126 0.599404
0.980443 0.804691 0.582734
0.986695 0.796692 0.548966
0.220916 0.966354 0.586538
0.220916 0.966166 0.584424
0.220916 0.965709 0.579298
0.255701 0.964906 0.570349
0.395950 0.963695 0.557012
0.593624 0.962012 0.538744
0.815586 0.962298 0.533115
0.972625 0.963749 0.543895
0.986695 0.966317 0.572018
0.220916 0.986695 0.555507
0.220916 0.986695 0.557291
0.220916 0.986695 0.561694
0.285087 0.986695 0.569624
0.464091 0.986695 0.581989
0.682053 0.986695 0.599894
0.878514 0.986695 0.624633
0.984957 0.986695 0.657585
0.986695 0.986695 0.699965
0.220916 0.220916 0.706439
0.220916 0.220916 0.710141
0.230397 0.220916 0.718826
0.292586 0.220916 0.733020
0.427983 0.220916 0.752049
0.616674 0.220916 0.774387
0.824228 0.220916 0.798991
0.979857 0.220916 0.830338
0.986695 0.220916 0.855099
0.220916 0.220916 0.718640
0.220916 0.220916 0.722128
0.231597 0.220916 0.730306
0.296048 0.220916 0.743653
0.433436 0.220916 0.761502
0.623246 0.220916 0.782370
0.834928 0.220916 0.807859
0.982540 0.220916 0.837061
0.986695 0.220916 0.853676
0.220916 0.221187 0.745250
0.220916 0.221217 0.748253
0.233493 0.221275 0.755281
0.302161 0.221315 0.766706
0.443966 0.221220 0.781880
0.641160 0.221023 0.801245
0.858013 0.220919 0.826927
0.986213 0.220916 0.851300
0.986695 0.220916 0.850208
0.220916 0.267515 0.782589
0.220916 0.267634 0.784850
0.232751 0.267740 0.790114
0.308795 0.268467 0.800093
0.471388 0.270161 0.815802
0.682403 0.269739 0.834037
0.889759 0.264744 0.852842
0.986464 0.257015 0.850886
0.986695 0.248766 0.844101
0.220916 0.421295 0.831320
0.221013 0.421862 0.833350
0.242788 0.422999 0.838072
0.338053 0.424193 0.845660
0.510654 0.424151 0.855534
0.705141 0.417825 0.852161
0.886297 0.409669 0.847582
0.985842 0.399633 0.841859
0.986695 0.387632 0.834881
0.220916 0.629606 0.849618
0.220916 0.628952 0.849188
0.236887 0.627370 0.848146
0.326292 0.624621 0.846331
0.490147 0.620551 0.843635
0.688371 0.615024 0.839959
0.875547 0.607912 0.835203
0.984396 0.599091 0.829263
0.986695 0.588431 0.822025
0.220916 0.824868 0.833820
0.220916 0.824405 0.833369
0.225533 0.823284 0.832275
0.300653 0.821332 0.830372
0.463337 0.818435 0.827546
0.666336 0.814488 0.823694
0.861110 0.809386 0.818713
0.978964 0.802858 0.803373
0.986695 0.794824 0.779086
0.220916 0.965671 0.806073
0.220916 0.965480 0.804573
0.220916 0.965016 0.800927
0.248609 0.964200 0.794530
0.385551 0.962972 0.784923
0.585865 0.961411 0.772385
0.817931 0.962749 0.773858
0.973367 0.964209 0.781085
0.986695 0.967108 0.795299
0.220916 0.986695 0.786804
0.220916 0.986695 0.787704
0.221750 0.986695 0.789944
0.297417 0.986695 0.794046
0.477019 0.986695 0.800583
0.691627 0.986695 0.810281
0.883852 0.986695 0.823997
0.985547 0.986695 0.842615
0.986695 0.986695 0.866801
0.220916 0.220916 0.887043
0.220916 0.220916 0.890099
0.231939 0.220916 0.897202
0.297054 0.220916 0.908595
0.435062 0.220916 0.923396
0.625244 0.220916 0.939949
0.838241 0.220916 0.958139
0.983257 0.220916 0.974379
0.986695 0.220916 0.981014
0.220916 0.220916 0.897050
0.220916 0.220916 0.899877
0.232830 0.220916 0.906438
0.299799 0.220916 0.916937
0.439665 0.220916 0.930520
0.631032 0.220916 0.945609
0.848038 0.220916 0.963136
0.985022 0.220916 0.977257
0.986695 0.220916 0.980677
0.220916 0.221293 0.918174
0.220916 0.221305 0.920491
0.233827 0.221315 0.925850
0.304104 0.221263 0.934369
0.448152 0.221074 0.945266
0.655431 0.220988 0.959435
0.869107 0.220916 0.972824
0.986620 0.220916 0.981420
0.986695 0.220916 0.979826
0.220916 0.267707 0.945762
0.220916 0.267629 0.947337
0.233720 0.268573 0.951760
0.316864 0.269858 0.958775
0.481875 0.270325 0.967362
0.693134 0.268244 0.975994
0.892327 0.261889 0.981325
0.986364 0.254594 0.979996
0.986695 0.246572 0.978222
0.220916 0.423386 0.974815
0.221072 0.423703 0.975700
0.243991 0.424235 0.977667
0.341383 0.424379 0.980532
0.507568 0.420800 0.981153
0.702510 0.414420 0.980311
0.884625 0.406261 0.979152
0.985659 0.396224 0.977601
0.986695 0.384228 0.975566
0.220916 0.626692 0.979676
0.220916 0.626036 0.979567
0.235151 0.624449 0.979298
0.323040 0.621690 0.978822
0.486841 0.617606 0.978094
0.685672 0.612061 0.977062
0.873797 0.604926 0.975663
0.984104 0.596076 0.973820
0.986695 0.585383 0.971440
0.220916 0.822802 0.975243
0.220916 0.822337 0.975105
0.224574 0.821210 0.974768
0.297575 0.819247 0.974172
0.459982 0.816334 0.973268
0.663554 0.812365 0.972001
0.858793 0.807229 0.970165
0.976940 0.800592 0.962926
0.986695 0.792711 0.952869
0.220916 0.964816 0.963991
0.220916 0.964622 0.963402
0.220916 0.964149 0.961948
0.240767 0.963318 0.959332
0.372792 0.962068 0.955252
0.590038 0.961974 0.953150
0.821205 0.963251 0.953749
0.974345 0.964887 0.954785
0.986695 0.968172 0.957722
0.220916 0.986695 0.955850
0.220916 0.986695 0.956034
0.225756 0.986695 0.956509
0.313680 0.986695 0.957430
0.493258 0.986695 0.958999
0.703594 0.986695 0.961483
0.890483 0.986695 0.965166
0.986129 0.986695 0.970232
0.986695 0.986695 0.976510
0.220916 0.220916 0.986297
0.220916 0.220916 0.986532
0.233225 0.220916 0.986695
0.301143 0.220916 0.986695
0.442053 0.220916 0.986695
0.635333 0.220916 0.986695
0.853449 0.220916 0.986695
0.985750 0.220916 0.986695
0.986695 0.220916 0.986695
0.220916 0.220916 0.986695
0.220916 0.220916 0.986695
0.233678 0.220916 0.986695
0.302997 0.220916 0.986695
0.445644 0.220916 0.986695
0.646575 0.220916 0.986695
0.862237 0.220916 0.986695
0.986510 0.220916 0.986695
0.986695 0.220916 0.986695
0.220916 0.221301 0.986695
0.220916 0.221287 0.986695
0.233532 0.221236 0.986695
0.305091 0.221104 0.986695
0.460107 0.221016 0.986695
0.670971 0.220925 0.986695
0.881054 0.220916 0.986695
0.986545 0.220916 0.986695
0.986695 0.220916 0.986695
0.220916 0.269254 0.986695
0.220916 0.269547 0.986695
0.237313 0.270073 0.986695
0.325274 0.270363 0.986695
0.492914 0.269353 0.986695
0.704618 0.265339 0.986695
0.890380 0.258866 0.986695
0.986220 0.251778 0.986695
0.986695 0.244041 0.986695
0.220916 0.424423 0.986695
0.221069 0.424440 0.986695
0.244555 0.424248 0.986695
0.339810 0.421453 0.986695
0.503658 0.416729 0.986695
0.699348 0.410346 0.986695
0.882608 0.402185 0.986695
0.985417 0.392148 0.986695
0.986695 0.380159 0.986695
0.220916 0.623194 0.986695
0.220916 0.622535 0.986695
0.233189 0.620942 0.986695
0.319173 0.618172 0.986695
0.482879 0.614071 0.986695
0.682431 0.608504 0.986695
0.871689 0.601341 0.986695
0.983732 0.592458 0.986695
0.986695 0.581724 0.986695
0.220916 0.820317 0.986695
0.220916 0.819849 0.986695
0.223568 0.818714 0.986695
0.293931 0.816738 0.986695
0.455963 0.813806 0.986695
0.660212 0.809812 0.986695
0.850341 0.804546 0.986695
0.974229 0.797866 0.986695
0.986695 0.794405 0.986695
0.220916 0.963772 0.986695
0.220916 0.963574 0.986695
0.220916 0.963091 0.986695
0.232853 0.962243 0.986695
0.364864 0.961592 0.986695
0.595006 0.962639 0.986695
0.826900 0.963783 0.986695
0.975593 0.965853 0.986695
0.986695 0.969561 0.986695
0.220916 0.986695 0.986695
0.220916 0.986695 0.986695
0.234854 0.986695 0.986695
0.334532 0.986695 0.986695
0.513131 0.986695 0.986695
0.718154 0.986695 0.986695
0.898479 0.986695 0.986695
0.986573 0.986695 0.986695
0.986695 0.986695 0.986695
