studio/assets/luts/ethics-safety.cube
TITLE "Ethics & Safety — Trust"
# Forest green shadows with golden highlights. Gravitas and trustworthiness.
# Generated by Like One Studio — cinema-grade pipeline
# Color science: lift/gamma/gain + filmic S-curve + zone tinting
LUT_3D_SIZE 33
# Domain: standard 0-1 range
DOMAIN_MIN 0.0 0.0 0.0
DOMAIN_MAX 1.0 1.0 1.0
0.220916 0.220916 0.220916
0.220916 0.220916 0.220916
0.220916 0.220916 0.220916
0.220916 0.220916 0.220916
0.220916 0.220916 0.220916
0.220916 0.220916 0.220916
0.220916 0.220916 0.220916
0.220916 0.220916 0.220916
0.221448 0.220916 0.220916
0.224355 0.220916 0.220916
0.230540 0.220916 0.220916
0.240746 0.220916 0.220916
0.255514 0.220916 0.220916
0.275111 0.220916 0.220916
0.299522 0.220916 0.220916
0.328515 0.220928 0.220916
0.361716 0.220966 0.220916
0.398684 0.221030 0.220916
0.438952 0.221116 0.220916
0.482052 0.221220 0.220916
0.527512 0.221336 0.220916
0.574850 0.221454 0.220916
0.623554 0.221565 0.220916
0.673063 0.221658 0.220916
0.722738 0.221721 0.220916
0.771833 0.221743 0.220916
0.819450 0.221715 0.220916
0.864489 0.221633 0.220916
0.906026 0.221401 0.220916
0.941687 0.221159 0.220916
0.968990 0.220974 0.220916
0.984637 0.220916 0.220916
0.986695 0.220916 0.220916
0.220916 0.220916 0.220916
0.220916 0.220916 0.220916
0.220916 0.220916 0.220916
0.220916 0.220916 0.220916
0.220916 0.220916 0.220916
0.220916 0.220916 0.220916
0.220916 0.220916 0.220916
0.220916 0.220916 0.220916
0.221560 0.220916 0.220916
0.224635 0.220916 0.220916
0.231004 0.220916 0.220916
0.241401 0.220916 0.220916
0.256355 0.220919 0.220916
0.276121 0.220942 0.220916
0.300681 0.220989 0.220916
0.329797 0.221062 0.220916
0.363098 0.221161 0.220916
0.400144 0.221285 0.220916
0.440471 0.221428 0.220916
0.483612 0.221586 0.220916
0.529098 0.221750 0.220916
0.576446 0.221911 0.220916
0.625146 0.222057 0.220916
0.674633 0.222175 0.220916
0.724269 0.222253 0.220916
0.773302 0.222277 0.220916
0.820832 0.222237 0.220916
0.865794 0.222117 0.220916
0.907221 0.221791 0.220916
0.942645 0.221450 0.220916
0.969638 0.221142 0.220916
0.984874 0.220944 0.220916
0.986695 0.220916 0.220916
0.220916 0.220916 0.220916
0.220916 0.220916 0.220916
0.220916 0.220916 0.220916
0.220916 0.220916 0.220916
0.220916 0.220916 0.220916
0.220916 0.220916 0.220916
0.220916 0.220916 0.220916
0.220916 0.220916 0.220916
0.221690 0.220916 0.220916
0.224942 0.220920 0.220916
0.231505 0.220940 0.220916
0.242101 0.220977 0.220916
0.257250 0.221037 0.220916
0.277194 0.221122 0.220916
0.301909 0.221233 0.220916
0.331155 0.221370 0.220916
0.364560 0.221533 0.220916
0.401688 0.221718 0.220916
0.442077 0.221921 0.220916
0.485263 0.222135 0.220916
0.530776 0.222349 0.220916
0.578137 0.222553 0.220916
0.626831 0.222734 0.220916
0.676297 0.222877 0.220916
0.725890 0.222968 0.220916
0.774859 0.222993 0.220916
0.822296 0.222939 0.220916
0.867250 0.222745 0.220916
0.908482 0.222334 0.220916
0.943654 0.221886 0.220916
0.970316 0.221447 0.220916
0.985111 0.221090 0.220916
0.986695 0.220918 0.220916
0.220916 0.220921 0.220916
0.220916 0.220923 0.220916
0.220916 0.220927 0.220916
0.220916 0.220934 0.220916
0.220916 0.220945 0.220916
0.220916 0.220962 0.220916
0.220916 0.220988 0.220916
0.220916 0.221025 0.220916
0.221888 0.221077 0.220916
0.225382 0.221147 0.220916
0.232209 0.221238 0.220916
0.243079 0.221353 0.220916
0.258492 0.221494 0.220916
0.278679 0.221663 0.220916
0.303605 0.221860 0.220916
0.333029 0.222084 0.220916
0.366578 0.222333 0.220916
0.403818 0.222602 0.220916
0.444293 0.222884 0.220916
0.487539 0.223172 0.220916
0.533092 0.223452 0.220916
0.580468 0.223713 0.220916
0.629157 0.223939 0.220916
0.678593 0.224114 0.220916
0.728128 0.224221 0.220916
0.777006 0.224243 0.220916
0.824315 0.224166 0.220916
0.869256 0.223842 0.220916
0.910219 0.223310 0.220916
0.945038 0.222710 0.220916
0.971236 0.222085 0.220916
0.985413 0.221505 0.220916
0.986695 0.221070 0.220916
0.220916 0.221299 0.220916
0.220916 0.221323 0.220916
0.220916 0.221348 0.220916
0.220916 0.221385 0.220916
0.220916 0.221436 0.220916
0.220916 0.221502 0.220916
0.220916 0.221586 0.220916
0.220931 0.221690 0.220916
0.222172 0.221818 0.220916
0.225977 0.221972 0.220916
0.233142 0.222154 0.220916
0.244359 0.222366 0.220916
0.260110 0.222609 0.220916
0.280606 0.222884 0.220916
0.305801 0.223189 0.220916
0.335450 0.223522 0.220916
0.369183 0.223878 0.220916
0.406568 0.224250 0.220916
0.447154 0.224631 0.220916
0.490480 0.225008 0.220916
0.536083 0.225369 0.220916
0.583482 0.225697 0.220916
0.632165 0.225976 0.220916
0.681561 0.226186 0.220916
0.731023 0.226307 0.220916
0.779784 0.226321 0.220916
0.826924 0.226209 0.220916
0.871847 0.225667 0.220916
0.912456 0.224974 0.220916
0.946811 0.224173 0.220916
0.972399 0.223303 0.220916
0.985760 0.222427 0.220916
0.986695 0.221641 0.220916
0.220916 0.222637 0.220916
0.220916 0.222685 0.220916
0.220916 0.222737 0.220916
0.220916 0.222810 0.220916
0.220916 0.222907 0.220916
0.220916 0.223032 0.220916
0.220916 0.223185 0.220916
0.220997 0.223369 0.220916
0.222565 0.223587 0.220916
0.226744 0.223840 0.220916
0.234316 0.224130 0.220916
0.245952 0.224456 0.220916
0.262107 0.224819 0.220916
0.282973 0.225218 0.220916
0.308492 0.225649 0.220916
0.338414 0.226107 0.220916
0.372370 0.226586 0.220916
0.409932 0.227078 0.220916
0.450653 0.227569 0.220916
0.494078 0.228048 0.220916
0.539745 0.228498 0.220916
0.587174 0.228899 0.220916
0.635850 0.229233 0.220916
0.685201 0.229476 0.220916
0.734571 0.229607 0.220916
0.783188 0.229601 0.220916
0.830385 0.229277 0.220916
0.875018 0.228552 0.220916
0.915185 0.227655 0.220916
0.948959 0.226602 0.220916
0.973781 0.225424 0.220916
0.986116 0.224178 0.220916
0.986695 0.222952 0.220916
0.220916 0.225517 0.220916
0.220916 0.225592 0.220916
0.220916 0.225673 0.220916
0.220916 0.225787 0.220916
0.220916 0.225937 0.220916
0.220916 0.226127 0.220916
0.220916 0.226357 0.220916
0.221136 0.226631 0.220916
0.223083 0.226948 0.220916
0.227695 0.227311 0.220916
0.235737 0.227719 0.220916
0.247854 0.228172 0.220916
0.264473 0.228667 0.220916
0.285766 0.229201 0.220916
0.311659 0.229768 0.220916
0.341896 0.230362 0.220916
0.376111 0.230973 0.220916
0.413882 0.231590 0.220916
0.454764 0.232198 0.220916
0.498308 0.232782 0.220916
0.544053 0.233321 0.220916
0.591519 0.233795 0.220916
0.640190 0.234179 0.220916
0.689488 0.234448 0.220916
0.738752 0.234575 0.220916
0.787211 0.234527 0.220916
0.834518 0.233825 0.220916
0.878748 0.232904 0.220916
0.918381 0.231762 0.220916
0.951453 0.230404 0.220916
0.975345 0.228857 0.220916
0.986431 0.227167 0.220916
0.986695 0.225412 0.220916
0.220916 0.230618 0.220916
0.220916 0.230723 0.220916
0.220916 0.230834 0.220916
0.220916 0.230991 0.220916
0.220916 0.231196 0.220916
0.220916 0.231454 0.220916
0.220916 0.231765 0.220916
0.221371 0.232130 0.220916
0.223741 0.232552 0.220916
0.228836 0.233028 0.220916
0.237400 0.233559 0.220916
0.250049 0.234141 0.220916
0.267184 0.234770 0.220916
0.288950 0.235440 0.220916
0.315259 0.236145 0.220916
0.345850 0.236874 0.220916
0.380359 0.237615 0.220916
0.418367 0.238355 0.220916
0.459436 0.239075 0.220916
0.503119 0.239757 0.220916
0.548958 0.240377 0.220916
0.596472 0.240912 0.220916
0.645141 0.241334 0.220916
0.694383 0.241613 0.220916
0.743527 0.241720 0.220916
0.792281 0.241216 0.220916
0.839238 0.240333 0.220916
0.882996 0.239183 0.220916
0.922003 0.237755 0.220916
0.954248 0.236048 0.220916
0.977042 0.234076 0.220916
0.986644 0.231876 0.220916
0.986695 0.229510 0.220916
0.220916 0.238655 0.220916
0.220916 0.238788 0.220916
0.220916 0.238930 0.220916
0.220916 0.239128 0.220916
0.220916 0.239387 0.220916
0.220916 0.239710 0.220916
0.220917 0.240098 0.220916
0.221715 0.240553 0.220916
0.224543 0.241074 0.220916
0.230157 0.241659 0.220916
0.239282 0.242305 0.220916
0.252505 0.243009 0.220916
0.270194 0.243763 0.220916
0.292470 0.244561 0.220916
0.319230 0.245391 0.220916
0.350210 0.246243 0.220916
0.385044 0.247101 0.220916
0.423318 0.247948 0.220916
0.464599 0.248763 0.220916
0.508443 0.249525 0.220916
0.554393 0.250208 0.220916
0.601967 0.250784 0.220916
0.650640 0.251222 0.220916
0.699824 0.251490 0.220916
0.749285 0.251165 0.220916
0.797931 0.250367 0.220916
0.844491 0.249277 0.220916
0.887710 0.247868 0.220916
0.925998 0.246121 0.220916
0.957289 0.244027 0.220916
0.978809 0.241588 0.220916
0.986695 0.238825 0.220916
0.986695 0.236904 0.220916
0.220916 0.250292 0.220916
0.220916 0.250450 0.220916
0.220916 0.250618 0.220916
0.220916 0.250852 0.220916
0.220916 0.251159 0.220916
0.220916 0.251539 0.220916
0.220973 0.251996 0.220916
0.222172 0.252528 0.220916
0.225477 0.253135 0.220916
0.231634 0.253813 0.220916
0.241344 0.254559 0.220916
0.255164 0.255366 0.220916
0.273433 0.256226 0.220916
0.296247 0.257129 0.220916
0.323487 0.258062 0.220916
0.354883 0.259012 0.220916
0.390070 0.259961 0.220916
0.428639 0.260888 0.220916
0.470158 0.261772 0.220916
0.514187 0.262587 0.220916
0.560268 0.263304 0.220916
0.607917 0.263892 0.220916
0.656605 0.264319 0.220916
0.706240 0.264083 0.220916
0.755754 0.263403 0.220916
0.804088 0.262420 0.220916
0.850206 0.261100 0.220916
0.892821 0.259410 0.220916
0.930299 0.257323 0.220916
0.960507 0.254818 0.220916
0.980575 0.251885 0.220916
0.986695 0.248841 0.220916
0.986695 0.248841 0.220916
0.220916 0.266048 0.220916
0.220916 0.266225 0.220916
0.220916 0.266414 0.220916
0.220916 0.266677 0.220916
0.220916 0.267020 0.220916
0.220916 0.267446 0.220916
0.221125 0.267955 0.220916
0.222727 0.268547 0.220916
0.226512 0.269219 0.220916
0.233216 0.269968 0.220916
0.243518 0.270787 0.220916
0.257947 0.271670 0.220916
0.276809 0.272606 0.220916
0.300177 0.273583 0.220916
0.327918 0.274587 0.220916
0.359754 0.275601 0.220916
0.395321 0.276605 0.220916
0.434211 0.277578 0.220916
0.475996 0.278495 0.220916
0.520236 0.279326 0.220916
0.566473 0.280043 0.220916
0.614226 0.280603 0.220916
0.663646 0.280317 0.220916
0.713370 0.279771 0.220916
0.762667 0.278925 0.220916
0.810664 0.277739 0.220916
0.856299 0.276174 0.220916
0.898249 0.274190 0.220916
0.934826 0.271752 0.220916
0.963825 0.268828 0.220916
0.982261 0.265395 0.220916
0.986695 0.265165 0.220916
0.986695 0.265165 0.220916
0.220916 0.286235 0.220916
0.220916 0.286426 0.220916
0.220916 0.286628 0.220916
0.220916 0.286910 0.220916
0.220916 0.287276 0.220916
0.220916 0.287731 0.220916
0.221356 0.288273 0.220916
0.223345 0.288902 0.220916
0.227595 0.289615 0.220916
0.234832 0.290406 0.220916
0.245714 0.291269 0.220916
0.260743 0.292195 0.220916
0.280198 0.293171 0.220916
0.304127 0.294186 0.220916
0.332383 0.295222 0.220916
0.364680 0.296261 0.220916
0.400652 0.297281 0.220916
0.439893 0.298260 0.220916
0.481975 0.299169 0.220916
0.526456 0.299979 0.220916
0.573284 0.300282 0.220916
0.621830 0.300115 0.220916
0.671228 0.299702 0.220916
0.720839 0.299003 0.220916
0.769912 0.297975 0.220916
0.817555 0.296575 0.220916
0.862673 0.294757 0.220916
0.903902 0.292477 0.220916
0.939495 0.289690 0.220916
0.967161 0.286356 0.220916
0.982370 0.286080 0.220916
0.986695 0.286080 0.220916
0.986695 0.286080 0.220916
0.220916 0.310942 0.220916
0.220916 0.311138 0.220916
0.220916 0.311346 0.220916
0.220916 0.311636 0.220916
0.220916 0.312013 0.220916
0.220922 0.312479 0.220916
0.221627 0.313034 0.220916
0.223967 0.313677 0.220916
0.228644 0.314404 0.220916
0.236378 0.315208 0.220916
0.247809 0.316083 0.220916
0.263415 0.317017 0.220916
0.283448 0.317998 0.220916
0.307936 0.319012 0.220916
0.336715 0.320041 0.220916
0.369491 0.321065 0.220916
0.405895 0.322062 0.220916
0.445517 0.323006 0.220916
0.488273 0.323558 0.220916
0.533695 0.323679 0.220916
0.580981 0.323612 0.220916
0.629610 0.323319 0.220916
0.679007 0.322761 0.220916
0.728515 0.321894 0.220916
0.777368 0.320674 0.220916
0.824646 0.319054 0.220916
0.869221 0.316984 0.220916
0.909680 0.314413 0.220916
0.943951 0.311521 0.220916
0.967396 0.311521 0.220916
0.982370 0.311521 0.220916
0.986695 0.311521 0.220916
0.986695 0.311521 0.220916
0.220916 0.340057 0.220916
0.220916 0.340252 0.220916
0.220916 0.340459 0.220916
0.220916 0.340747 0.220916
0.220916 0.341121 0.220916
0.220959 0.341583 0.220916
0.221885 0.342132 0.220916
0.224514 0.342767 0.220916
0.229556 0.343483 0.220916
0.237725 0.344273 0.220916
0.249652 0.345129 0.220916
0.265793 0.346040 0.220916
0.286378 0.346992 0.220916
0.311412 0.347970 0.220916
0.340718 0.348956 0.220916
0.373990 0.349930 0.220916
0.411433 0.350340 0.220916
0.452085 0.350647 0.220916
0.495489 0.350820 0.220916
0.541177 0.350827 0.220916
0.588658 0.350632 0.220916
0.637403 0.350197 0.220916
0.686825 0.349480 0.220916
0.736253 0.348437 0.220916
0.784898 0.347020 0.220916
0.831812 0.345180 0.220916
0.875827 0.342863 0.220916
0.913845 0.341209 0.220916
0.943951 0.341209 0.220916
0.967396 0.341209 0.220916
0.982370 0.341209 0.220916
0.986695 0.341209 0.220916
0.986695 0.341209 0.220916
0.220916 0.373323 0.220916
0.220916 0.373511 0.220916
0.220916 0.373711 0.220916
0.220916 0.373988 0.220916
0.220916 0.374348 0.220916
0.220996 0.374792 0.220916
0.222060 0.375319 0.220916
0.224890 0.375927 0.220916
0.230203 0.376611 0.220916
0.238720 0.377364 0.220916
0.251065 0.378176 0.220916
0.267679 0.379036 0.220916
0.288930 0.379766 0.220916
0.314928 0.380263 0.220916
0.345270 0.380721 0.220916
0.379612 0.381118 0.220916
0.417546 0.381429 0.220916
0.458630 0.381627 0.220916
0.502407 0.381680 0.220916
0.548403 0.381557 0.220916
0.596122 0.381220 0.220916
0.645025 0.380631 0.220916
0.694512 0.379747 0.220916
0.743893 0.378522 0.220916
0.792354 0.376907 0.220916
0.838916 0.374851 0.220916
0.878516 0.374728 0.220916
0.913845 0.374728 0.220916
0.943951 0.374728 0.220916
0.967396 0.374728 0.220916
0.982370 0.374728 0.220916
0.986695 0.374728 0.220916
0.986695 0.374728 0.220916
0.220916 0.410391 0.220916
0.220916 0.410567 0.220916
0.220916 0.410755 0.220916
0.220916 0.411014 0.220916
0.220916 0.411351 0.220916
0.220996 0.411766 0.220916
0.222101 0.412168 0.220916
0.225082 0.412530 0.220916
0.230692 0.412927 0.220916
0.239677 0.413352 0.220916
0.252671 0.413794 0.220916
0.270101 0.414241 0.220916
0.292148 0.414677 0.220916
0.318757 0.415085 0.220916
0.349688 0.415446 0.220916
0.384588 0.415736 0.220916
0.423040 0.415933 0.220916
0.464596 0.416006 0.220916
0.508792 0.415927 0.220916
0.555150 0.415662 0.220916
0.603161 0.415174 0.220916
0.652277 0.414423 0.220916
0.701880 0.413367 0.220916
0.751261 0.411960 0.220916
0.796702 0.411593 0.220916
0.839139 0.411593 0.220916
0.878516 0.411593 0.220916
0.913845 0.411593 0.220916
0.943951 0.411593 0.220916
0.967396 0.411593 0.220916
0.982370 0.411593 0.220916
0.986695 0.411593 0.220916
0.986695 0.411593 0.220916
0.220916 0.449608 0.220916
0.220916 0.449713 0.220916
0.220916 0.449824 0.220916
0.220916 0.449975 0.220916
0.220916 0.450171 0.220916
0.221019 0.450408 0.220916
0.222227 0.450685 0.220916
0.225374 0.450996 0.220916
0.231230 0.451335 0.220916
0.240549 0.451693 0.220916
0.253962 0.452060 0.220916
0.271884 0.452423 0.220916
0.294473 0.452767 0.220916
0.321652 0.453075 0.220916
0.353163 0.453326 0.220916
0.388635 0.453500 0.220916
0.427637 0.453571 0.220916
0.469712 0.453512 0.220916
0.514387 0.453292 0.220916
0.561170 0.452878 0.220916
0.609543 0.452233 0.220916
0.658941 0.451319 0.220916
0.705930 0.451294 0.220916
0.752052 0.451294 0.220916
0.796702 0.451294 0.220916
0.839139 0.451294 0.220916
0.878516 0.451294 0.220916
0.913845 0.451294 0.220916
0.943951 0.451294 0.220916
0.967396 0.451294 0.220916
0.982370 0.451294 0.220916
0.986695 0.451294 0.220916
0.986695 0.451294 0.220916
0.220916 0.491181 0.220916
0.220916 0.491270 0.220916
0.220916 0.491363 0.220916
0.220916 0.491491 0.220916
0.220916 0.491654 0.220916
0.220982 0.491852 0.220916
0.222118 0.492081 0.220916
0.225240 0.492336 0.220916
0.231145 0.492610 0.220916
0.240611 0.492895 0.220916
0.254279 0.493179 0.220916
0.272560 0.493452 0.220916
0.295601 0.493696 0.220916
0.323301 0.493896 0.220916
0.355378 0.494033 0.220916
0.391437 0.494083 0.220916
0.431031 0.494023 0.220916
0.473683 0.493825 0.220916
0.518906 0.493460 0.220916
0.565112 0.493316 0.220916
0.611873 0.493316 0.220916
0.659002 0.493316 0.220916
0.705930 0.493316 0.220916
0.752052 0.493316 0.220916
0.796702 0.493316 0.220916
0.839139 0.493316 0.220916
0.878516 0.493316 0.220916
0.913845 0.493316 0.220916
0.943951 0.493316 0.220916
0.967396 0.493316 0.220916
0.982370 0.493316 0.220916
0.986695 0.493316 0.220916
0.986695 0.493316 0.220916
0.220916 0.535249 0.220916
0.220916 0.535321 0.220916
0.220916 0.535395 0.220916
0.220916 0.535498 0.220916
0.220916 0.535628 0.220916
0.220920 0.535783 0.220916
0.221757 0.535962 0.220916
0.224605 0.536157 0.220916
0.230302 0.536363 0.220916
0.239666 0.536570 0.220916
0.253370 0.536769 0.220916
0.271840 0.536947 0.220916
0.295212 0.537088 0.220916
0.323365 0.537177 0.220916
0.355986 0.537195 0.220916
0.392624 0.537154 0.220916
0.432469 0.537154 0.220916
0.474869 0.537154 0.220916
0.519265 0.537154 0.220916
0.565112 0.537154 0.220916
0.611873 0.537154 0.220916
0.659002 0.537154 0.220916
0.705930 0.537154 0.220916
0.752052 0.537154 0.220916
0.796702 0.537154 0.220916
0.839139 0.537154 0.220916
0.878516 0.537154 0.220916
0.913845 0.537154 0.220916
0.943951 0.537154 0.220916
0.967396 0.537154 0.220916
0.982370 0.537154 0.220916
0.986695 0.537154 0.220916
0.986695 0.537154 0.220916
0.220916 0.581374 0.220916
0.220916 0.581427 0.220916
0.220916 0.581483 0.220916
0.220916 0.581559 0.220916
0.220916 0.581654 0.220916
0.220916 0.581767 0.220916
0.221252 0.581893 0.220916
0.223500 0.582028 0.220916
0.228645 0.582164 0.220916
0.237574 0.582294 0.220916
0.251404 0.582300 0.220916
0.270292 0.582300 0.220916
0.294227 0.582300 0.220916
0.322926 0.582300 0.220916
0.355913 0.582300 0.220916
0.392624 0.582300 0.220916
0.432469 0.582300 0.220916
0.474869 0.582300 0.220916
0.519265 0.582300 0.220916
0.565112 0.582300 0.220916
0.611873 0.582300 0.220916
0.659002 0.582300 0.220916
0.705930 0.582300 0.220916
0.752052 0.582300 0.220916
0.796702 0.582300 0.220916
0.839139 0.582300 0.220916
0.878516 0.582300 0.220916
0.913845 0.582300 0.220916
0.943951 0.582300 0.220916
0.967396 0.582300 0.220916
0.982370 0.582300 0.220916
0.986695 0.582300 0.220916
0.986695 0.582300 0.220916
0.220916 0.628242 0.220916
0.220916 0.628242 0.220916
0.220916 0.628242 0.220916
0.220916 0.628242 0.220916
0.220916 0.628242 0.220916
0.220916 0.628242 0.220916
0.221106 0.628242 0.220916
0.223201 0.628242 0.220916
0.228385 0.628242 0.220916
0.237556 0.628242 0.220916
0.251404 0.628242 0.220916
0.270292 0.628242 0.220916
0.294227 0.628242 0.220916
0.322926 0.628242 0.220916
0.355913 0.628242 0.220916
0.392624 0.628242 0.220916
0.432469 0.628242 0.220916
0.474869 0.628242 0.220916
0.519265 0.628242 0.220916
0.565112 0.628242 0.220916
0.611873 0.628242 0.220916
0.659002 0.628242 0.220916
0.705930 0.628242 0.220916
0.752052 0.628242 0.220916
0.796702 0.628242 0.220916
0.839139 0.628242 0.220916
0.878516 0.628242 0.220916
0.913845 0.628242 0.220916
0.943951 0.628242 0.220916
0.967396 0.628242 0.220916
0.982370 0.628242 0.220916
0.986695 0.628242 0.220916
0.986695 0.628242 0.220916
0.220916 0.674450 0.220916
0.220916 0.674450 0.220916
0.220916 0.674450 0.220916
0.220916 0.674450 0.220916
0.220916 0.674450 0.220916
0.220916 0.674450 0.220916
0.221106 0.674450 0.220916
0.223201 0.674450 0.220916
0.228385 0.674450 0.220916
0.237556 0.674450 0.220916
0.251404 0.674450 0.220916
0.270292 0.674450 0.220916
0.294227 0.674450 0.220916
0.322926 0.674450 0.220916
0.355913 0.674450 0.220916
0.392624 0.674450 0.220916
0.432469 0.674450 0.220916
0.474869 0.674450 0.220916
0.519265 0.674450 0.220916
0.565112 0.674450 0.220916
0.611873 0.674450 0.220916
0.659002 0.674450 0.220916
0.705930 0.674450 0.220916
0.752052 0.674450 0.220916
0.796702 0.674450 0.220916
0.839139 0.674450 0.220916
0.878516 0.674450 0.220916
0.913845 0.674450 0.220916
0.943951 0.674450 0.220916
0.967396 0.674450 0.220916
0.982370 0.674450 0.220916
0.986695 0.674450 0.220916
0.986695 0.674450 0.220916
0.220916 0.720365 0.220916
0.220916 0.720365 0.220916
0.220916 0.720365 0.220916
0.220916 0.720365 0.220916
0.220916 0.720365 0.220916
0.220916 0.720365 0.220916
0.221106 0.720365 0.220916
0.223201 0.720365 0.220916
0.228385 0.720365 0.220916
0.237556 0.720365 0.220916
0.251404 0.720365 0.220916
0.270292 0.720365 0.220916
0.294227 0.720365 0.220916
0.322926 0.720365 0.220916
0.355913 0.720365 0.220916
0.392624 0.720365 0.220916
0.432469 0.720365 0.220916
0.474869 0.720365 0.220916
0.519265 0.720365 0.220916
0.565112 0.720365 0.220916
0.611873 0.720365 0.220916
0.659002 0.720365 0.220916
0.705930 0.720365 0.220916
0.752052 0.720365 0.220916
0.796702 0.720365 0.220916
0.839139 0.720365 0.220916
0.878516 0.720365 0.220916
0.913845 0.720365 0.220916
0.943951 0.720365 0.220916
0.967396 0.720365 0.220916
0.982370 0.720365 0.220916
0.986695 0.720365 0.220916
0.986695 0.720365 0.220916
0.220916 0.765380 0.220916
0.220916 0.765380 0.220916
0.220916 0.765380 0.220916
0.220916 0.765380 0.220916
0.220916 0.765380 0.220916
0.220916 0.765380 0.220916
0.221106 0.765380 0.220916
0.223201 0.765380 0.220916
0.228385 0.765380 0.220916
0.237556 0.765380 0.220916
0.251404 0.765380 0.220916
0.270292 0.765380 0.220916
0.294227 0.765380 0.220916
0.322926 0.765380 0.220916
0.355913 0.765380 0.220916
0.392624 0.765380 0.220916
0.432469 0.765380 0.220916
0.474869 0.765380 0.220916
0.519265 0.765380 0.220916
0.565112 0.765380 0.220916
0.611873 0.765380 0.220916
0.659002 0.765380 0.220916
0.705930 0.765380 0.220916
0.752052 0.765380 0.220916
0.796702 0.765380 0.220916
0.839139 0.765380 0.220916
0.878516 0.765380 0.220916
0.913845 0.765380 0.220916
0.943951 0.765380 0.220916
0.967396 0.765380 0.220916
0.982370 0.765380 0.220916
0.986695 0.765380 0.220916
0.986695 0.764029 0.220916
0.220916 0.808829 0.220916
0.220916 0.808829 0.220916
0.220916 0.808829 0.220916
0.220916 0.808829 0.220916
0.220916 0.808829 0.220916
0.220916 0.808829 0.220916
0.221106 0.808829 0.220916
0.223201 0.808829 0.220916
0.228385 0.808829 0.220916
0.237556 0.808829 0.220916
0.251404 0.808829 0.220916
0.270292 0.808829 0.220916
0.294227 0.808829 0.220916
0.322926 0.808829 0.220916
0.355913 0.808829 0.220916
0.392624 0.808829 0.220916
0.432469 0.808829 0.220916
0.474869 0.808829 0.220916
0.519265 0.808829 0.220916
0.565112 0.808829 0.220916
0.611873 0.808829 0.220916
0.659002 0.808829 0.220916
0.705930 0.808829 0.220916
0.752052 0.808829 0.220916
0.796702 0.808829 0.220916
0.839139 0.808829 0.220916
0.878516 0.808829 0.220916
0.913845 0.808829 0.220916
0.943951 0.808829 0.220916
0.967676 0.808268 0.220916
0.982780 0.807120 0.220916
0.986695 0.805921 0.220916
0.986695 0.804669 0.220916
0.220916 0.849961 0.220916
0.220916 0.849961 0.220916
0.220916 0.849961 0.220916
0.220916 0.849961 0.220916
0.220916 0.849961 0.220916
0.220916 0.849961 0.220916
0.221106 0.849961 0.220916
0.223201 0.849961 0.220916
0.228385 0.849961 0.220916
0.237556 0.849961 0.220916
0.251404 0.849961 0.220916
0.270292 0.849961 0.220916
0.294227 0.849961 0.220916
0.322926 0.849961 0.220916
0.355913 0.849961 0.220916
0.392624 0.849961 0.220916
0.432469 0.849961 0.220916
0.474869 0.849961 0.220916
0.519265 0.849961 0.220916
0.565112 0.849961 0.220916
0.611873 0.849961 0.220916
0.659002 0.849961 0.220916
0.705930 0.849961 0.220916
0.752052 0.849961 0.220916
0.796702 0.849961 0.220916
0.839139 0.849961 0.220916
0.879040 0.849536 0.220916
0.915203 0.848641 0.220916
0.945764 0.847701 0.220916
0.969173 0.846716 0.220916
0.983467 0.845685 0.220916
0.986695 0.844607 0.220916
0.986695 0.843481 0.220916
0.220916 0.887913 0.220916
0.220916 0.887913 0.220916
0.220916 0.887913 0.220916
0.220916 0.887913 0.220916
0.220916 0.887913 0.220916
0.220916 0.887913 0.220916
0.221106 0.887913 0.220916
0.223201 0.887913 0.220916
0.228385 0.887913 0.220916
0.237556 0.887913 0.220916
0.251404 0.887913 0.220916
0.270292 0.887913 0.220916
0.294227 0.887913 0.220916
0.322926 0.887913 0.220916
0.355913 0.887913 0.220916
0.392624 0.887913 0.220916
0.432469 0.887913 0.220916
0.474869 0.887913 0.220916
0.519265 0.887913 0.220916
