studio/assets/luts/ethics-safety.cube
TITLE "Ethics & Safety — Trust"
# Forest green shadows with golden highlights. Gravitas and trustworthiness.
# Generated by Like One Studio — cinema-grade pipeline
# Color science: lift/gamma/gain + filmic S-curve + zone tinting
LUT_3D_SIZE 5
# Domain: standard 0-1 range
DOMAIN_MIN 0.0 0.0 0.0
DOMAIN_MAX 1.0 1.0 1.0
0.220916 0.220916 0.220916
0.221448 0.220916 0.220916
0.361716 0.220966 0.220916
0.722738 0.221721 0.220916
0.986695 0.220916 0.220916
0.220916 0.238655 0.220916
0.224543 0.241074 0.220916
0.385044 0.247101 0.220916
0.749285 0.251165 0.220916
0.986695 0.236904 0.220916
0.220916 0.449608 0.220916
0.231230 0.451335 0.220916
0.427637 0.453571 0.220916
0.796702 0.451294 0.220916
0.986695 0.451294 0.220916
0.220916 0.808829 0.220916
0.228385 0.808829 0.220916
0.432469 0.808829 0.220916
0.796702 0.808829 0.220916
0.986695 0.804669 0.220916
0.221694 0.986695 0.220916
0.266724 0.986695 0.220916
0.520307 0.986695 0.220916
0.865551 0.986695 0.229843
0.986695 0.986695 0.297454
0.220916 0.220916 0.222150
0.221668 0.220916 0.223197
0.364313 0.221004 0.227068
0.725616 0.221735 0.232726
0.986695 0.220916 0.230551
0.220916 0.239493 0.226235
0.224916 0.241858 0.227580
0.387096 0.247646 0.231110
0.751912 0.250880 0.233493
0.986695 0.236904 0.227356
0.220916 0.450250 0.233384
0.231267 0.451809 0.233027
0.428399 0.453550 0.230716
0.796702 0.451294 0.227356
0.986695 0.451294 0.227356
0.220916 0.808829 0.227356
0.228385 0.808829 0.227356
0.432469 0.808829 0.227356
0.796702 0.808829 0.227356
0.986695 0.804307 0.224208
0.222279 0.986695 0.226495
0.269813 0.986695 0.229438
0.523704 0.986695 0.242235
0.867125 0.986695 0.280553
0.986695 0.986695 0.367583
0.220916 0.220916 0.348808
0.222483 0.220916 0.357327
0.371737 0.221155 0.380024
0.733866 0.221734 0.410234
0.986695 0.220916 0.429604
0.220916 0.241886 0.375670
0.226025 0.244060 0.382636
0.392879 0.249075 0.400510
0.759429 0.249810 0.422059
0.986695 0.236904 0.429620
0.220916 0.451825 0.423719
0.231232 0.452888 0.425917
0.430331 0.453152 0.429536
0.796702 0.451294 0.429620
0.986695 0.451294 0.429620
0.220916 0.808829 0.429620
0.228385 0.808829 0.429620
0.432469 0.808829 0.429620
0.796702 0.808829 0.429620
0.986695 0.803224 0.416682
0.224999 0.986695 0.430545
0.279516 0.986695 0.437194
0.533935 0.986695 0.458371
0.871849 0.986695 0.501668
0.986695 0.986695 0.576826
0.220916 0.220918 0.666732
0.224351 0.220988 0.678082
0.383964 0.221472 0.708608
0.747910 0.221531 0.752541
0.986695 0.220916 0.794842
0.220916 0.245707 0.702684
0.227885 0.247439 0.712188
0.402083 0.250863 0.737534
0.771908 0.247073 0.773616
0.986695 0.236904 0.794842
0.220916 0.453402 0.777084
0.230618 0.453565 0.782201
0.432469 0.451294 0.794842
0.796702 0.451294 0.794842
0.986695 0.451294 0.794842
0.220916 0.808829 0.794842
0.228385 0.808829 0.794842
0.432469 0.808829 0.794842
0.796702 0.808829 0.794842
0.986695 0.801252 0.783303
0.233645 0.986695 0.794148
0.298870 0.986695 0.796740
0.552883 0.986695 0.805311
0.880530 0.986695 0.823839
0.986695 0.986695 0.857596
0.220916 0.221263 0.965942
0.227311 0.221437 0.970903
0.399258 0.221740 0.981461
0.767990 0.220960 0.986695
0.986695 0.220916 0.986695
0.220916 0.249798 0.979774
0.229865 0.250708 0.982383
0.414034 0.250691 0.986476
0.788017 0.241306 0.986695
0.986695 0.236904 0.986695
0.220916 0.452660 0.986695
0.228504 0.451470 0.986695
0.432469 0.451294 0.986695
0.796702 0.451294 0.986695
0.986695 0.451294 0.986695
0.220916 0.808829 0.986695
0.228385 0.808829 0.986695
0.432469 0.808829 0.986695
0.799280 0.806994 0.986695
0.986695 0.803490 0.986695
0.255038 0.986695 0.986695
0.331587 0.986695 0.986695
0.582211 0.986695 0.986695
0.893759 0.986695 0.986695
0.986695 0.986695 0.986695
