studio/assets/luts/ethics-safety.cube
TITLE "Ethics & Safety — Trust"
# Forest green shadows with golden highlights. Gravitas and trustworthiness.
# Generated by Like One Studio — cinema-grade pipeline
# Color science: lift/gamma/gain + filmic S-curve + zone tinting
LUT_3D_SIZE 9
# Domain: standard 0-1 range
DOMAIN_MIN 0.0 0.0 0.0
DOMAIN_MAX 1.0 1.0 1.0
0.220916 0.220916 0.220916
0.220916 0.220916 0.220916
0.221448 0.220916 0.220916
0.255514 0.220916 0.220916
0.361716 0.220966 0.220916
0.527512 0.221336 0.220916
0.722738 0.221721 0.220916
0.906026 0.221401 0.220916
0.986695 0.220916 0.220916
0.220916 0.221299 0.220916
0.220916 0.221436 0.220916
0.222172 0.221818 0.220916
0.260110 0.222609 0.220916
0.369183 0.223878 0.220916
0.536083 0.225369 0.220916
0.731023 0.226307 0.220916
0.912456 0.224974 0.220916
0.986695 0.221641 0.220916
0.220916 0.238655 0.220916
0.220916 0.239387 0.220916
0.224543 0.241074 0.220916
0.270194 0.243763 0.220916
0.385044 0.247101 0.220916
0.554393 0.250208 0.220916
0.749285 0.251165 0.220916
0.925998 0.246121 0.220916
0.986695 0.236904 0.220916
0.220916 0.310942 0.220916
0.220916 0.312013 0.220916
0.228644 0.314404 0.220916
0.283448 0.317998 0.220916
0.405895 0.322062 0.220916
0.580981 0.323612 0.220916
0.777368 0.320674 0.220916
0.943951 0.311521 0.220916
0.986695 0.311521 0.220916
0.220916 0.449608 0.220916
0.220916 0.450171 0.220916
0.231230 0.451335 0.220916
0.294473 0.452767 0.220916
0.427637 0.453571 0.220916
0.609543 0.452233 0.220916
0.796702 0.451294 0.220916
0.943951 0.451294 0.220916
0.986695 0.451294 0.220916
0.220916 0.628242 0.220916
0.220916 0.628242 0.220916
0.228385 0.628242 0.220916
0.294227 0.628242 0.220916
0.432469 0.628242 0.220916
0.611873 0.628242 0.220916
0.796702 0.628242 0.220916
0.943951 0.628242 0.220916
0.986695 0.628242 0.220916
0.220916 0.808829 0.220916
0.220916 0.808829 0.220916
0.228385 0.808829 0.220916
0.294227 0.808829 0.220916
0.432469 0.808829 0.220916
0.611873 0.808829 0.220916
0.796702 0.808829 0.220916
0.943951 0.808829 0.220916
0.986695 0.804669 0.220916
0.220916 0.950044 0.220916
0.220916 0.950044 0.220916
0.228385 0.950044 0.220916
0.296458 0.949478 0.220916
0.439005 0.948545 0.220916
0.622304 0.947276 0.220916
0.808887 0.945671 0.220916
0.954972 0.949604 0.220916
0.986695 0.954055 0.220916
0.221694 0.986695 0.220916
0.228505 0.986695 0.220916
0.266724 0.986695 0.220916
0.366337 0.986695 0.220916
0.520307 0.986695 0.220916
0.698563 0.986695 0.221528
0.865551 0.986695 0.229843
0.974856 0.986695 0.253304
0.986695 0.986695 0.297454
0.220916 0.220916 0.220916
0.220916 0.220916 0.220916
0.221510 0.220916 0.220916
0.255985 0.220916 0.220916
0.362491 0.220977 0.220916
0.528401 0.221353 0.220916
0.723596 0.221726 0.220933
0.906696 0.221376 0.220919
0.986695 0.220916 0.220916
0.220916 0.221344 0.220916
0.220916 0.221486 0.220916
0.222258 0.221879 0.220916
0.260564 0.222680 0.220916
0.369911 0.223949 0.220916
0.536919 0.225420 0.220916
0.731832 0.226315 0.220939
0.913080 0.224899 0.220916
0.986695 0.221583 0.220916
0.220916 0.238905 0.220916
0.220916 0.239633 0.220916
0.224653 0.241308 0.220916
0.270589 0.243973 0.220916
0.385657 0.247266 0.220916
0.555107 0.250301 0.220936
0.750068 0.251084 0.220922
0.926522 0.245930 0.220916
0.986695 0.236904 0.220916
0.220916 0.311310 0.220916
0.220916 0.312368 0.220916
0.228724 0.314728 0.220922
0.283698 0.318267 0.220935
0.406306 0.322249 0.220935
0.581601 0.323583 0.220916
0.777973 0.320503 0.220916
0.943951 0.311521 0.220916
0.986695 0.311521 0.220916
0.220916 0.449804 0.220917
0.220916 0.450352 0.220916
0.231243 0.451481 0.220916
0.294573 0.452854 0.220916
0.427869 0.453571 0.220916
0.609886 0.452115 0.220916
0.796702 0.451294 0.220916
0.943951 0.451294 0.220916
0.986695 0.451294 0.220916
0.220916 0.628242 0.220916
0.220916 0.628242 0.220916
0.228385 0.628242 0.220916
0.294227 0.628242 0.220916
0.432469 0.628242 0.220916
0.611873 0.628242 0.220916
0.796702 0.628242 0.220916
0.943951 0.628242 0.220916
0.986695 0.628242 0.220916
0.220916 0.808829 0.220916
0.220916 0.808829 0.220916
0.228385 0.808829 0.220916
0.294227 0.808829 0.220916
0.432469 0.808829 0.220916
0.611873 0.808829 0.220916
0.796702 0.808829 0.220916
0.943951 0.808829 0.220916
0.986695 0.804562 0.220916
0.220916 0.950044 0.220916
0.220916 0.950044 0.220916
0.228385 0.950044 0.220916
0.296665 0.949425 0.220916
0.439235 0.948492 0.220916
0.622503 0.947222 0.220916
0.809165 0.945780 0.220916
0.955100 0.949708 0.220916
0.986695 0.954168 0.220916
0.221850 0.986695 0.220916
0.228954 0.986695 0.220916
0.267629 0.986695 0.220916
0.367448 0.986695 0.220916
0.521311 0.986695 0.221565
0.699324 0.986695 0.226747
0.866016 0.986695 0.241140
0.974993 0.986695 0.270007
0.986695 0.986695 0.317479
0.220916 0.220916 0.222150
0.220916 0.220916 0.222437
0.221668 0.220916 0.223197
0.257098 0.220916 0.224692
0.364313 0.221004 0.227068
0.530493 0.221395 0.230068
0.725616 0.221735 0.232726
0.908269 0.221318 0.233445
0.986695 0.220916 0.230551
0.220916 0.221457 0.223192
0.220916 0.221611 0.223540
0.222468 0.222027 0.224416
0.261636 0.222849 0.226020
0.371622 0.224115 0.228383
0.538886 0.225537 0.231123
0.733738 0.226327 0.233199
0.914545 0.224718 0.233155
0.986695 0.221453 0.229412
0.220916 0.239493 0.226235
0.220916 0.240210 0.226635
0.224916 0.241858 0.227580
0.271516 0.244463 0.229134
0.387096 0.247646 0.231110
0.556785 0.250509 0.232910
0.751912 0.250880 0.233493
0.927752 0.245465 0.231599
0.986695 0.236904 0.227356
0.220916 0.312167 0.231195
0.220916 0.313194 0.231473
0.228908 0.315480 0.232071
0.284276 0.318889 0.232866
0.407265 0.322675 0.233453
0.583056 0.323497 0.233268
0.779393 0.320078 0.231269
0.943951 0.311521 0.227356
0.986695 0.311521 0.227356
0.220916 0.450250 0.233384
0.220916 0.450763 0.233302
0.231267 0.451809 0.233027
0.294795 0.453040 0.232301
0.428399 0.453550 0.230716
0.610683 0.451816 0.227851
0.796702 0.451294 0.227356
0.943951 0.451294 0.227356
0.986695 0.451294 0.227356
0.220916 0.628242 0.227356
0.220916 0.628242 0.227356
0.228385 0.628242 0.227356
0.294227 0.628242 0.227356
0.432469 0.628242 0.227356
0.611873 0.628242 0.227356
0.796702 0.628242 0.227356
0.943951 0.628242 0.227356
0.986695 0.628242 0.227356
0.220916 0.808829 0.227356
0.220916 0.808829 0.227356
0.228385 0.808829 0.227356
0.294227 0.808829 0.227356
0.432469 0.808829 0.227356
0.611873 0.808829 0.227356
0.796702 0.808829 0.227356
0.943951 0.808829 0.227356
0.986695 0.804307 0.224208
0.220916 0.950044 0.227356
0.220916 0.950044 0.227356
0.228572 0.949931 0.227172
0.297158 0.949300 0.226192
0.439781 0.948365 0.224899
0.622976 0.947093 0.223437
0.809827 0.946039 0.222244
0.955404 0.949955 0.222911
0.986695 0.954440 0.235721
0.222279 0.986695 0.226495
0.230073 0.986695 0.227297
0.269813 0.986695 0.229438
0.370098 0.986695 0.233895
0.523704 0.986695 0.242235
0.701137 0.986695 0.256794
0.867125 0.986695 0.280553
0.975318 0.986695 0.316636
0.986695 0.986695 0.367583
0.220916 0.220916 0.254862
0.220916 0.220916 0.256344
0.221972 0.220916 0.259827
0.258990 0.220916 0.265620
0.367382 0.221060 0.273494
0.534016 0.221463 0.282554
0.729022 0.221743 0.291029
0.910911 0.221222 0.296448
0.986695 0.220916 0.295391
0.220916 0.221674 0.259808
0.220916 0.221846 0.261252
0.222852 0.222295 0.264621
0.263451 0.223144 0.270151
0.374499 0.224395 0.277519
0.542196 0.225721 0.285742
0.736948 0.226326 0.292994
0.917005 0.224400 0.296968
0.986695 0.221257 0.293962
0.220916 0.240484 0.270849
0.220916 0.241182 0.272132
0.225368 0.242777 0.275079
0.273067 0.245272 0.279770
0.389503 0.248262 0.285704
0.559602 0.250823 0.291737
0.755017 0.250485 0.296163
0.929812 0.244634 0.296436
0.986695 0.236904 0.291693
0.220916 0.313580 0.285965
0.220916 0.314554 0.286830
0.229202 0.316711 0.288745
0.285216 0.319895 0.291563
0.408846 0.323345 0.294575
0.585491 0.323286 0.296856
0.781778 0.319285 0.296141
0.943951 0.311521 0.291693
0.986695 0.311521 0.291693
0.220916 0.450950 0.296645
0.220916 0.451403 0.296807
0.231279 0.452308 0.297037
0.295116 0.453295 0.296919
0.429244 0.453449 0.295574
0.611873 0.451294 0.291693
0.796702 0.451294 0.291693
0.943951 0.451294 0.291693
0.986695 0.451294 0.291693
0.220916 0.628242 0.291693
0.220916 0.628242 0.291693
0.228385 0.628242 0.291693
0.294227 0.628242 0.291693
0.432469 0.628242 0.291693
0.611873 0.628242 0.291693
0.796702 0.628242 0.291693
0.943951 0.628242 0.291693
0.986695 0.628242 0.291693
0.220916 0.808829 0.291693
0.220916 0.808829 0.291693
0.228385 0.808829 0.291693
0.294227 0.808829 0.291693
0.432469 0.808829 0.291693
0.611873 0.808829 0.291693
0.796702 0.808829 0.291693
0.944136 0.808573 0.291166
0.986695 0.803868 0.281750
0.220916 0.950044 0.291693
0.220916 0.950044 0.291693
0.228931 0.949717 0.290334
0.298007 0.949084 0.287735
0.440719 0.948147 0.283973
0.623788 0.946872 0.279013
0.810962 0.946481 0.275053
0.955872 0.950326 0.279921
0.986695 0.954913 0.309584
0.223205 0.986695 0.291029
0.232162 0.986695 0.292984
0.273661 0.986695 0.297761
0.374692 0.986695 0.306390
0.527835 0.986695 0.319976
0.704266 0.986695 0.339929
0.869035 0.986695 0.367938
0.975871 0.986695 0.405832
0.986695 0.986695 0.455314
0.220916 0.220916 0.348808
0.220916 0.220916 0.351375
0.222483 0.220916 0.357327
0.261709 0.220933 0.367033
0.371737 0.221155 0.380024
0.539018 0.221554 0.395096
0.733866 0.221734 0.410234
0.914644 0.221096 0.422989
0.986695 0.220916 0.429604
0.220916 0.222035 0.357295
0.220916 0.222227 0.359734
0.223455 0.222710 0.365371
0.266039 0.223578 0.374520
0.378569 0.224782 0.386668
0.546888 0.225949 0.400577
0.741510 0.226276 0.414217
0.920477 0.223922 0.425323
0.986695 0.221042 0.429759
0.220916 0.241886 0.375670
0.220916 0.242551 0.377783
0.226025 0.244060 0.382636
0.275241 0.246383 0.390413
0.392879 0.249075 0.400510
0.563577 0.251184 0.411629
0.759429 0.249810 0.422059
0.932714 0.243346 0.428900
0.986695 0.236904 0.429620
0.220916 0.315518 0.400965
0.220916 0.316412 0.402489
0.229582 0.318379 0.405936
0.286468 0.321230 0.411283
0.411646 0.323627 0.417906
0.588913 0.322833 0.424661
0.785150 0.317982 0.429198
0.943951 0.311521 0.429620
0.986695 0.311521 0.429620
0.220916 0.451825 0.423719
0.220916 0.452191 0.424421
0.231232 0.452888 0.425917
0.295453 0.453520 0.427914
0.430331 0.453152 0.429536
0.611873 0.451294 0.429620
0.796702 0.451294 0.429620
0.943951 0.451294 0.429620
0.986695 0.451294 0.429620
0.220916 0.628242 0.429620
0.220916 0.628242 0.429620
0.228385 0.628242 0.429620
0.294227 0.628242 0.429620
0.432469 0.628242 0.429620
0.611873 0.628242 0.429620
0.796702 0.628242 0.429620
0.943951 0.628242 0.429620
0.986695 0.628242 0.429620
0.220916 0.808829 0.429620
0.220916 0.808829 0.429620
0.228385 0.808829 0.429620
0.294227 0.808829 0.429620
0.432469 0.808829 0.429620
0.611873 0.808829 0.429620
0.796702 0.808829 0.429620
0.944594 0.807936 0.427549
0.986695 0.803224 0.416682
0.220916 0.949925 0.429058
0.220916 0.949771 0.428332
0.229470 0.949403 0.426606
0.299255 0.948767 0.423638
0.442092 0.947827 0.419288
0.624976 0.946547 0.413437
0.812618 0.947125 0.410739
0.956562 0.950879 0.419253
0.986695 0.955622 0.448590
0.224999 0.986695 0.430545
0.235600 0.986695 0.432490
0.279516 0.986695 0.437194
0.381510 0.986695 0.445542
0.533935 0.986695 0.458371
0.708881 0.986695 0.476684
0.871849 0.986695 0.501668
0.976671 0.986695 0.534624
0.986695 0.986695 0.576826
0.220916 0.220916 0.494193
0.220916 0.220916 0.497394
0.223263 0.220917 0.504810
0.265241 0.221010 0.516916
0.377317 0.221297 0.533229
0.545444 0.221653 0.552550
0.740105 0.221687 0.572989
0.919410 0.220969 0.592504
0.986695 0.220916 0.607623
0.220916 0.222575 0.504771
0.220916 0.222784 0.507810
0.224316 0.223289 0.514841
0.269369 0.224149 0.526295
0.383762 0.225253 0.541671
0.552903 0.226175 0.559775
0.747653 0.226011 0.578785
0.924905 0.223272 0.596677
0.986695 0.220930 0.609377
0.220916 0.243660 0.527739
0.220916 0.244275 0.530400
0.226879 0.245653 0.536537
0.277968 0.247722 0.546477
0.397135 0.249994 0.559687
0.568638 0.251479 0.574974
0.765102 0.248727 0.590939
0.936404 0.241497 0.604794
0.986695 0.236904 0.609377
0.220916 0.317866 0.560294
0.220916 0.318652 0.562335
0.229990 0.320359 0.567011
0.287915 0.322759 0.574479
0.415214 0.323657 0.584377
0.593241 0.321957 0.595448
0.789457 0.315972 0.605798
0.943951 0.311521 0.609377
0.986695 0.311521 0.609377
0.220916 0.452723 0.593765
0.220916 0.452971 0.595014
0.231047 0.453390 0.597821
0.295654 0.453542 0.602121
0.431510 0.452473 0.607240
0.611873 0.451294 0.609377
0.796702 0.451294 0.609377
0.943951 0.451294 0.609377
0.986695 0.451294 0.609377
0.220916 0.628242 0.609377
0.220916 0.628242 0.609377
0.228385 0.628242 0.609377
0.294227 0.628242 0.609377
0.432469 0.628242 0.609377
0.611873 0.628242 0.609377
0.796702 0.628242 0.609377
0.943951 0.628242 0.609377
0.986695 0.628242 0.609377
0.220916 0.808829 0.609377
0.220916 0.808829 0.609377
0.228385 0.808829 0.609377
0.294227 0.808829 0.609377
0.432469 0.808829 0.609377
0.611873 0.808829 0.609377
0.796702 0.808829 0.609377
0.945206 0.807080 0.605818
0.986695 0.802357 0.596220
0.220916 0.949503 0.607144
0.220916 0.949348 0.606506
0.230221 0.948978 0.604987
0.300939 0.948339 0.602373
0.443937 0.947394 0.598529
0.626569 0.946108 0.593338
0.814832 0.947983 0.593424
0.957518 0.951659 0.602515
0.986695 0.956603 0.623598
0.228222 0.986695 0.610577
0.240908 0.986695 0.611973
0.287770 0.986695 0.615357
0.390829 0.986695 0.621389
0.542215 0.986695 0.630709
0.715136 0.986695 0.644098
0.875654 0.986695 0.662481
0.977722 0.986695 0.686871
0.986695 0.986695 0.718243
0.220916 0.220918 0.666732
0.220916 0.220928 0.670153
0.224351 0.220988 0.678082
0.269499 0.221167 0.691048
0.383964 0.221472 0.708608
0.553137 0.221729 0.729650
0.747910 0.221531 0.752541
0.925077 0.220916 0.775527
0.986695 0.220916 0.794842
0.220916 0.223310 0.678040
0.220916 0.223524 0.681291
0.225446 0.224024 0.688823
0.273330 0.224823 0.701127
0.389910 0.225745 0.717759
0.560079 0.226319 0.737632
0.755546 0.225350 0.759283
0.930161 0.222473 0.780738
0.986695 0.220930 0.794842
0.220916 0.245707 0.702684
0.220916 0.246247 0.705553
0.227885 0.247439 0.712188
0.281095 0.249157 0.722996
0.402083 0.250863 0.737534
0.575352 0.251035 0.754858
0.771908 0.247073 0.773616
0.940766 0.238981 0.791601
0.986695 0.236904 0.794842
0.220916 0.320424 0.738208
0.220916 0.321070 0.740480
0.230327 0.322444 0.745719
0.289981 0.323640 0.754278
0.419285 0.323249 0.765781
0.598306 0.320400 0.779184
0.794571 0.312988 0.793055
0.943951 0.311521 0.794842
0.986695 0.311521 0.794842
0.220916 0.453402 0.777084
0.220916 0.453501 0.778640
0.230618 0.453565 0.782201
0.295492 0.453109 0.787876
0.432469 0.451294 0.794842
0.611873 0.451294 0.794842
0.796702 0.451294 0.794842
0.943951 0.451294 0.794842
0.986695 0.451294 0.794842
0.220916 0.628242 0.794842
0.220916 0.628242 0.794842
0.228385 0.628242 0.794842
0.294227 0.628242 0.794842
0.432469 0.628242 0.794842
0.611873 0.628242 0.794842
0.796702 0.628242 0.794842
0.943951 0.628242 0.794842
0.986695 0.628242 0.794842
0.220916 0.808829 0.794842
0.220916 0.808829 0.794842
0.228385 0.808829 0.794842
0.294227 0.808829 0.794842
0.432469 0.808829 0.794842
0.611873 0.808829 0.794842
0.796702 0.808829 0.794842
0.945979 0.805987 0.790523
0.986695 0.801252 0.783303
0.220916 0.948963 0.791518
0.220916 0.948807 0.791040
0.231217 0.948435 0.789900
0.303092 0.947792 0.787936
0.446281 0.946841 0.785043
0.628922 0.945845 0.781552
0.817632 0.949061 0.783573
0.958777 0.952709 0.789884
0.986695 0.957895 0.801300
0.233645 0.986695 0.794148
0.248750 0.986695 0.794900
0.298870 0.986695 0.796740
0.402934 0.986695 0.800067
0.552883 0.986695 0.805311
0.723181 0.986695 0.813017
0.880530 0.986695 0.823839
0.979014 0.986695 0.838486
0.986695 0.986695 0.857596
0.220916 0.221021 0.838589
0.220916 0.221062 0.841658
0.225735 0.221175 0.848741
0.274294 0.221387 0.860228
0.391406 0.221644 0.875586
0.561839 0.221732 0.893662
0.757496 0.221225 0.912970
0.931446 0.220916 0.931667
0.986695 0.220916 0.942995
0.220916 0.224204 0.848703
0.220916 0.224404 0.851595
0.226798 0.224854 0.858266
0.277713 0.225517 0.869073
0.396735 0.226155 0.883493
0.568159 0.226267 0.900417
0.764562 0.224410 0.918505
0.936056 0.221627 0.935844
0.986695 0.220930 0.942995
0.220916 0.247845 0.870432
0.220916 0.248283 0.872931
0.228939 0.249220 0.878687
0.284376 0.250474 0.887986
0.407431 0.251457 0.900334
0.583309 0.249725 0.914877
0.779641 0.244660 0.930130
0.943951 0.236904 0.942995
0.986695 0.236904 0.942995
0.220916 0.322894 0.900903
0.220916 0.323367 0.902814
0.230771 0.323650 0.907258
0.292432 0.323514 0.914401
0.423557 0.322071 0.923799
0.603849 0.317823 0.934600
0.796702 0.311521 0.942995
0.943951 0.311521 0.942995
0.986695 0.311521 0.942995
0.220916 0.453527 0.932917
0.220916 0.453444 0.934164
0.229812 0.453074 0.937013
0.294655 0.451871 0.941543
0.432469 0.451294 0.942995
0.611873 0.451294 0.942995
0.796702 0.451294 0.942995
0.943951 0.451294 0.942995
0.986695 0.451294 0.942995
0.220916 0.628242 0.942995
0.220916 0.628242 0.942995
0.228385 0.628242 0.942995
0.294227 0.628242 0.942995
0.432469 0.628242 0.942995
0.611873 0.628242 0.942995
0.796702 0.628242 0.942995
0.943951 0.628242 0.942995
0.986695 0.628242 0.942995
0.220916 0.808829 0.942995
0.220916 0.808829 0.942995
0.228385 0.808829 0.942995
0.294227 0.808829 0.942995
0.432469 0.808829 0.942995
0.611873 0.808829 0.942995
0.797046 0.808586 0.942804
0.946916 0.804644 0.939681
0.986695 0.800291 0.935984
0.220916 0.948297 0.940206
0.220916 0.948140 0.939954
0.232499 0.947765 0.939352
0.305747 0.947116 0.938311
0.449152 0.946157 0.936766
0.633648 0.947198 0.936456
0.821392 0.950315 0.937483
0.960380 0.954082 0.938933
0.986695 0.959540 0.942159
0.242228 0.986695 0.940046
0.259910 0.986695 0.940256
0.313307 0.986695 0.940782
0.418119 0.986695 0.941778
0.566147 0.986695 0.943438
0.733158 0.986695 0.946022
0.886547 0.986695 0.949836
0.980514 0.986695 0.955177
0.986695 0.986695 0.962198
0.220916 0.221263 0.965942
0.220916 0.221316 0.967489
0.227311 0.221437 0.970903
0.279318 0.221613 0.975929
0.399258 0.221740 0.981461
0.571289 0.221597 0.985707
0.767990 0.220960 0.986695
0.938264 0.220916 0.986695
0.986695 0.220916 0.986695
0.220916 0.225149 0.970886
0.220916 0.225310 0.972214
0.228240 0.225652 0.975119
0.282192 0.226087 0.979299
0.403847 0.226330 0.983665
0.577934 0.225531 0.986482
0.774407 0.223208 0.986695
0.942349 0.220997 0.986695
0.986695 0.220930 0.986695
0.220916 0.249798 0.979774
0.220916 0.250100 0.980615
0.229865 0.250708 0.982383
0.287452 0.251374 0.984686
0.414034 0.250691 0.986476
0.591800 0.247528 0.986695
0.788017 0.241306 0.986695
0.943951 0.236904 0.986695
0.986695 0.236904 0.986695
0.220916 0.323677 0.986517
0.220916 0.323638 0.986624
0.231229 0.323377 0.986695
0.294465 0.322385 0.986695
0.427620 0.319694 0.986695
0.609517 0.313803 0.986695
0.796702 0.311521 0.986695
0.943951 0.311521 0.986695
0.986695 0.311521 0.986695
0.220916 0.452660 0.986695
0.220916 0.452359 0.986695
0.228504 0.451470 0.986695
0.294227 0.451294 0.986695
0.432469 0.451294 0.986695
0.611873 0.451294 0.986695
0.796702 0.451294 0.986695
0.943951 0.451294 0.986695
0.986695 0.451294 0.986695
0.220916 0.628242 0.986695
0.220916 0.628242 0.986695
0.228385 0.628242 0.986695
0.294227 0.628242 0.986695
0.432469 0.628242 0.986695
0.611873 0.628242 0.986695
0.796702 0.628242 0.986695
0.943951 0.628242 0.986695
0.986695 0.628242 0.986695
0.220916 0.808829 0.986695
0.220916 0.808829 0.986695
0.228385 0.808829 0.986695
0.294227 0.808829 0.986695
0.432469 0.808829 0.986695
0.611873 0.808829 0.986695
0.799280 0.806994 0.986695
0.948021 0.803037 0.986695
0.986695 0.803490 0.986695
0.220916 0.947495 0.986695
0.220916 0.947337 0.986695
0.234114 0.946958 0.986695
0.308937 0.946303 0.986695
0.453747 0.946258 0.986695
0.639249 0.948785 0.986695
0.827124 0.951738 0.986695
0.962366 0.955831 0.986695
0.986695 0.961576 0.986695
0.255038 0.986695 0.986695
0.275225 0.986695 0.986695
0.331587 0.986695 0.986695
0.436685 0.986695 0.986695
0.582211 0.986695 0.986695
0.745205 0.986695 0.986695
0.893759 0.986695 0.986695
0.982157 0.986695 0.986695
0.986695 0.986695 0.986695
