studio/assets/luts/productivity.cube
TITLE "Productivity — Calm Focus"
# Teal undertones with warm whites. Calm, focused atmosphere.
# Generated by Like One Studio — cinema-grade pipeline
# Color science: lift/gamma/gain + filmic S-curve + zone tinting
LUT_3D_SIZE 33
# Domain: standard 0-1 range
DOMAIN_MIN 0.0 0.0 0.0
DOMAIN_MAX 1.0 1.0 1.0
0.220916 0.220916 0.220916
0.220916 0.220916 0.220916
0.220916 0.220916 0.220916
0.220916 0.220916 0.220916
0.220916 0.220916 0.220916
0.220916 0.220916 0.220916
0.220916 0.220916 0.220916
0.220963 0.220916 0.220916
0.222401 0.220916 0.220916
0.226425 0.220916 0.220916
0.233796 0.220916 0.220916
0.245163 0.220916 0.220916
0.260966 0.220916 0.220916
0.281390 0.220916 0.220918
0.306378 0.220916 0.220941
0.335686 0.220917 0.220990
0.368957 0.220934 0.221065
0.405779 0.220973 0.221165
0.445718 0.221033 0.221285
0.488337 0.221108 0.221420
0.533193 0.221192 0.221561
0.579829 0.221276 0.221698
0.627758 0.221351 0.221820
0.676441 0.221407 0.221915
0.725265 0.221435 0.221970
0.773509 0.221427 0.221976
0.820311 0.221378 0.221923
0.864612 0.221290 0.221808
0.904925 0.221186 0.221642
0.939721 0.221071 0.221434
0.966903 0.220965 0.221208
0.983497 0.220916 0.221011
0.986695 0.220916 0.220917
0.220916 0.220916 0.220916
0.220916 0.220916 0.220916
0.220916 0.220916 0.220916
0.220916 0.220916 0.220916
0.220916 0.220916 0.220916
0.220916 0.220916 0.220916
0.220916 0.220916 0.220916
0.221004 0.220916 0.220916
0.222603 0.220916 0.220916
0.226810 0.220916 0.220916
0.234380 0.220916 0.220916
0.245950 0.220916 0.220916
0.261948 0.220916 0.220916
0.282552 0.220927 0.220926
0.307695 0.220960 0.220959
0.337135 0.221018 0.221018
0.370513 0.221099 0.221101
0.407420 0.221201 0.221206
0.447424 0.221320 0.221329
0.490091 0.221449 0.221464
0.534978 0.221581 0.221602
0.581628 0.221705 0.221734
0.629555 0.221811 0.221848
0.678216 0.221887 0.221933
0.726998 0.221922 0.221977
0.775175 0.221907 0.221969
0.821881 0.221835 0.221903
0.866051 0.221705 0.221777
0.906140 0.221555 0.221603
0.940715 0.221367 0.221391
0.967602 0.221163 0.221168
0.983801 0.220989 0.220984
0.986695 0.220916 0.220916
0.220916 0.220916 0.220916
0.220916 0.220916 0.220916
0.220916 0.220916 0.220916
0.220916 0.220916 0.220916
0.220916 0.220916 0.220916
0.220916 0.220916 0.220916
0.220916 0.220916 0.220916
0.221058 0.220916 0.220916
0.222822 0.220916 0.220916
0.227217 0.220917 0.220916
0.234989 0.220930 0.220916
0.246766 0.220961 0.220916
0.262964 0.221013 0.220919
0.283749 0.221088 0.220939
0.309052 0.221188 0.220983
0.338626 0.221312 0.221050
0.372114 0.221459 0.221140
0.409108 0.221624 0.221249
0.449180 0.221802 0.221375
0.491895 0.221985 0.221509
0.536814 0.222164 0.221644
0.583480 0.222327 0.221769
0.631404 0.222463 0.221875
0.680044 0.222557 0.221949
0.728782 0.222598 0.221980
0.776891 0.222573 0.221959
0.823498 0.222475 0.221880
0.867505 0.222305 0.221743
0.907387 0.222105 0.221562
0.941733 0.221839 0.221346
0.968313 0.221531 0.221127
0.984099 0.221225 0.220961
0.986695 0.220989 0.220916
0.220916 0.220917 0.220916
0.220916 0.220919 0.220916
0.220916 0.220922 0.220916
0.220916 0.220927 0.220916
0.220916 0.220937 0.220916
0.220916 0.220953 0.220916
0.220916 0.220977 0.220916
0.221151 0.221013 0.220916
0.223138 0.221064 0.220916
0.227787 0.221133 0.220916
0.235832 0.221221 0.220916
0.247887 0.221334 0.220917
0.264353 0.221471 0.220932
0.285383 0.221634 0.220966
0.310900 0.221822 0.221022
0.340655 0.222035 0.221100
0.374292 0.222268 0.221197
0.411405 0.222516 0.221311
0.451568 0.222772 0.221438
0.494351 0.223025 0.221570
0.539315 0.223266 0.221698
0.586002 0.223480 0.221814
0.633923 0.223652 0.221907
0.682534 0.223768 0.221965
0.731213 0.223812 0.221979
0.779228 0.223771 0.221940
0.825699 0.223633 0.221843
0.869435 0.223419 0.221694
0.909081 0.223141 0.221502
0.943111 0.222764 0.221284
0.969267 0.222310 0.221076
0.984483 0.221818 0.220935
0.986695 0.221353 0.220916
0.220916 0.221290 0.220916
0.220916 0.221316 0.220916
0.220916 0.221344 0.220916
0.220916 0.221383 0.220916
0.220916 0.221436 0.220916
0.220916 0.221505 0.220916
0.220916 0.221593 0.220916
0.221302 0.221701 0.220916
0.223572 0.221832 0.220916
0.228540 0.221989 0.220916
0.236930 0.222174 0.220918
0.249334 0.222387 0.220933
0.266137 0.222630 0.220964
0.287475 0.222902 0.221014
0.313262 0.223200 0.221084
0.343245 0.223521 0.221172
0.377071 0.223860 0.221276
0.414336 0.224210 0.221394
0.454618 0.224559 0.221519
0.497488 0.224898 0.221646
0.542509 0.225211 0.221765
0.589225 0.225483 0.221866
0.637143 0.225696 0.221941
0.685718 0.225833 0.221978
0.734322 0.225876 0.221968
0.782217 0.225807 0.221905
0.828512 0.225612 0.221787
0.871899 0.225351 0.221624
0.911240 0.224966 0.221422
0.944857 0.224441 0.221206
0.970463 0.223793 0.221016
0.984935 0.223056 0.220918
0.986695 0.222288 0.220916
0.220916 0.222687 0.220916
0.220916 0.222741 0.220916
0.220916 0.222797 0.220916
0.220916 0.222876 0.220916
0.220916 0.222981 0.220916
0.220916 0.223113 0.220916
0.220916 0.223274 0.220916
0.221531 0.223467 0.220916
0.224138 0.223694 0.220917
0.229488 0.223954 0.220924
0.238287 0.224250 0.220943
0.251108 0.224582 0.220977
0.268310 0.224947 0.221025
0.290015 0.225343 0.221091
0.316124 0.225767 0.221172
0.346381 0.226213 0.221269
0.380434 0.226672 0.221378
0.417883 0.227135 0.221496
0.458309 0.227589 0.221617
0.501287 0.228020 0.221733
0.546381 0.228411 0.221837
0.593134 0.228744 0.221918
0.641052 0.228997 0.221969
0.689584 0.229149 0.221978
0.738098 0.229180 0.221940
0.785845 0.229068 0.221849
0.831832 0.228830 0.221709
0.874883 0.228491 0.221530
0.913847 0.227967 0.221322
0.946955 0.227254 0.221115
0.971876 0.226361 0.220958
0.985420 0.225316 0.220916
0.986695 0.224171 0.220916
0.220916 0.225710 0.220916
0.220916 0.225795 0.220916
0.220916 0.225884 0.220916
0.220916 0.226007 0.220916
0.220916 0.226169 0.220916
0.220916 0.226370 0.220916
0.220924 0.226613 0.220919
0.221856 0.226900 0.220928
0.224849 0.227230 0.220944
0.230635 0.227604 0.220970
0.239900 0.228021 0.221008
0.253194 0.228480 0.221058
0.270852 0.228977 0.221122
0.292974 0.229508 0.221200
0.319452 0.230066 0.221291
0.350025 0.230643 0.221392
0.384341 0.231229 0.221502
0.422005 0.231810 0.221614
0.462603 0.232371 0.221724
0.505710 0.232895 0.221824
0.550892 0.233361 0.221906
0.597692 0.233748 0.221961
0.645612 0.234033 0.221980
0.694098 0.234189 0.221957
0.742507 0.234193 0.221886
0.790083 0.234018 0.221764
0.835634 0.233770 0.221605
0.878359 0.233309 0.221411
0.916872 0.232611 0.221203
0.949371 0.231668 0.221020
0.973469 0.230480 0.220920
0.985895 0.229067 0.220916
0.986695 0.227470 0.220916
0.220916 0.231050 0.220921
0.220916 0.231168 0.220923
0.220916 0.231291 0.220926
0.220916 0.231460 0.220931
0.220916 0.231680 0.220939
0.220916 0.231953 0.220951
0.220996 0.232280 0.220968
0.222289 0.232661 0.220992
0.225707 0.233098 0.221024
0.231971 0.233587 0.221066
0.241749 0.234127 0.221118
0.255562 0.234715 0.221182
0.273720 0.235344 0.221256
0.296304 0.236009 0.221342
0.323191 0.236699 0.221436
0.354117 0.237404 0.221537
0.388731 0.238111 0.221640
0.426641 0.238803 0.221740
0.467436 0.239463 0.221831
0.510695 0.240070 0.221907
0.555983 0.240600 0.221959
0.602841 0.241029 0.221980
0.650770 0.241328 0.221963
0.699206 0.241470 0.221902
0.747500 0.241425 0.221795
0.794657 0.241276 0.221649
0.839931 0.240931 0.221468
0.882281 0.240318 0.221268
0.920273 0.239413 0.221077
0.952061 0.238200 0.220943
0.975197 0.236672 0.220916
0.986308 0.234837 0.220916
0.986695 0.232722 0.220916
0.220916 0.239419 0.220985
0.220916 0.239568 0.220992
0.220916 0.239723 0.221001
0.220916 0.239935 0.221013
0.220916 0.240211 0.221029
0.220916 0.240552 0.221052
0.221157 0.240958 0.221080
0.222832 0.241430 0.221116
0.226702 0.241966 0.221160
0.233475 0.242563 0.221212
0.243797 0.243218 0.221274
0.258163 0.243924 0.221345
0.276856 0.244674 0.221424
0.299934 0.245459 0.221510
0.327263 0.246268 0.221600
0.358575 0.247086 0.221691
0.393518 0.247897 0.221778
0.431704 0.248683 0.221857
0.472723 0.249422 0.221922
0.516157 0.250091 0.221965
0.561572 0.250664 0.221980
0.608504 0.251111 0.221961
0.656450 0.251402 0.221902
0.704838 0.251505 0.221801
0.752796 0.251501 0.221665
0.799679 0.251307 0.221495
0.844664 0.250830 0.221303
0.886591 0.250035 0.221115
0.923992 0.248893 0.220967
0.954970 0.247377 0.220916
0.977001 0.245471 0.220916
0.986596 0.243172 0.220916
0.986695 0.241202 0.220916
0.220916 0.251458 0.221125
0.220916 0.251634 0.221137
0.220916 0.251816 0.221149
0.220916 0.252067 0.221166
0.220916 0.252391 0.221188
0.220916 0.252790 0.221217
0.221406 0.253265 0.221252
0.223473 0.253813 0.221295
0.227806 0.254434 0.221344
0.235102 0.255121 0.221401
0.245985 0.255871 0.221465
0.260922 0.256675 0.221536
0.280171 0.257523 0.221610
0.303768 0.258405 0.221687
0.331567 0.259306 0.221763
0.363293 0.260209 0.221835
0.398595 0.261097 0.221898
0.437085 0.261948 0.221946
0.478358 0.262738 0.221975
0.521994 0.263440 0.221978
0.567557 0.264025 0.221950
0.614582 0.264461 0.221886
0.662557 0.264715 0.221785
0.710650 0.264896 0.221653
0.758397 0.264872 0.221490
0.805086 0.264561 0.221308
0.849758 0.263925 0.221126
0.891219 0.262923 0.220979
0.927963 0.261518 0.220916
0.958034 0.259676 0.220916
0.978820 0.257370 0.220916
0.986695 0.254692 0.220916
0.986695 0.254422 0.220916
0.220916 0.267653 0.221329
0.220916 0.267850 0.221342
0.220916 0.268053 0.221356
0.220916 0.268332 0.221375
0.220916 0.268693 0.221399
0.220932 0.269136 0.221430
0.221727 0.269661 0.221467
0.224179 0.270267 0.221509
0.228969 0.270949 0.221558
0.236784 0.271702 0.221611
0.248227 0.272520 0.221669
0.263740 0.273391 0.221729
0.283554 0.274307 0.221789
0.307685 0.275252 0.221847
0.335974 0.276211 0.221899
0.368139 0.277165 0.221942
0.403828 0.278093 0.221971
0.442653 0.278973 0.221980
0.484210 0.279776 0.221966
0.528077 0.280475 0.221924
0.573816 0.281038 0.221850
0.620919 0.281451 0.221744
0.668616 0.281831 0.221613
0.716634 0.281975 0.221454
0.764293 0.281842 0.221280
0.810785 0.281388 0.221109
0.855125 0.280569 0.220973
0.896085 0.279339 0.220916
0.932112 0.277655 0.220916
0.961183 0.275475 0.220916
0.980586 0.272761 0.220916
0.986695 0.272267 0.220916
0.986695 0.271956 0.220916
0.220916 0.288276 0.221567
0.220916 0.288485 0.221579
0.220916 0.288701 0.221592
0.220916 0.288998 0.221609
0.220916 0.289381 0.221632
0.221005 0.289850 0.221659
0.222085 0.290406 0.221691
0.224895 0.291045 0.221727
0.230117 0.291762 0.221766
0.238426 0.292551 0.221807
0.250411 0.293404 0.221849
0.266488 0.294310 0.221890
0.286864 0.295256 0.221926
0.311535 0.296227 0.221956
0.340328 0.297205 0.221975
0.372955 0.298170 0.221980
0.409059 0.299099 0.221967
0.448252 0.299967 0.221932
0.490125 0.300745 0.221872
0.534258 0.301404 0.221785
0.579966 0.302046 0.221674
0.626938 0.302559 0.221540
0.674741 0.302853 0.221384
0.722784 0.302887 0.221221
0.770370 0.302616 0.221067
0.816669 0.301994 0.220952
0.860667 0.300973 0.220916
0.901098 0.299502 0.220916
0.936356 0.297532 0.220916
0.964341 0.295014 0.220916
0.980668 0.294587 0.220916
0.986695 0.294257 0.220916
0.986695 0.293914 0.220916
0.220916 0.313374 0.221792
0.220916 0.313588 0.221801
0.220916 0.313809 0.221810
0.220916 0.314112 0.221823
0.220916 0.314502 0.221839
0.221108 0.314980 0.221858
0.222427 0.315544 0.221879
0.225546 0.316192 0.221901
0.231149 0.316917 0.221924
0.239907 0.317712 0.221945
0.252394 0.318568 0.221963
0.269007 0.319474 0.221976
0.289930 0.320414 0.221980
0.315140 0.321373 0.221974
0.344448 0.322331 0.221954
0.377557 0.323268 0.221917
0.414105 0.324159 0.221860
0.453699 0.324977 0.221782
0.495702 0.325821 0.221685
0.539830 0.326588 0.221567
0.585727 0.327197 0.221431
0.632915 0.327610 0.221282
0.680863 0.327786 0.221134
0.728963 0.327680 0.221005
0.776501 0.327248 0.220926
0.822621 0.326439 0.220916
0.866277 0.325203 0.220916
0.906162 0.323485 0.220916
0.940109 0.321546 0.220916
0.964369 0.321221 0.220916
0.980614 0.320883 0.220916
0.986695 0.320531 0.220916
0.986695 0.320166 0.220916
0.220916 0.342806 0.221946
0.220916 0.343018 0.221950
0.220916 0.343236 0.221954
0.220916 0.343534 0.221959
0.220916 0.343919 0.221965
0.221195 0.344389 0.221971
0.222682 0.344942 0.221976
0.226035 0.345576 0.221980
0.231943 0.346284 0.221980
0.241080 0.347058 0.221975
0.254009 0.347887 0.221964
0.271112 0.348760 0.221944
0.292553 0.349662 0.221913
0.318291 0.350574 0.221869
0.348120 0.351478 0.221810
0.381657 0.352394 0.221735
0.418404 0.353367 0.221646
0.458151 0.354269 0.221540
0.500491 0.355069 0.221418
0.544998 0.355734 0.221286
0.591223 0.356227 0.221152
0.638678 0.356510 0.221031
0.686818 0.356540 0.220943
0.735019 0.356273 0.220916
0.782545 0.355661 0.220916
0.828513 0.354653 0.220916
0.871842 0.353194 0.220916
0.909307 0.352156 0.220916
0.939955 0.351833 0.220916
0.964259 0.351497 0.220916
0.980555 0.351146 0.220916
0.986694 0.350781 0.220916
0.986695 0.350402 0.220916
0.220916 0.376298 0.221971
0.220916 0.376500 0.221969
0.220916 0.376709 0.221966
0.220916 0.376994 0.221962
0.220916 0.377361 0.221955
0.221220 0.377809 0.221946
0.222777 0.378335 0.221933
0.226256 0.378937 0.221915
0.232363 0.379606 0.221891
0.241776 0.380335 0.221860
0.255061 0.381113 0.221819
0.272588 0.381927 0.221768
0.294363 0.382854 0.221709
0.320393 0.383816 0.221637
0.350500 0.384772 0.221552
0.384369 0.385700 0.221455
0.421628 0.386574 0.221347
0.461873 0.387366 0.221233
0.504687 0.388046 0.221119
0.549633 0.388580 0.221016
0.596249 0.388931 0.220942
0.644034 0.389061 0.220916
0.692428 0.388925 0.220916
0.740786 0.388480 0.220916
0.788351 0.387676 0.220916
0.833791 0.386598 0.220916
0.873398 0.386298 0.220916
0.909096 0.385985 0.220916
0.939787 0.385657 0.220916
0.964139 0.385315 0.220916
0.980490 0.384959 0.220916
0.986693 0.384589 0.220916
0.986695 0.384204 0.220916
0.220916 0.413489 0.221825
0.220916 0.413677 0.221816
0.220916 0.413871 0.221807
0.220916 0.414136 0.221794
0.220916 0.414476 0.221776
0.221155 0.414899 0.221753
0.222628 0.415438 0.221725
0.226041 0.416054 0.221691
0.232113 0.416741 0.221650
0.241536 0.417489 0.221600
0.254884 0.418288 0.221541
0.272530 0.419125 0.221473
0.294619 0.419985 0.221396
0.321080 0.420851 0.221311
0.351679 0.421701 0.221220
0.386080 0.422514 0.221128
0.423890 0.423263 0.221041
0.464689 0.423922 0.220968
0.508042 0.424459 0.220923
0.553498 0.424841 0.220916
0.600581 0.425032 0.220916
0.648773 0.424991 0.220916
0.697496 0.424677 0.220916
0.746060 0.424048 0.220916
0.790859 0.423776 0.220916
0.833482 0.423491 0.220916
0.873127 0.423191 0.220916
0.908868 0.422878 0.220916
0.939605 0.422551 0.220916
0.964009 0.422210 0.220916
0.980419 0.421854 0.220916
0.986691 0.421483 0.220916
0.986695 0.421098 0.220916
0.220916 0.454364 0.221523
0.220916 0.454553 0.221511
0.220916 0.454748 0.221498
0.220916 0.455014 0.221480
0.220916 0.455355 0.221456
0.220980 0.455772 0.221426
0.222104 0.456261 0.221390
0.225183 0.456817 0.221348
0.230978 0.457435 0.221299
0.240224 0.458106 0.221244
0.253528 0.458818 0.221184
0.271280 0.459559 0.221121
0.293620 0.460314 0.221058
0.320460 0.461065 0.220999
0.351539 0.461791 0.220950
0.386492 0.462471 0.220920
0.424898 0.463079 0.220916
0.466314 0.463588 0.220916
0.510281 0.463967 0.220916
0.556332 0.464184 0.220916
0.603971 0.464201 0.220916
0.652229 0.464003 0.220916
0.699354 0.463762 0.220916
0.745653 0.463507 0.220916
0.790487 0.463239 0.220916
0.833148 0.462958 0.220916
0.872835 0.462663 0.220916
0.908620 0.462354 0.220916
0.939408 0.462031 0.220916
0.963868 0.461694 0.220916
0.980342 0.461343 0.220916
0.986689 0.460978 0.220916
0.986695 0.460598 0.220916
0.220916 0.498248 0.221143
0.220916 0.498416 0.221132
0.220916 0.498589 0.221120
0.220916 0.498825 0.221105
0.220916 0.499128 0.221085
0.220916 0.499496 0.221061
0.221458 0.499927 0.221034
0.223930 0.500416 0.221005
0.229164 0.500956 0.220976
0.237957 0.501539 0.220949
0.250972 0.502154 0.220927
0.268633 0.502788 0.220917
0.291088 0.503425 0.220916
0.318228 0.504049 0.220916
0.349760 0.504640 0.220916
0.385279 0.505176 0.220916
0.424328 0.505632 0.220916
0.466429 0.505981 0.220916
0.511084 0.506168 0.220916
0.557273 0.505971 0.220916
0.604335 0.505761 0.220916
0.651725 0.505538 0.220916
0.698881 0.505303 0.220916
0.745215 0.505054 0.220916
0.790087 0.504793 0.220916
0.832789 0.504519 0.220916
0.872520 0.504231 0.220916
0.908355 0.503929 0.220916
0.939196 0.503614 0.220916
0.963717 0.503286 0.220916
0.980259 0.502943 0.220916
0.986686 0.502587 0.220916
0.986695 0.502216 0.220916
0.220916 0.544527 0.220917
0.220916 0.544672 0.220916
0.220916 0.544822 0.220916
0.220916 0.545025 0.220916
0.220916 0.545286 0.220916
0.220916 0.545602 0.220916
0.220965 0.545970 0.220916
0.222473 0.546386 0.220916
0.226761 0.546843 0.220916
0.234721 0.547332 0.220916
0.247101 0.547843 0.220916
0.264389 0.548362 0.220916
0.286754 0.548876 0.220916
0.314069 0.549367 0.220916
0.345998 0.549816 0.220916
0.382717 0.549792 0.220916
0.422897 0.549636 0.220916
0.465680 0.549469 0.220916
0.510463 0.549290 0.220916
0.556674 0.549099 0.220916
0.603764 0.548896 0.220916
0.651184 0.548681 0.220916
0.698375 0.548453 0.220916
0.744746 0.548213 0.220916
0.789658 0.547960 0.220916
0.832404 0.547695 0.220916
0.872183 0.547417 0.220916
0.908070 0.547125 0.220916
0.938969 0.546821 0.220916
0.963554 0.546503 0.220916
0.980170 0.546172 0.220916
0.986682 0.545827 0.220916
0.986695 0.545468 0.220916
0.220916 0.592692 0.220916
0.220916 0.592814 0.220916
0.220916 0.592939 0.220916
0.220916 0.593109 0.220916
0.220916 0.593325 0.220916
0.220916 0.593587 0.220916
0.220916 0.593891 0.220916
0.221240 0.594231 0.220916
0.224074 0.594601 0.220916
0.230989 0.594695 0.220916
0.243060 0.594608 0.220916
0.260654 0.594511 0.220916
0.283798 0.594404 0.220916
0.312143 0.594287 0.220916
0.345111 0.594159 0.220916
0.382025 0.594020 0.220916
0.422205 0.593871 0.220916
0.464999 0.593710 0.220916
0.509800 0.593539 0.220916
0.556036 0.593356 0.220916
0.603154 0.593161 0.220916
0.650608 0.592955 0.220916
0.697835 0.592737 0.220916
0.744246 0.592506 0.220916
0.789201 0.592264 0.220916
0.831994 0.592010 0.220916
0.871824 0.591743 0.220916
0.907766 0.591463 0.220916
0.938726 0.591171 0.220916
0.963380 0.590867 0.220916
0.980074 0.590549 0.220916
0.986677 0.590218 0.220916
0.986695 0.589875 0.220916
0.220916 0.639902 0.220916
0.220916 0.639885 0.220916
0.220916 0.639868 0.220916
0.220916 0.639843 0.220916
0.220916 0.639812 0.220916
0.220916 0.639772 0.220916
0.220916 0.639725 0.220916
0.221079 0.639669 0.220916
0.223790 0.639604 0.220916
0.230678 0.639531 0.220916
0.242622 0.639448 0.220916
0.260108 0.639356 0.220916
0.283168 0.639254 0.220916
0.311456 0.639143 0.220916
0.344390 0.639021 0.220916
0.381290 0.638890 0.220916
0.421469 0.638747 0.220916
0.464275 0.638595 0.220916
0.509095 0.638432 0.220916
0.555357 0.638258 0.220916
0.602506 0.638073 0.220916
0.649995 0.637876 0.220916
0.697261 0.637669 0.220916
0.743714 0.637450 0.220916
0.788715 0.637220 0.220916
0.831557 0.636978 0.220916
0.871441 0.636724 0.220916
0.907442 0.636459 0.220916
0.938468 0.636181 0.220916
0.963194 0.635891 0.220916
0.979972 0.635589 0.220916
0.986671 0.635275 0.220916
0.986695 0.634948 0.220916
0.220916 0.684853 0.220916
0.220916 0.684837 0.220916
0.220916 0.684821 0.220916
0.220916 0.684798 0.220916
0.220916 0.684768 0.220916
0.220916 0.684731 0.220916
0.220916 0.684686 0.220916
0.221037 0.684634 0.220916
0.223608 0.684573 0.220916
0.230352 0.684504 0.220916
0.242161 0.684426 0.220916
0.259532 0.684339 0.220916
0.282503 0.684243 0.220916
0.310730 0.684138 0.220916
0.343627 0.684023 0.220916
0.380511 0.683899 0.220916
0.420690 0.683765 0.220916
0.463507 0.683622 0.220916
0.508348 0.683468 0.220916
0.554637 0.683304 0.220916
0.601819 0.683129 0.220916
0.649344 0.682945 0.220916
0.696652 0.682749 0.220916
0.743149 0.682543 0.220916
0.788199 0.682326 0.220916
0.831094 0.682098 0.220916
0.871035 0.681859 0.220916
0.907098 0.681608 0.220916
0.938193 0.681347 0.220916
0.962997 0.681073 0.220916
0.979862 0.680789 0.220916
0.986664 0.680492 0.220916
0.986695 0.680184 0.220916
0.220916 0.729409 0.220916
0.220916 0.729394 0.220916
0.220916 0.729379 0.220916
0.220916 0.729358 0.220916
0.220916 0.729330 0.220916
0.220916 0.729295 0.220916
0.220916 0.729254 0.220916
0.221000 0.729204 0.220916
0.223422 0.729148 0.220916
0.230013 0.729083 0.220916
0.241678 0.729010 0.220916
0.258926 0.728929 0.220916
0.281802 0.728840 0.220916
0.309963 0.728742 0.220916
0.342821 0.728635 0.220916
0.379688 0.728519 0.220916
0.419866 0.728394 0.220916
0.462695 0.728260 0.220916
0.507557 0.728117 0.220916
0.553875 0.727964 0.220916
0.601092 0.727801 0.220916
0.648656 0.727628 0.220916
0.696007 0.727446 0.220916
0.742552 0.727254 0.220916
0.787652 0.727051 0.220916
0.830603 0.726838 0.220916
0.870605 0.726615 0.220916
0.906734 0.726381 0.220916
0.937902 0.726137 0.220916
0.962787 0.725882 0.220916
0.979745 0.725616 0.220916
0.986655 0.725340 0.220916
0.986695 0.725052 0.220916
0.220916 0.772997 0.220916
0.220916 0.772983 0.220916
0.220916 0.772969 0.220916
0.220916 0.772949 0.220916
0.220916 0.772924 0.220916
0.220916 0.772892 0.220916
0.220916 0.772853 0.220916
0.220968 0.772808 0.220916
0.223233 0.772756 0.220916
0.229662 0.772696 0.220916
0.241174 0.772629 0.220916
0.258290 0.772554 0.220916
0.281065 0.772472 0.220916
0.309155 0.772381 0.220916
0.341971 0.772283 0.220916
0.378819 0.772176 0.220916
0.418997 0.772061 0.220916
0.461838 0.771937 0.220916
0.506723 0.771805 0.220916
0.553071 0.771664 0.220916
0.600324 0.771514 0.220916
0.647930 0.771355 0.220916
0.695326 0.771187 0.220916
0.741921 0.771009 0.220916
0.787076 0.770822 0.220916
0.830085 0.770626 0.220916
0.870150 0.770420 0.220916
0.906350 0.770205 0.220916
0.937594 0.769979 0.220916
0.962565 0.769744 0.220916
0.979621 0.769499 0.220916
0.986648 0.769108 0.220916
0.986695 0.767364 0.220916
0.220916 0.814984 0.220916
0.220916 0.814972 0.220916
0.220916 0.814959 0.220916
0.220916 0.814941 0.220916
0.220916 0.814918 0.220916
0.220916 0.814889 0.220916
0.220916 0.814854 0.220916
0.220942 0.814813 0.220916
0.223041 0.814765 0.220916
0.229299 0.814711 0.220916
0.240648 0.814650 0.220916
0.257625 0.814582 0.220916
0.280292 0.814508 0.220916
0.308307 0.814425 0.220916
0.341078 0.814336 0.220916
0.377906 0.814239 0.220916
0.418082 0.814134 0.220916
0.460936 0.814022 0.220916
0.505845 0.813902 0.220916
0.552225 0.813774 0.220916
0.599516 0.813637 0.220916
0.647165 0.813493 0.220916
0.694609 0.813340 0.220916
0.741256 0.813179 0.220916
0.786468 0.813009 0.220916
0.829539 0.812831 0.220916
0.869671 0.812644 0.220916
0.905944 0.812448 0.220916
0.937269 0.812243 0.220916
0.962754 0.811250 0.220916
0.980097 0.809783 0.220916
0.986693 0.808250 0.220916
0.986695 0.806651 0.220916
0.220916 0.854662 0.220916
0.220916 0.854651 0.220916
0.220916 0.854640 0.220916
0.220916 0.854624 0.220916
0.220916 0.854603 0.220916
0.220916 0.854578 0.220916
0.220916 0.854546 0.220916
0.220925 0.854510 0.220916
0.222849 0.854468 0.220916
0.228925 0.854419 0.220916
0.240103 0.854365 0.220916
0.256931 0.854305 0.220916
0.279483 0.854238 0.220916
0.307418 0.854165 0.220916
0.340141 0.854085 0.220916
0.376946 0.853999 0.220916
0.417121 0.853906 0.220916
0.459988 0.853806 0.220916
0.504922 0.853699 0.220916
0.551335 0.853584 0.220916
0.598666 0.853463 0.220916
0.646361 0.853334 0.220916
0.693855 0.853198 0.220916
0.740558 0.853055 0.220916
0.785829 0.852903 0.220916
0.828964 0.852744 0.220916
0.869950 0.851952 0.220916
0.907206 0.850802 0.220916
0.939130 0.849596 0.220916
0.964298 0.848333 0.220916
0.980924 0.847012 0.220916
0.986695 0.845631 0.220916
0.986695 0.844189 0.220916
0.220916 0.891220 0.220916
0.220916 0.891210 0.220916
0.220916 0.891200 0.220916
0.220916 0.891187 0.220916
0.220916 0.891169 0.220916
0.220916 0.891146 0.220916
0.220916 0.891119 0.220916
0.220917 0.891088 0.220916
0.222657 0.891051 0.220916
0.228542 0.891009 0.220916
0.239538 0.890962 0.220916
0.256209 0.890910 0.220916
0.278638 0.890852 0.220916
0.306488 0.890789 0.220916
0.339160 0.890720 0.220916
0.375941 0.890645 0.220916
0.416113 0.890565 0.220916
0.458994 0.890478 0.220916
0.503954 0.890385 0.220916
