studio/assets/luts/productivity.cube
TITLE "Productivity — Calm Focus"
# Teal undertones with warm whites. Calm, focused atmosphere.
# Generated by Like One Studio — cinema-grade pipeline
# Color science: lift/gamma/gain + filmic S-curve + zone tinting
LUT_3D_SIZE 5
# Domain: standard 0-1 range
DOMAIN_MIN 0.0 0.0 0.0
DOMAIN_MAX 1.0 1.0 1.0
0.220916 0.220916 0.220916
0.222401 0.220916 0.220916
0.368957 0.220934 0.221065
0.725265 0.221435 0.221970
0.986695 0.220916 0.220917
0.220916 0.239419 0.220985
0.226702 0.241966 0.221160
0.393518 0.247897 0.221778
0.752796 0.251501 0.221665
0.986695 0.241202 0.220916
0.220916 0.454364 0.221523
0.230978 0.457435 0.221299
0.424898 0.463079 0.220916
0.790487 0.463239 0.220916
0.986695 0.460598 0.220916
0.220916 0.814984 0.220916
0.223041 0.814765 0.220916
0.418082 0.814134 0.220916
0.786468 0.813009 0.220916
0.986695 0.806651 0.220916
0.220916 0.986695 0.220916
0.240872 0.986695 0.220916
0.482939 0.986695 0.223722
0.840493 0.986695 0.248833
0.986695 0.986695 0.325203
0.220916 0.220916 0.232373
0.222767 0.220916 0.235402
0.371724 0.220958 0.243759
0.728347 0.221436 0.253508
0.986695 0.220916 0.249903
0.220916 0.240306 0.242358
0.227159 0.242783 0.245026
0.395640 0.248428 0.251159
0.755125 0.251451 0.254665
0.986695 0.241133 0.243459
0.220916 0.455471 0.254371
0.230664 0.458348 0.253603
0.424921 0.463433 0.249276
0.790408 0.463121 0.243019
0.986695 0.460480 0.241440
0.220916 0.814910 0.241312
0.223017 0.814691 0.241108
0.417962 0.814060 0.240527
0.786389 0.812934 0.239510
0.986695 0.806153 0.235108
0.220916 0.986695 0.245661
0.242677 0.986695 0.251498
0.485677 0.986695 0.271577
0.841830 0.986695 0.317804
0.986695 0.986695 0.404234
0.220916 0.220916 0.381626
0.223948 0.220916 0.391324
0.379333 0.221065 0.416041
0.736859 0.221402 0.448035
0.986695 0.220916 0.467986
0.220916 0.242730 0.411978
0.228424 0.244974 0.419734
0.401376 0.249732 0.438783
0.761512 0.251056 0.460878
0.986695 0.240935 0.467383
0.220916 0.458289 0.462712
0.229638 0.460605 0.464923
0.424616 0.464087 0.468108
0.790181 0.462782 0.466663
0.986695 0.460141 0.464027
0.220916 0.814696 0.463808
0.222947 0.814477 0.463461
0.417618 0.813845 0.462462
0.786159 0.812719 0.460683
0.986695 0.804715 0.451107
0.220916 0.986695 0.476507
0.248303 0.986695 0.484051
0.493666 0.986695 0.506702
0.845728 0.986695 0.550130
0.986695 0.986695 0.620461
0.220916 0.220916 0.689124
0.226285 0.220945 0.701381
0.391543 0.221292 0.733032
0.750641 0.221232 0.777348
0.986695 0.220916 0.819716
0.220916 0.246454 0.727756
0.230363 0.248181 0.737866
0.410218 0.251182 0.763736
0.771750 0.249451 0.799278
0.986695 0.240584 0.819000
0.220916 0.461951 0.803082
0.227454 0.463274 0.808293
0.423076 0.463956 0.819659
0.789776 0.462178 0.818550
0.986695 0.459536 0.816897
0.220916 0.814315 0.816760
0.222826 0.814095 0.816542
0.417004 0.813463 0.815914
0.785752 0.812336 0.814794
0.986695 0.802144 0.807216
0.220932 0.986695 0.826960
0.259845 0.986695 0.830289
0.508261 0.986695 0.840379
0.852826 0.986695 0.859950
0.986695 0.986695 0.891597
0.220916 0.221124 0.969238
0.229553 0.221256 0.974231
0.406463 0.221434 0.983749
0.767327 0.220951 0.986695
0.986695 0.220916 0.986695
0.220916 0.250210 0.982554
0.232123 0.251017 0.984685
0.419510 0.251407 0.986695
0.784413 0.245100 0.986695
0.986695 0.240068 0.986695
0.220916 0.464204 0.986695
0.223957 0.464059 0.986695
0.422166 0.463060 0.986695
0.789176 0.461281 0.986695
0.986695 0.458638 0.986695
0.220916 0.813748 0.986695
0.222654 0.813528 0.986695
0.416094 0.812895 0.986695
0.788306 0.809521 0.986695
0.986695 0.804248 0.986695
0.224898 0.986695 0.986695
0.280324 0.986695 0.986695
0.530753 0.986695 0.986695
0.863691 0.986695 0.986695
0.986695 0.986695 0.986695
