studio/assets/luts/productivity.cube
TITLE "Productivity — Calm Focus"
# Teal undertones with warm whites. Calm, focused atmosphere.
# Generated by Like One Studio — cinema-grade pipeline
# Color science: lift/gamma/gain + filmic S-curve + zone tinting
LUT_3D_SIZE 9
# Domain: standard 0-1 range
DOMAIN_MIN 0.0 0.0 0.0
DOMAIN_MAX 1.0 1.0 1.0
0.220916 0.220916 0.220916
0.220916 0.220916 0.220916
0.222401 0.220916 0.220916
0.260966 0.220916 0.220916
0.368957 0.220934 0.221065
0.533193 0.221192 0.221561
0.725265 0.221435 0.221970
0.904925 0.221186 0.221642
0.986695 0.220916 0.220917
0.220916 0.221290 0.220916
0.220916 0.221436 0.220916
0.223572 0.221832 0.220916
0.266137 0.222630 0.220964
0.377071 0.223860 0.221276
0.542509 0.225211 0.221765
0.734322 0.225876 0.221968
0.911240 0.224966 0.221422
0.986695 0.222288 0.220916
0.220916 0.239419 0.220985
0.220916 0.240211 0.221029
0.226702 0.241966 0.221160
0.276856 0.244674 0.221424
0.393518 0.247897 0.221778
0.561572 0.250664 0.221980
0.752796 0.251501 0.221665
0.923992 0.248893 0.220967
0.986695 0.241202 0.220916
0.220916 0.313374 0.221792
0.220916 0.314502 0.221839
0.231149 0.316917 0.221924
0.289930 0.320414 0.221980
0.414105 0.324159 0.221860
0.585727 0.327197 0.221431
0.776501 0.327248 0.220926
0.940109 0.321546 0.220916
0.986695 0.320166 0.220916
0.220916 0.454364 0.221523
0.220916 0.455355 0.221456
0.230978 0.457435 0.221299
0.293620 0.460314 0.221058
0.424898 0.463079 0.220916
0.603971 0.464201 0.220916
0.790487 0.463239 0.220916
0.939408 0.462031 0.220916
0.986695 0.460598 0.220916
0.220916 0.639902 0.220916
0.220916 0.639812 0.220916
0.223790 0.639604 0.220916
0.283168 0.639254 0.220916
0.421469 0.638747 0.220916
0.602506 0.638073 0.220916
0.788715 0.637220 0.220916
0.938468 0.636181 0.220916
0.986695 0.634948 0.220916
0.220916 0.814984 0.220916
0.220916 0.814918 0.220916
0.223041 0.814765 0.220916
0.280292 0.814508 0.220916
0.418082 0.814134 0.220916
0.599516 0.813637 0.220916
0.786468 0.813009 0.220916
0.937269 0.812243 0.220916
0.986695 0.806651 0.220916
0.220916 0.951002 0.220916
0.220916 0.950970 0.220916
0.222279 0.950894 0.220916
0.279159 0.950122 0.220916
0.421172 0.948893 0.220916
0.607433 0.947229 0.220916
0.797324 0.945232 0.220916
0.947206 0.949044 0.220916
0.986695 0.953326 0.221672
0.220916 0.986695 0.220916
0.220917 0.986695 0.220916
0.240872 0.986695 0.220916
0.329486 0.986695 0.221151
0.482939 0.986695 0.223722
0.665457 0.986695 0.231662
0.840493 0.986695 0.248833
0.964358 0.986695 0.279130
0.986695 0.986695 0.325203
0.220916 0.220916 0.221140
0.220916 0.220916 0.221273
0.222509 0.220916 0.221668
0.261499 0.220916 0.222543
0.369802 0.220940 0.224024
0.534162 0.221206 0.225866
0.726206 0.221436 0.227224
0.905585 0.221174 0.226806
0.986695 0.220916 0.223862
0.220916 0.221338 0.221680
0.220916 0.221489 0.221886
0.223701 0.221897 0.222415
0.266644 0.222704 0.223419
0.377858 0.223932 0.224904
0.543415 0.225257 0.226507
0.735204 0.225873 0.227343
0.911850 0.224915 0.226277
0.986695 0.222219 0.222970
0.220916 0.239690 0.223568
0.220916 0.240476 0.223837
0.226841 0.242217 0.224449
0.277281 0.244894 0.225421
0.394168 0.248062 0.226551
0.562334 0.250745 0.227309
0.753508 0.251490 0.226854
0.924498 0.248747 0.224525
0.986695 0.241181 0.221498
0.220916 0.313762 0.226593
0.220916 0.314874 0.226744
0.231227 0.317252 0.227031
0.290174 0.320685 0.227308
0.414519 0.324335 0.227222
0.586208 0.327277 0.226299
0.777020 0.327166 0.224111
0.940097 0.321512 0.221504
0.986695 0.320132 0.221356
0.220916 0.454707 0.226533
0.220916 0.455680 0.226366
0.230885 0.457719 0.225927
0.293511 0.460528 0.225044
0.424912 0.463194 0.223580
0.604143 0.464183 0.221748
0.790463 0.463204 0.221421
0.939395 0.461996 0.221305
0.986695 0.460563 0.221186
0.220916 0.639871 0.221471
0.220916 0.639781 0.221460
0.223781 0.639574 0.221435
0.283138 0.639224 0.221393
0.421433 0.638717 0.221336
0.602474 0.638042 0.221266
0.788691 0.637189 0.221186
0.938455 0.636150 0.221103
0.986695 0.634917 0.221024
0.220916 0.814962 0.221170
0.220916 0.814895 0.221163
0.223034 0.814743 0.221146
0.280261 0.814485 0.221118
0.418046 0.814112 0.221082
0.599484 0.813615 0.221039
0.786444 0.812986 0.220993
0.937256 0.812220 0.220952
0.986695 0.806500 0.220916
0.220916 0.950991 0.220960
0.220916 0.950958 0.220957
0.222273 0.950883 0.220950
0.279354 0.950049 0.220918
0.421404 0.948819 0.220916
0.607637 0.947153 0.220916
0.797546 0.945348 0.220916
0.947316 0.949154 0.220925
0.986695 0.953442 0.228122
0.220916 0.986695 0.221710
0.220926 0.986695 0.222099
0.241411 0.986695 0.223297
0.330352 0.986695 0.226288
0.483766 0.986695 0.232794
0.666096 0.986695 0.245355
0.840897 0.986695 0.267058
0.964505 0.986695 0.300849
0.986695 0.986695 0.348755
0.220916 0.220916 0.232373
0.220916 0.220916 0.233286
0.222767 0.220916 0.235402
0.262716 0.220916 0.238943
0.371724 0.220958 0.243759
0.536367 0.221237 0.249124
0.728347 0.221436 0.253508
0.907084 0.221146 0.254628
0.986695 0.220916 0.249903
0.220916 0.221455 0.235461
0.220916 0.221619 0.236380
0.224002 0.222050 0.238476
0.267800 0.222876 0.241889
0.379646 0.224094 0.246350
0.545473 0.225359 0.251025
0.737211 0.225861 0.254324
0.913236 0.224795 0.254072
0.986695 0.222062 0.247792
0.220916 0.240306 0.242358
0.220916 0.241079 0.243190
0.227159 0.242783 0.245026
0.278244 0.245388 0.247840
0.395640 0.248428 0.251159
0.564065 0.250916 0.253964
0.755125 0.251451 0.254665
0.925647 0.248398 0.251252
0.986695 0.241133 0.243459
0.220916 0.314635 0.251289
0.220916 0.315710 0.251767
0.231399 0.318002 0.252738
0.290714 0.321286 0.253957
0.415449 0.324717 0.254749
0.587292 0.327440 0.254099
0.778198 0.326953 0.250428
0.940068 0.321432 0.243494
0.986695 0.320052 0.242624
0.220916 0.455471 0.254371
0.220916 0.456404 0.254180
0.230664 0.458348 0.253603
0.293239 0.460998 0.252202
0.424921 0.463433 0.249276
0.604519 0.464118 0.243957
0.790408 0.463121 0.243019
0.939366 0.461913 0.242290
0.986695 0.460480 0.241440
0.220916 0.639801 0.243311
0.220916 0.639711 0.243247
0.223762 0.639503 0.243099
0.283066 0.639153 0.242852
0.421350 0.638646 0.242495
0.602401 0.637971 0.242025
0.788636 0.637119 0.241437
0.938426 0.636080 0.240731
0.986695 0.634846 0.239906
0.220916 0.814910 0.241312
0.220916 0.814844 0.241250
0.223017 0.814691 0.241108
0.280191 0.814433 0.240870
0.417962 0.814060 0.240527
0.599410 0.813563 0.240074
0.786389 0.812934 0.239510
0.937231 0.812162 0.238828
0.986695 0.806153 0.235108
0.220916 0.950966 0.238982
0.220916 0.950933 0.238923
0.222359 0.950720 0.238617
0.279802 0.949879 0.237524
0.421937 0.948646 0.235995
0.608104 0.946977 0.234060
0.798057 0.945612 0.232741
0.947569 0.949407 0.238570
0.986695 0.953711 0.263003
0.220916 0.986695 0.245661
0.220981 0.986695 0.247365
0.242677 0.986695 0.251498
0.332356 0.986695 0.259131
0.485677 0.986695 0.271577
0.667573 0.986695 0.290508
0.841830 0.986695 0.317804
0.964844 0.986695 0.355252
0.986695 0.986695 0.404234
0.220916 0.220916 0.281017
0.220916 0.220916 0.283057
0.223230 0.220916 0.287643
0.264741 0.220916 0.294999
0.374898 0.220996 0.304649
0.540011 0.221286 0.315413
0.731890 0.221429 0.325268
0.909553 0.221099 0.331409
0.986695 0.220916 0.330184
0.220916 0.221675 0.287768
0.220916 0.221859 0.289709
0.224524 0.222321 0.294047
0.269712 0.223168 0.300929
0.382592 0.224358 0.309802
0.548871 0.225511 0.319420
0.740529 0.225817 0.327724
0.915518 0.224576 0.331988
0.986695 0.221811 0.328426
0.220916 0.241321 0.301865
0.220916 0.242069 0.303519
0.227686 0.243709 0.307165
0.279817 0.246183 0.312794
0.398051 0.249002 0.319711
0.566912 0.251155 0.326556
0.757792 0.251334 0.331307
0.927536 0.247766 0.331122
0.986695 0.241052 0.325001
0.220916 0.316043 0.319996
0.220916 0.317055 0.321058
0.231660 0.319200 0.323315
0.291564 0.322233 0.326534
0.416895 0.325320 0.329861
0.589053 0.327644 0.331977
0.780129 0.326525 0.330570
0.940019 0.321299 0.325057
0.986695 0.319919 0.323669
0.220916 0.456689 0.331802
0.220916 0.457552 0.331939
0.230266 0.459336 0.332060
0.292717 0.461718 0.331650
0.424863 0.463766 0.329694
0.604640 0.463975 0.325263
0.790315 0.462983 0.324301
0.939317 0.461775 0.323131
0.986695 0.460342 0.321747
0.220916 0.639682 0.324766
0.220916 0.639592 0.324664
0.223728 0.639384 0.324430
0.282946 0.639034 0.324034
0.421209 0.638527 0.323462
0.602277 0.637852 0.322701
0.788542 0.636999 0.321742
0.938376 0.635960 0.320578
0.986695 0.634726 0.319200
0.220916 0.814822 0.321537
0.220916 0.814756 0.321435
0.222988 0.814603 0.321202
0.280072 0.814346 0.320808
0.417821 0.813972 0.320239
0.599286 0.813475 0.319482
0.786295 0.812846 0.318529
0.937551 0.811584 0.316848
0.986695 0.805566 0.310184
0.220916 0.950922 0.317629
0.220916 0.950890 0.317528
0.222515 0.950435 0.316483
0.280562 0.949591 0.314575
0.422837 0.948354 0.311827
0.608893 0.946679 0.308195
0.798918 0.946056 0.307466
0.947950 0.949786 0.320051
0.986695 0.954171 0.354004
0.220916 0.986695 0.330988
0.221189 0.986695 0.333439
0.244900 0.986695 0.339178
0.335776 0.986695 0.349171
0.488923 0.986695 0.364283
0.670079 0.986695 0.385511
0.843415 0.986695 0.413957
0.965417 0.986695 0.450732
0.986695 0.986695 0.496802
0.220916 0.220916 0.381626
0.220916 0.220916 0.384623
0.223948 0.220916 0.391324
0.267597 0.220918 0.402006
0.379333 0.221065 0.416041
0.545112 0.221348 0.432082
0.736859 0.221402 0.448035
0.912993 0.221031 0.461207
0.986695 0.220916 0.467986
0.220916 0.222035 0.391506
0.220916 0.222239 0.394330
0.225302 0.222732 0.400626
0.272389 0.223588 0.410614
0.386695 0.224713 0.423634
0.553618 0.225687 0.438319
0.745178 0.225705 0.452571
0.918695 0.224228 0.463785
0.986695 0.221484 0.468171
0.220916 0.242730 0.411978
0.220916 0.243437 0.414390
0.228424 0.244974 0.419734
0.281976 0.247248 0.428107
0.401376 0.249732 0.438783
0.570871 0.251392 0.450360
0.761512 0.251056 0.460878
0.930160 0.246758 0.467464
0.986695 0.240935 0.467383
0.220916 0.317932 0.439237
0.220916 0.318852 0.440945
0.231970 0.320783 0.444671
0.292653 0.323449 0.450318
0.418559 0.326182 0.457123
0.591450 0.327783 0.463704
0.782801 0.325750 0.467831
0.939948 0.321105 0.467441
0.986695 0.319726 0.466012
0.220916 0.458289 0.462712
0.220916 0.459052 0.463442
0.229638 0.460605 0.464923
0.291818 0.462598 0.466794
0.424616 0.464087 0.468108
0.604461 0.463774 0.467653
0.790181 0.462782 0.466663
0.939246 0.461574 0.465457
0.986695 0.460141 0.464027
0.220916 0.639510 0.467142
0.220916 0.639420 0.467037
0.223681 0.639212 0.466796
0.282772 0.638862 0.466388
0.421006 0.638355 0.465798
0.602097 0.637680 0.465013
0.788408 0.636827 0.464022
0.938304 0.635787 0.462814
0.986695 0.634553 0.461382
0.220916 0.814696 0.463808
0.220916 0.814629 0.463703
0.222947 0.814477 0.463461
0.279901 0.814219 0.463053
0.417618 0.813845 0.462462
0.599105 0.813348 0.461676
0.786159 0.812719 0.460683
0.938012 0.810746 0.458143
0.986695 0.804715 0.451107
0.220916 0.950736 0.459464
0.220916 0.950520 0.458948
0.222756 0.950021 0.457761
0.281665 0.949173 0.455756
0.424139 0.947930 0.452852
0.610032 0.946246 0.448983
0.800161 0.946695 0.451098
0.948518 0.950349 0.466278
0.986695 0.954849 0.497504
0.220916 0.986695 0.476507
0.221747 0.986695 0.478774
0.248303 0.986695 0.484051
0.340807 0.986695 0.493144
0.493666 0.986695 0.506702
0.673739 0.986695 0.525438
0.845728 0.986695 0.550130
0.966248 0.986695 0.581571
0.986695 0.986695 0.620461
0.220916 0.220916 0.524186
0.220916 0.220916 0.527778
0.224963 0.220916 0.535812
0.271244 0.220962 0.548661
0.384942 0.221168 0.565707
0.551588 0.221407 0.585648
0.743188 0.221340 0.606552
0.917338 0.220956 0.626113
0.986695 0.220916 0.641202
0.220916 0.222566 0.536030
0.220916 0.222784 0.539421
0.226351 0.223293 0.546996
0.275769 0.224124 0.559085
0.391859 0.225126 0.575062
0.559629 0.225833 0.593636
0.750985 0.225494 0.612918
0.922701 0.223720 0.630647
0.986695 0.221157 0.643506
0.220916 0.244480 0.560745
0.220916 0.245125 0.563687
0.229340 0.246509 0.570242
0.284623 0.248495 0.580639
0.405501 0.250514 0.594237
0.575844 0.251505 0.609771
0.766213 0.250487 0.625565
0.933456 0.245254 0.639064
0.986695 0.240779 0.642812
0.220916 0.320172 0.594828
0.220916 0.320968 0.597060
0.232253 0.322611 0.601996
0.293842 0.324786 0.609713
0.420474 0.327044 0.619643
0.594365 0.327681 0.630497
0.786132 0.324434 0.640440
0.939854 0.320848 0.642861
0.986695 0.319469 0.641638
0.220916 0.460121 0.628698
0.220916 0.460750 0.630013
0.228719 0.461998 0.632859
0.290364 0.463475 0.637103
0.423989 0.464219 0.642015
0.604222 0.463507 0.643043
0.790002 0.462515 0.642195
0.939151 0.461307 0.641163
0.986695 0.459873 0.639937
0.220916 0.639281 0.642605
0.220916 0.639191 0.642515
0.223618 0.638983 0.642309
0.282541 0.638633 0.641960
0.420735 0.638126 0.641455
0.601858 0.637450 0.640782
0.788228 0.636597 0.639932
0.938209 0.635557 0.638897
0.986695 0.634323 0.637667
0.220916 0.814527 0.639749
0.220916 0.814461 0.639659
0.222893 0.814308 0.639452
0.279673 0.814050 0.639102
0.417347 0.813677 0.638595
0.598866 0.813179 0.637920
0.785979 0.812550 0.637067
0.938623 0.809628 0.633987
0.986695 0.803581 0.627916
0.220916 0.950187 0.635124
0.220916 0.949970 0.634680
0.223101 0.949468 0.633658
0.283142 0.948613 0.631930
0.425871 0.947362 0.629424
0.611547 0.945667 0.626078
0.801809 0.947538 0.631233
0.949300 0.951126 0.645244
0.986695 0.955771 0.668436
0.220916 0.986695 0.652831
0.222972 0.986695 0.654514
0.253168 0.986695 0.658434
0.347649 0.986695 0.665193
0.500060 0.986695 0.675282
0.678667 0.986695 0.689238
0.848842 0.986695 0.707642
0.967355 0.986695 0.731070
0.986695 0.986695 0.759994
0.220916 0.220916 0.689124
0.220916 0.220916 0.692909
0.226285 0.220945 0.701381
0.275562 0.221070 0.714952
0.391543 0.221292 0.733032
0.559260 0.221437 0.754403
0.750641 0.221232 0.777348
0.922455 0.220916 0.799937
0.986695 0.220916 0.819716
0.220916 0.223271 0.701611
0.220916 0.223491 0.705189
0.227651 0.223984 0.713192
0.279713 0.224735 0.725995
0.397892 0.225530 0.743018
0.566724 0.225870 0.763079
0.757616 0.225156 0.784566
0.927411 0.223038 0.805497
0.986695 0.221134 0.819508
0.220916 0.246454 0.727756
0.220916 0.247011 0.730883
0.230363 0.248181 0.737866
0.287582 0.249776 0.749003
0.410218 0.251182 0.763736
0.581276 0.251477 0.780991
0.771750 0.249451 0.799278
0.937316 0.243113 0.816599
0.986695 0.240584 0.819000
0.220916 0.322547 0.764381
0.220916 0.323184 0.766826
0.232394 0.324460 0.772267
0.294552 0.326232 0.780925
0.422402 0.327665 0.792284
0.597599 0.327084 0.805309
0.789981 0.322313 0.818585
0.939735 0.320523 0.819037
0.986695 0.319145 0.818142
0.220916 0.461951 0.803082
0.220916 0.462412 0.804707
0.227454 0.463274 0.808293
0.288114 0.464101 0.813879
0.423076 0.463956 0.819659
0.603922 0.463170 0.819169
0.789776 0.462178 0.818550
0.939032 0.460969 0.817795
0.986695 0.459536 0.816897
0.220916 0.638992 0.818850
0.220916 0.638902 0.818784
0.223540 0.638694 0.818633
0.282250 0.638344 0.818378
0.420393 0.637836 0.818008
0.601557 0.637161 0.817516
0.788002 0.636307 0.816894
0.938088 0.635267 0.816136
0.986695 0.634032 0.815234
0.220916 0.814315 0.816760
0.220916 0.814248 0.816694
0.222826 0.814095 0.816542
0.279385 0.813837 0.816286
0.417004 0.813463 0.815914
0.598563 0.812965 0.815420
0.785752 0.812336 0.814794
0.939389 0.808213 0.811698
0.986695 0.802144 0.807216
0.220916 0.949489 0.812535
0.220916 0.949270 0.812209
0.223578 0.948763 0.811456
0.285019 0.947902 0.810182
0.428056 0.946639 0.808332
0.613716 0.945454 0.806750
0.803880 0.948590 0.812746
0.950333 0.952149 0.822479
0.986695 0.956968 0.836267
0.220932 0.986695 0.826960
0.225318 0.986695 0.827958
0.259845 0.986695 0.830289
0.356517 0.986695 0.834325
0.508261 0.986695 0.840379
0.684981 0.986695 0.848800
0.852826 0.986695 0.859950
0.968751 0.986695 0.874155
0.986695 0.986695 0.891597
0.220916 0.220960 0.851360
0.220916 0.220988 0.854711
0.227862 0.221071 0.862170
0.280336 0.221228 0.873992
0.398848 0.221400 0.889479
0.567858 0.221398 0.907346
0.758679 0.221096 0.925944
0.928163 0.220916 0.943447
0.986695 0.220916 0.954416
0.220916 0.224108 0.862372
0.220916 0.224309 0.865503
0.229119 0.224738 0.872467
0.283986 0.225331 0.883489
0.404502 0.225818 0.897891
0.574632 0.225690 0.914445
0.765064 0.224564 0.931621
0.932653 0.222211 0.947635
0.986695 0.221107 0.954311
0.220916 0.248459 0.884993
0.220916 0.248897 0.887655
0.231358 0.249782 0.893564
0.290583 0.250869 0.902880
0.415222 0.251503 0.914979
0.587027 0.251018 0.928819
0.777910 0.247733 0.942947
0.940075 0.241179 0.954495
0.986695 0.240347 0.954068
0.220916 0.324749 0.915503
0.220916 0.325193 0.917482
0.232050 0.326239 0.921882
0.294591 0.327397 0.928767
0.424014 0.327716 0.937605
0.600874 0.325655 0.947495
0.790832 0.321292 0.954445
0.939591 0.320128 0.954086
0.986695 0.318751 0.953657
0.220916 0.463453 0.945821
0.220916 0.463710 0.947043
0.225830 0.464103 0.949725
0.284768 0.464140 0.953868
0.422660 0.463546 0.954383
0.603555 0.462760 0.954149
0.789502 0.461768 0.953852
0.938886 0.460559 0.953490
0.986695 0.459125 0.953058
0.220916 0.638640 0.953996
0.220916 0.638550 0.953965
0.223446 0.638342 0.953892
0.281896 0.637992 0.953770
0.419976 0.637484 0.953593
0.601189 0.636808 0.953356
0.787726 0.635954 0.953056
0.937941 0.634914 0.952689
0.986695 0.633678 0.952252
0.220916 0.814055 0.952991
0.220916 0.813989 0.952960
0.222746 0.813836 0.952886
0.279036 0.813578 0.952762
0.416588 0.813204 0.952582
0.598195 0.812705 0.952342
0.786210 0.811555 0.951862
0.940314 0.806484 0.950021
0.986695 0.801190 0.948132
0.220916 0.948631 0.950435
0.220916 0.948410 0.950273
0.224220 0.947898 0.949901
0.287324 0.947027 0.949267
0.430714 0.945752 0.948342
0.617137 0.946764 0.949437
0.806750 0.949805 0.952308
0.951653 0.953455 0.955708
0.986695 0.958468 0.960412
0.221866 0.986695 0.957226
0.229389 0.986695 0.957566
0.268743 0.986695 0.958362
0.367648 0.986695 0.959745
0.518434 0.986695 0.961823
0.692801 0.986695 0.964699
0.857753 0.986695 0.968441
0.970440 0.986695 0.973012
0.986695 0.986695 0.978143
0.220916 0.221124 0.969238
0.220916 0.221165 0.970847
0.229553 0.221256 0.974231
0.285234 0.221379 0.978967
0.406463 0.221434 0.983749
0.577016 0.221262 0.986578
0.767327 0.220951 0.986695
0.934235 0.220916 0.986695
0.986695 0.220916 0.986695
0.220916 0.224961 0.974318
0.220916 0.225115 0.975649
0.230587 0.225422 0.978404
0.288240 0.225767 0.982116
0.411290 0.225845 0.985502
0.582494 0.225267 0.986695
0.773040 0.223670 0.986695
0.938211 0.221384 0.986695
0.986695 0.221078 0.986695
0.220916 0.250210 0.982554
0.220916 0.250495 0.983283
0.232123 0.251017 0.984685
0.293254 0.251473 0.986200
0.419510 0.251407 0.986695
0.592872 0.249781 0.986695
0.784413 0.245100 0.986695
0.939904 0.240895 0.986695
0.986695 0.240068 0.986695
0.220916 0.326719 0.986695
0.220916 0.327023 0.986695
0.231054 0.327531 0.986695
0.293707 0.327776 0.986695
0.424882 0.326775 0.986695
0.603822 0.322969 0.986695
0.790507 0.320823 0.986695
0.939419 0.319660 0.986695
0.986695 0.318284 0.986695
0.220916 0.464204 0.986695
0.220916 0.464219 0.986695
0.223957 0.464059 0.986695
0.283765 0.463651 0.986695
0.422166 0.463060 0.986695
0.603121 0.462274 0.986695
0.789176 0.461281 0.986695
0.938713 0.460072 0.986695
0.986695 0.458638 0.986695
0.220916 0.638223 0.986695
0.220916 0.638132 0.986695
0.223338 0.637925 0.986695
0.281477 0.637574 0.986695
0.419483 0.637066 0.986695
0.600754 0.636390 0.986695
0.787399 0.635535 0.986695
0.937766 0.634494 0.986695
0.986695 0.633258 0.986695
0.220916 0.813748 0.986695
0.220916 0.813681 0.986695
0.222654 0.813528 0.986695
0.278622 0.813270 0.986695
0.416094 0.812895 0.986695
0.597758 0.812397 0.986695
0.788306 0.809521 0.986695
0.941400 0.804424 0.986695
0.986695 0.804248 0.986695
0.220916 0.947602 0.986695
0.220916 0.947378 0.986695
0.225067 0.946860 0.986695
0.290084 0.945979 0.986695
0.434502 0.945809 0.986695
0.621175 0.948292 0.986695
0.811085 0.951202 0.986695
0.953302 0.955083 0.986695
0.986695 0.960302 0.986695
0.224898 0.986695 0.986695
0.235927 0.986695 0.986695
0.280324 0.986695 0.986695
0.381295 0.986695 0.986695
0.530753 0.986695 0.986695
0.702250 0.986695 0.986695
0.863691 0.986695 0.986695
0.972418 0.986695 0.986695
0.986695 0.986695 0.986695
