studio/assets/luts/prompt-writing.cube
TITLE "Prompt Writing — Warm Creative"
# Amber warmth with cream highlights. Inviting, creative atmosphere.
# Generated by Like One Studio — cinema-grade pipeline
# Color science: lift/gamma/gain + filmic S-curve + zone tinting
LUT_3D_SIZE 9
# Domain: standard 0-1 range
DOMAIN_MIN 0.0 0.0 0.0
DOMAIN_MAX 1.0 1.0 1.0
0.223241 0.220916 0.220916
0.230479 0.220916 0.220916
0.261300 0.220916 0.220916
0.339392 0.220916 0.220916
0.469596 0.220916 0.220916
0.637174 0.220916 0.220916
0.816279 0.220916 0.220916
0.962787 0.220916 0.220916
0.986695 0.221163 0.220916
0.224072 0.221688 0.220916
0.232155 0.221815 0.220916
0.264703 0.222097 0.220916
0.344762 0.222529 0.220916
0.476406 0.222961 0.220916
0.644646 0.223048 0.220916
0.823185 0.222373 0.220916
0.968564 0.224394 0.220916
0.986695 0.227980 0.220916
0.225593 0.243438 0.220916
0.235070 0.243948 0.220916
0.270616 0.244966 0.220916
0.354393 0.246273 0.220916
0.489102 0.247265 0.220916
0.659022 0.246931 0.220916
0.844495 0.251615 0.220916
0.978315 0.262871 0.220916
0.986695 0.267088 0.220916
0.226127 0.323569 0.220916
0.236465 0.324157 0.220916
0.274680 0.325262 0.220916
0.363072 0.326465 0.220916
0.506474 0.330081 0.220916
0.695759 0.345731 0.220916
0.880447 0.361543 0.220916
0.984631 0.368530 0.220916
0.986695 0.360164 0.220916
0.228416 0.486034 0.220916
0.242616 0.488858 0.220916
0.292546 0.494922 0.220916
0.400256 0.504296 0.220916
0.559802 0.516224 0.220916
0.739946 0.524337 0.220916
0.893133 0.518727 0.220916
0.983573 0.511910 0.220916
0.986695 0.503832 0.220916
0.235030 0.701097 0.220916
0.252326 0.700571 0.220916
0.305468 0.699397 0.220916
0.410703 0.697444 0.220916
0.559429 0.694644 0.220916
0.728265 0.690934 0.220916
0.885468 0.686260 0.220916
0.981856 0.680564 0.220916
0.986695 0.673791 0.220916
0.226758 0.859736 0.220916
0.239888 0.859368 0.220916
0.287647 0.858545 0.220916
0.390795 0.857175 0.220916
0.540996 0.855206 0.220916
0.713303 0.852590 0.220916
0.875490 0.849282 0.220916
0.978330 0.843358 0.220916
0.986695 0.828277 0.220916
0.221455 0.970831 0.220916
0.228170 0.970570 0.220916
0.262724 0.969579 0.220916
0.351487 0.967876 0.220916
0.491050 0.965310 0.220916
0.658195 0.961695 0.220916
0.834167 0.960081 0.220916
0.969742 0.963977 0.220916
0.986695 0.968407 0.220916
0.220916 0.986695 0.220916
0.221819 0.986695 0.220916
0.256105 0.986695 0.220916
0.367406 0.986695 0.220916
0.537422 0.986695 0.220916
0.725422 0.986695 0.220916
0.891060 0.986695 0.229140
0.983572 0.986695 0.266055
0.986695 0.986695 0.335197
0.223326 0.220916 0.220916
0.230656 0.220916 0.220916
0.261663 0.220916 0.220916
0.339963 0.220916 0.220916
0.470315 0.220916 0.220916
0.637958 0.220916 0.220916
0.817001 0.220916 0.220916
0.963412 0.220916 0.220916
0.986695 0.221178 0.220916
0.224153 0.221731 0.220916
0.232314 0.221858 0.220916
0.265022 0.222139 0.220916
0.345269 0.222564 0.220916
0.477055 0.222979 0.220916
0.645364 0.223037 0.220916
0.823852 0.222333 0.220916
0.969097 0.224509 0.220916
0.986695 0.228046 0.220916
0.225644 0.243615 0.220916
0.235169 0.244114 0.220916
0.270825 0.245106 0.220916
0.354752 0.246369 0.220916
0.489597 0.247292 0.220916
0.659601 0.246867 0.220916
0.845608 0.252029 0.220916
0.978660 0.263168 0.220916
0.986695 0.266908 0.220916
0.226101 0.323775 0.220916
0.236437 0.324344 0.220916
0.274684 0.325405 0.220916
0.363180 0.326536 0.220916
0.507686 0.330903 0.220916
0.696898 0.346427 0.220916
0.881298 0.362070 0.220916
0.984613 0.368301 0.220916
0.986695 0.359937 0.220916
0.228626 0.487000 0.220916
0.242966 0.489802 0.220916
0.293121 0.495819 0.220916
0.401008 0.505114 0.220916
0.560627 0.516932 0.220916
0.739779 0.524119 0.220916
0.893024 0.518508 0.220916
0.983550 0.511690 0.220916
0.986695 0.503611 0.220916
0.234916 0.700918 0.220916
0.252169 0.700392 0.220916
0.305257 0.699218 0.220916
0.410473 0.697265 0.220916
0.559218 0.694463 0.220916
0.728094 0.690753 0.220916
0.885355 0.686077 0.220916
0.981829 0.680380 0.220916
0.986695 0.673605 0.220916
0.226682 0.859611 0.220916
0.239759 0.859242 0.220916
0.287447 0.858420 0.220916
0.390565 0.857049 0.220916
0.540781 0.855079 0.220916
0.713127 0.852462 0.220916
0.875372 0.849152 0.220916
0.978164 0.842955 0.220916
0.986695 0.827856 0.220916
0.221431 0.970782 0.220916
0.227785 0.970420 0.220916
0.261924 0.969426 0.220916
0.350443 0.967715 0.220916
0.490022 0.965140 0.220916
0.657321 0.961513 0.220916
0.834482 0.960215 0.220916
0.969838 0.964085 0.220916
0.986695 0.968540 0.220916
0.220916 0.986695 0.220916
0.222052 0.986695 0.220916
0.257247 0.986695 0.220916
0.368925 0.986695 0.220916
0.538767 0.986695 0.220916
0.726403 0.986695 0.223556
0.891617 0.986695 0.243498
0.983666 0.986695 0.289156
0.986695 0.986695 0.361618
0.223515 0.220916 0.221851
0.231044 0.220916 0.222028
0.262456 0.220916 0.222441
0.341212 0.220916 0.223126
0.471891 0.220916 0.223959
0.639680 0.220916 0.224537
0.818590 0.220916 0.224205
0.964770 0.220916 0.224294
0.986695 0.221210 0.224562
0.224331 0.221827 0.222467
0.232660 0.221954 0.222655
0.265716 0.222232 0.223066
0.346373 0.222640 0.223686
0.478476 0.223014 0.224325
0.646942 0.223007 0.224550
0.825319 0.222243 0.223783
0.970253 0.224764 0.224608
0.986695 0.228186 0.224218
0.225752 0.243996 0.223771
0.235378 0.244470 0.223912
0.271271 0.245404 0.224182
0.355527 0.246566 0.224479
0.490676 0.247337 0.224536
0.660869 0.246709 0.223953
0.848061 0.252941 0.224330
0.979401 0.263813 0.224666
0.986695 0.266508 0.223109
0.226035 0.324211 0.224528
0.236360 0.324736 0.224485
0.274675 0.325701 0.224334
0.363395 0.326670 0.223929
0.510356 0.332713 0.223894
0.699407 0.347955 0.224650
0.883169 0.363219 0.224537
0.984572 0.367791 0.223109
0.986695 0.359429 0.221702
0.229094 0.489126 0.224554
0.243738 0.491881 0.224625
0.294385 0.497791 0.224729
0.402660 0.506911 0.224722
0.562440 0.518485 0.224333
0.739405 0.523633 0.223325
0.892780 0.518020 0.222207
0.983500 0.511200 0.221313
0.986695 0.503118 0.220917
0.234664 0.700520 0.222737
0.251819 0.699993 0.222611
0.304786 0.698819 0.222345
0.409959 0.696864 0.221953
0.558746 0.694061 0.221501
0.727713 0.690349 0.221100
0.885103 0.685670 0.220916
0.981767 0.679969 0.220916
0.986695 0.673191 0.220916
0.226514 0.859332 0.220916
0.239472 0.858963 0.220916
0.287002 0.858140 0.220916
0.390052 0.856768 0.220916
0.540302 0.854796 0.220916
0.712737 0.852177 0.220916
0.875110 0.848863 0.220916
0.977790 0.842056 0.220916
0.986695 0.826916 0.220916
0.221270 0.970527 0.220916
0.226963 0.970086 0.220916
0.260160 0.969082 0.220916
0.348121 0.967356 0.220916
0.487728 0.964758 0.220916
0.655368 0.961103 0.220916
0.835182 0.960512 0.220916
0.970055 0.964327 0.220916
0.986695 0.968839 0.228472
0.220916 0.986695 0.220916
0.222666 0.986695 0.220966
0.259848 0.986695 0.221755
0.372330 0.986695 0.225236
0.541773 0.986695 0.234934
0.728596 0.986695 0.255654
0.892859 0.986695 0.292122
0.983872 0.986695 0.347225
0.986695 0.986695 0.421333
0.223826 0.220916 0.261299
0.231670 0.220916 0.262573
0.263724 0.220916 0.265290
0.343213 0.220916 0.269393
0.474430 0.220916 0.274274
0.642465 0.220916 0.278747
0.821164 0.220916 0.280965
0.966921 0.220916 0.286948
0.986695 0.221261 0.292749
0.224615 0.221987 0.265450
0.233208 0.222112 0.266607
0.266817 0.222380 0.269046
0.348134 0.222755 0.272642
0.480756 0.223057 0.276724
0.649489 0.222943 0.280057
0.827695 0.222089 0.280787
0.972074 0.225183 0.289311
0.986695 0.228393 0.292913
0.225910 0.244585 0.273144
0.235690 0.245017 0.273989
0.271953 0.245854 0.275707
0.356738 0.246845 0.278041
0.492389 0.247362 0.280212
0.662906 0.246399 0.280919
0.852047 0.254422 0.287189
0.980545 0.264833 0.292465
0.986695 0.265847 0.289229
0.225902 0.324861 0.280274
0.236193 0.325315 0.280516
0.274596 0.326118 0.280872
0.363676 0.326820 0.280904
0.514704 0.335651 0.284416
0.703491 0.350420 0.289705
0.886205 0.365052 0.292790
0.984503 0.366945 0.289229
0.986695 0.358587 0.281959
0.229867 0.492574 0.288840
0.244994 0.495249 0.289469
0.296425 0.500984 0.290684
0.405324 0.509816 0.292127
0.565372 0.520985 0.292928
0.738785 0.522827 0.290119
0.892376 0.517210 0.284979
0.983417 0.510386 0.278906
0.986695 0.502299 0.271975
0.234250 0.699859 0.287598
0.251242 0.699332 0.287009
0.304006 0.698156 0.285703
0.409108 0.696200 0.283549
0.557963 0.693394 0.280506
0.727080 0.689677 0.276561
0.884684 0.684994 0.271732
0.981664 0.679288 0.266075
0.986695 0.672503 0.259690
0.226240 0.858869 0.270942
0.239001 0.858499 0.270400
0.286265 0.857675 0.269198
0.389201 0.856301 0.267224
0.539506 0.854325 0.264449
0.712088 0.851702 0.260878
0.874673 0.848384 0.256555
0.977153 0.840557 0.251537
0.986695 0.825350 0.245957
0.221016 0.969972 0.252925
0.225708 0.969524 0.252453
0.257292 0.968504 0.251411
0.344279 0.966753 0.249710
0.483916 0.964119 0.247344
0.652117 0.960416 0.244347
0.836339 0.961002 0.246934
0.970423 0.964740 0.263170
0.986695 0.969339 0.306812
0.220916 0.986695 0.273718
0.223981 0.986695 0.277034
0.264335 0.986695 0.284742
0.378035 0.986695 0.298451
0.546788 0.986695 0.319868
0.732251 0.986695 0.350922
0.894928 0.986695 0.393467
0.984203 0.986695 0.448912
0.986695 0.986695 0.517874
0.224257 0.220916 0.370648
0.232518 0.220916 0.372975
0.265431 0.220916 0.377948
0.345919 0.220916 0.385554
0.477891 0.220916 0.395008
0.646291 0.220916 0.404898
0.824714 0.220916 0.413145
0.969779 0.220916 0.429590
0.986695 0.221325 0.444119
0.224995 0.222210 0.378242
0.233931 0.222330 0.380371
0.268275 0.222575 0.384902
0.350493 0.222892 0.391766
0.483850 0.223085 0.400151
0.652979 0.222821 0.408624
0.833085 0.222344 0.416910
0.974470 0.225768 0.434444
0.986695 0.228535 0.446118
0.226089 0.245336 0.392752
0.236055 0.245705 0.394434
0.272799 0.246399 0.397963
0.358308 0.247141 0.403158
0.494675 0.247292 0.409148
0.665672 0.245855 0.414462
0.857565 0.256463 0.430063
0.981997 0.266175 0.442794
0.986695 0.264908 0.441076
0.225666 0.325634 0.409368
0.235872 0.325984 0.410297
0.274349 0.326558 0.412151
0.364395 0.327285 0.414810
0.520737 0.339708 0.424776
0.709158 0.353789 0.435312
0.890394 0.367510 0.444361
0.984403 0.365737 0.441076
0.986695 0.357384 0.432689
0.230957 0.497330 0.433434
0.246732 0.499892 0.434790
0.299213 0.505377 0.437592
0.408965 0.513800 0.441579
0.569398 0.524393 0.445846
0.737897 0.521673 0.442084
0.891796 0.516052 0.436205
0.983295 0.509222 0.429082
0.986695 0.501128 0.420668
0.233668 0.698912 0.439217
0.250425 0.698384 0.438543
0.302893 0.697207 0.437041
0.407891 0.695248 0.434547
0.556843 0.692438 0.430979
0.726174 0.688717 0.426271
0.884084 0.684027 0.420367
0.981515 0.678313 0.413219
0.986695 0.671518 0.404784
0.225860 0.858206 0.419385
0.238337 0.857835 0.418708
0.285215 0.857008 0.417199
0.387984 0.855631 0.414693
0.538368 0.853652 0.411111
0.711159 0.851022 0.406387
0.874047 0.847697 0.400468
0.976205 0.838404 0.393254
0.986695 0.823101 0.384713
0.220916 0.969163 0.395285
0.224156 0.968705 0.394598
0.253328 0.967664 0.393067
0.338811 0.965875 0.390527
0.478451 0.963190 0.386898
0.647446 0.959420 0.382119
0.837988 0.961694 0.389437
0.970963 0.965347 0.414827
0.986695 0.970064 0.460807
0.220916 0.986695 0.426840
0.226496 0.986695 0.430461
0.271101 0.986695 0.438652
0.386310 0.986695 0.452601
0.554015 0.986695 0.473273
0.737512 0.986695 0.501718
0.897897 0.986695 0.539000
0.984649 0.986695 0.586026
0.986695 0.986695 0.643256
0.224788 0.220916 0.529504
0.233538 0.220916 0.532502
0.267481 0.220916 0.538951
0.349204 0.220916 0.548963
0.482153 0.220916 0.561809
0.651060 0.220916 0.576183
0.829530 0.220916 0.590502
0.973167 0.220943 0.615712
0.986695 0.221390 0.637258
0.225434 0.222484 0.539335
0.234766 0.222589 0.542119
0.269980 0.222793 0.548096
0.353316 0.223020 0.557338
0.487630 0.223061 0.569109
0.657311 0.222611 0.582110
0.841225 0.223058 0.599259
0.977269 0.226497 0.622387
0.986695 0.227944 0.636770
0.226233 0.246152 0.558689
0.236389 0.246435 0.561010
0.273678 0.246933 0.565967
0.360085 0.247342 0.573541
0.497396 0.247010 0.582984
0.674688 0.248858 0.596139
0.864521 0.258998 0.616351
0.983593 0.267731 0.634994
0.986695 0.263680 0.632457
0.225277 0.326370 0.583355
0.235305 0.326584 0.584949
0.273781 0.326852 0.588297
0.371393 0.333023 0.596620
0.528366 0.344792 0.609337
0.716326 0.357947 0.623617
0.895655 0.370459 0.637685
0.984268 0.364145 0.632457
0.986695 0.355800 0.625251
0.232344 0.503290 0.620973
0.248897 0.505705 0.622876
0.302651 0.510863 0.626914
0.413466 0.518751 0.633011
0.569919 0.524628 0.637326
0.736724 0.520152 0.633321
0.891030 0.514524 0.628277
0.983132 0.507686 0.622138
0.986695 0.499584 0.614844
0.232919 0.697663 0.630863
0.249360 0.697134 0.630285
0.301432 0.695954 0.628995
0.406286 0.693992 0.626851
0.555365 0.691176 0.623776
0.724977 0.687448 0.619707
0.883291 0.682750 0.614583
0.981315 0.677025 0.608346
0.986695 0.670219 0.600940
0.225379 0.857329 0.613728
0.237477 0.856957 0.613138
0.283838 0.856128 0.611823
0.386381 0.854747 0.609636
0.536866 0.852761 0.606501
0.709933 0.850124 0.602352
0.873220 0.846789 0.597129
0.974891 0.835545 0.590704
0.986695 0.820116 0.583060
0.220916 0.968070 0.592513
0.222561 0.967598 0.591901
0.248365 0.966528 0.590538
0.331653 0.964692 0.588271
0.471222 0.961939 0.585023
0.645796 0.959201 0.582563
0.840148 0.962594 0.591040
0.971701 0.966180 0.613867
0.986695 0.971037 0.647701
0.221605 0.986695 0.622721
0.230942 0.986695 0.625388
0.280619 0.986695 0.631417
0.397419 0.986695 0.641673
0.563640 0.986695 0.656851
0.744506 0.986695 0.677703
0.901827 0.986695 0.704983
0.985184 0.986695 0.739304
0.986695 0.986695 0.780875
0.225365 0.220916 0.708526
0.234635 0.220916 0.711773
0.269709 0.220916 0.718784
0.352860 0.220916 0.729753
0.487013 0.220916 0.744048
0.656597 0.220916 0.760536
0.839873 0.220916 0.780897
0.976822 0.221038 0.806911
0.986695 0.221266 0.825867
0.225866 0.222771 0.719202
0.235602 0.222850 0.722242
0.271759 0.222987 0.728798
0.356389 0.223085 0.739036
0.491891 0.222934 0.752335
0.662310 0.222285 0.767592
0.850876 0.224032 0.789841
0.980217 0.227309 0.813999
0.986695 0.227234 0.824489
0.226264 0.246884 0.740546
0.236564 0.247056 0.743149
0.274395 0.247303 0.748750
0.361841 0.247289 0.757450
0.500338 0.246356 0.768651
0.685515 0.252526 0.786646
0.872746 0.261899 0.807584
0.984787 0.268666 0.826511
0.986695 0.262158 0.821401
0.224682 0.326835 0.769102
0.234376 0.326878 0.771052
0.277054 0.331272 0.777058
0.379708 0.339805 0.787138
0.537411 0.350723 0.800243
0.724832 0.362698 0.815319
0.895784 0.369255 0.825741
0.984093 0.362154 0.821401
0.986695 0.353819 0.816220
0.233964 0.510265 0.812486
0.251379 0.512497 0.814522
0.306562 0.517250 0.818889
0.418623 0.524474 0.825625
0.568089 0.522726 0.824886
0.735252 0.518243 0.822020
0.890066 0.512607 0.818399
0.982922 0.505760 0.813974
0.986695 0.497647 0.808692
0.232008 0.696095 0.820258
0.248047 0.695564 0.819842
0.299610 0.694382 0.818916
0.404276 0.692415 0.817373
0.553511 0.689593 0.815157
0.723475 0.685856 0.812216
0.882293 0.681147 0.808502
0.981060 0.675410 0.803964
0.986695 0.668588 0.798551
0.224810 0.856227 0.807881
0.236427 0.855854 0.807453
0.282124 0.855022 0.806496
0.384374 0.853635 0.804904
0.534982 0.851642 0.802618
0.708394 0.848996 0.799585
0.870548 0.844631 0.795748
0.973142 0.831929 0.791010
0.986695 0.817075 0.785753
0.220916 0.966657 0.792342
0.221310 0.966169 0.791892
0.242606 0.965063 0.790887
0.322784 0.963167 0.789214
0.462130 0.960329 0.786812
0.649689 0.960376 0.788476
0.843140 0.963641 0.795145
0.972660 0.967271 0.809295
0.986695 0.972277 0.828601
0.224534 0.986695 0.814292
0.238261 0.986695 0.815807
0.293420 0.986695 0.819242
0.411638 0.986695 0.825125
0.575846 0.986695 0.833901
0.753356 0.986695 0.846052
0.906769 0.986695 0.862035
0.985758 0.986695 0.882132
0.986695 0.986695 0.906185
0.225893 0.220916 0.876185
0.235654 0.220916 0.878991
0.271874 0.220916 0.885020
0.356595 0.220916 0.894368
0.492185 0.220916 0.906392
0.662662 0.220916 0.920035
0.851567 0.220916 0.937648
0.980411 0.221190 0.954872
0.986695 0.221091 0.962054
0.226188 0.223004 0.885378
0.236276 0.223042 0.887977
0.273358 0.223085 0.893558
0.359412 0.223019 0.902198
0.496344 0.222652 0.913279
0.671093 0.222397 0.926619
0.861772 0.225235 0.943751
0.982995 0.228100 0.959256
0.986695 0.226424 0.961462
0.226077 0.247324 0.903464
0.236410 0.247359 0.905642
0.274684 0.247297 0.910307
0.363264 0.246772 0.917500
0.508683 0.248325 0.927784
0.697835 0.256670 0.941591
0.881997 0.264955 0.955294
0.984598 0.266760 0.962330
0.986695 0.260342 0.960120
0.225561 0.332123 0.928279
0.237612 0.334483 0.930418
0.284053 0.339553 0.934976
0.389080 0.347377 0.941925
0.547602 0.357233 0.950617
0.734439 0.367755 0.960056
0.894644 0.366841 0.962000
0.983874 0.359748 0.960120
0.986695 0.351426 0.957822
0.235688 0.517980 0.958333
0.253988 0.519994 0.959574
0.310682 0.524264 0.962191
0.417734 0.523818 0.962557
0.565873 0.520422 0.961633
0.733466 0.515931 0.960391
0.888895 0.510285 0.958795
0.982661 0.503427 0.956808
0.986695 0.495302 0.954385
0.230950 0.694193 0.959618
0.246491 0.693661 0.959435
0.297419 0.692475 0.959025
0.401846 0.690503 0.958338
0.551265 0.687673 0.957343
0.721654 0.683926 0.956008
0.881081 0.679204 0.954297
0.980744 0.673451 0.952170
0.986695 0.666611 0.949584
0.224172 0.854889 0.954008
0.235196 0.854514 0.953808
0.280070 0.853678 0.953361
0.381947 0.852285 0.952614
0.532700 0.850284 0.951532
0.706528 0.847625 0.950082
0.864641 0.840372 0.948214
0.970876 0.827507 0.945885
0.986695 0.820325 0.945363
0.220916 0.964884 0.946544
0.220916 0.964376 0.946322
0.236395 0.963226 0.945824
0.312230 0.961259 0.944993
0.454488 0.959033 0.944224
0.654371 0.961766 0.946698
0.847768 0.964791 0.949594
0.973864 0.968651 0.953733
0.986695 0.973796 0.959790
0.231121 0.986695 0.955272
0.249544 0.986695 0.955744
0.310067 0.986695 0.956821
0.429243 0.986695 0.958683
0.590809 0.986695 0.961482
0.764173 0.986695 0.965352
0.912757 0.986695 0.970328
0.986288 0.986695 0.976184
0.986695 0.986695 0.982136
0.226230 0.220916 0.981301
0.236380 0.220916 0.982152
0.273650 0.220916 0.983772
0.360024 0.220916 0.985652
0.497299 0.220916 0.986691
0.674351 0.220916 0.986695
0.864264 0.220948 0.986695
0.983539 0.221347 0.986695
0.986695 0.220962 0.986695
0.226258 0.223084 0.983859
0.236567 0.223070 0.984455
0.274445 0.222996 0.985522
0.361995 0.222749 0.986529
0.500617 0.222183 0.986695
0.686619 0.223725 0.986695
0.873580 0.226561 0.986695
0.984771 0.228358 0.986695
0.986695 0.225536 0.986695
0.225560 0.247207 0.986602
0.235722 0.247078 0.986679
0.274210 0.246655 0.986695
0.366493 0.246964 0.986695
0.523027 0.253531 0.986695
0.711309 0.261035 0.986695
0.891977 0.267862 0.986695
0.984364 0.264544 0.986695
0.986695 0.258237 0.986695
0.228109 0.341734 0.986695
0.242102 0.343869 0.986695
0.291697 0.348430 0.986695
0.399145 0.355382 0.986695
0.558584 0.363954 0.986695
0.740191 0.369874 0.986695
0.893292 0.363998 0.986695
0.983605 0.356917 0.986695
0.986695 0.348612 0.986695
0.237160 0.525551 0.986695
0.255227 0.524910 0.986695
0.309318 0.523480 0.986695
0.414872 0.521104 0.986695
0.563254 0.517700 0.986695
0.731354 0.513201 0.986695
0.887506 0.507544 0.986695
0.982342 0.500673 0.986695
0.986695 0.492532 0.986695
0.229764 0.691945 0.986695
0.244704 0.691411 0.986695
0.294855 0.690221 0.986695
0.398980 0.688242 0.986695
0.548611 0.685403 0.986695
0.719499 0.681644 0.986695
0.879644 0.676906 0.986695
0.980361 0.671135 0.986695
0.986695 0.661164 0.986695
0.223491 0.853304 0.986695
0.233802 0.852927 0.986695
0.277673 0.852086 0.986695
0.379089 0.850686 0.986695
0.530005 0.848674 0.986695
0.703632 0.845713 0.986695
0.857510 0.835279 0.986695
0.967994 0.822222 0.986695
0.986695 0.824120 0.986695
0.220916 0.962704 0.986695
0.220916 0.962174 0.986695
0.230262 0.960973 0.986695
0.300088 0.958922 0.986695
0.461043 0.960706 0.986695
0.659854 0.963359 0.986695
0.853483 0.966259 0.986695
0.975330 0.970350 0.986695
0.986695 0.975595 0.986695
0.242933 0.986695 0.986695
0.265892 0.986695 0.986695
0.331102 0.986695 0.986695
0.450507 0.986695 0.986695
0.608701 0.986695 0.986695
0.777056 0.986695 0.986695
0.919798 0.986695 0.986695
0.986643 0.986695 0.986695
0.986695 0.986695 0.986695
