studio/assets/luts/prompt-writing.cube
TITLE "Prompt Writing — Warm Creative"
# Amber warmth with cream highlights. Inviting, creative atmosphere.
# Generated by Like One Studio — cinema-grade pipeline
# Color science: lift/gamma/gain + filmic S-curve + zone tinting
LUT_3D_SIZE 5
# Domain: standard 0-1 range
DOMAIN_MIN 0.0 0.0 0.0
DOMAIN_MAX 1.0 1.0 1.0
0.223241 0.220916 0.220916
0.261300 0.220916 0.220916
0.469596 0.220916 0.220916
0.816279 0.220916 0.220916
0.986695 0.221163 0.220916
0.225593 0.243438 0.220916
0.270616 0.244966 0.220916
0.489102 0.247265 0.220916
0.844495 0.251615 0.220916
0.986695 0.267088 0.220916
0.228416 0.486034 0.220916
0.292546 0.494922 0.220916
0.559802 0.516224 0.220916
0.893133 0.518727 0.220916
0.986695 0.503832 0.220916
0.226758 0.859736 0.220916
0.287647 0.858545 0.220916
0.540996 0.855206 0.220916
0.875490 0.849282 0.220916
0.986695 0.828277 0.220916
0.220916 0.986695 0.220916
0.256105 0.986695 0.220916
0.537422 0.986695 0.220916
0.891060 0.986695 0.229140
0.986695 0.986695 0.335197
0.223515 0.220916 0.221851
0.262456 0.220916 0.222441
0.471891 0.220916 0.223959
0.818590 0.220916 0.224205
0.986695 0.221210 0.224562
0.225752 0.243996 0.223771
0.271271 0.245404 0.224182
0.490676 0.247337 0.224536
0.848061 0.252941 0.224330
0.986695 0.266508 0.223109
0.229094 0.489126 0.224554
0.294385 0.497791 0.224729
0.562440 0.518485 0.224333
0.892780 0.518020 0.222207
0.986695 0.503118 0.220917
0.226514 0.859332 0.220916
0.287002 0.858140 0.220916
0.540302 0.854796 0.220916
0.875110 0.848863 0.220916
0.986695 0.826916 0.220916
0.220916 0.986695 0.220916
0.259848 0.986695 0.221755
0.541773 0.986695 0.234934
0.892859 0.986695 0.292122
0.986695 0.986695 0.421333
0.224257 0.220916 0.370648
0.265431 0.220916 0.377948
0.477891 0.220916 0.395008
0.824714 0.220916 0.413145
0.986695 0.221325 0.444119
0.226089 0.245336 0.392752
0.272799 0.246399 0.397963
0.494675 0.247292 0.409148
0.857565 0.256463 0.430063
0.986695 0.264908 0.441076
0.230957 0.497330 0.433434
0.299213 0.505377 0.437592
0.569398 0.524393 0.445846
0.891796 0.516052 0.436205
0.986695 0.501128 0.420668
0.225860 0.858206 0.419385
0.285215 0.857008 0.417199
0.538368 0.853652 0.411111
0.874047 0.847697 0.400468
0.986695 0.823101 0.384713
0.220916 0.986695 0.426840
0.271101 0.986695 0.438652
0.554015 0.986695 0.473273
0.897897 0.986695 0.539000
0.986695 0.986695 0.643256
0.225365 0.220916 0.708526
0.269709 0.220916 0.718784
0.487013 0.220916 0.744048
0.839873 0.220916 0.780897
0.986695 0.221266 0.825867
0.226264 0.246884 0.740546
0.274395 0.247303 0.748750
0.500338 0.246356 0.768651
0.872746 0.261899 0.807584
0.986695 0.262158 0.821401
0.233964 0.510265 0.812486
0.306562 0.517250 0.818889
0.568089 0.522726 0.824886
0.890066 0.512607 0.818399
0.986695 0.497647 0.808692
0.224810 0.856227 0.807881
0.282124 0.855022 0.806496
0.534982 0.851642 0.802618
0.870548 0.844631 0.795748
0.986695 0.817075 0.785753
0.224534 0.986695 0.814292
0.293420 0.986695 0.819242
0.575846 0.986695 0.833901
0.906769 0.986695 0.862035
0.986695 0.986695 0.906185
0.226230 0.220916 0.981301
0.273650 0.220916 0.983772
0.497299 0.220916 0.986691
0.864264 0.220948 0.986695
0.986695 0.220962 0.986695
0.225560 0.247207 0.986602
0.274210 0.246655 0.986695
0.523027 0.253531 0.986695
0.891977 0.267862 0.986695
0.986695 0.258237 0.986695
0.237160 0.525551 0.986695
0.309318 0.523480 0.986695
0.563254 0.517700 0.986695
0.887506 0.507544 0.986695
0.986695 0.492532 0.986695
0.223491 0.853304 0.986695
0.277673 0.852086 0.986695
0.530005 0.848674 0.986695
0.857510 0.835279 0.986695
0.986695 0.824120 0.986695
0.242933 0.986695 0.986695
0.331102 0.986695 0.986695
0.608701 0.986695 0.986695
0.919798 0.986695 0.986695
0.986695 0.986695 0.986695
