studio/assets/luts/prompt-writing.cube
TITLE "Prompt Writing — Warm Creative"
# Amber warmth with cream highlights. Inviting, creative atmosphere.
# Generated by Like One Studio — cinema-grade pipeline
# Color science: lift/gamma/gain + filmic S-curve + zone tinting
LUT_3D_SIZE 33
# Domain: standard 0-1 range
DOMAIN_MIN 0.0 0.0 0.0
DOMAIN_MAX 1.0 1.0 1.0
0.223241 0.220916 0.220916
0.224264 0.220916 0.220916
0.225486 0.220916 0.220916
0.227451 0.220916 0.220916
0.230479 0.220916 0.220916
0.234948 0.220916 0.220916
0.241283 0.220916 0.220916
0.249928 0.220916 0.220916
0.261300 0.220916 0.220916
0.275748 0.220916 0.220916
0.293516 0.220916 0.220916
0.314729 0.220916 0.220916
0.339392 0.220916 0.220916
0.367410 0.220916 0.220916
0.398611 0.220916 0.220916
0.432764 0.220916 0.220916
0.469596 0.220916 0.220916
0.508803 0.220916 0.220916
0.550053 0.220916 0.220916
0.592979 0.220916 0.220916
0.637174 0.220916 0.220916
0.682179 0.220916 0.220916
0.727464 0.220916 0.220916
0.772410 0.220916 0.220916
0.816279 0.220916 0.220916
0.858177 0.220916 0.220916
0.897000 0.220916 0.220916
0.932943 0.220916 0.220916
0.962787 0.220916 0.220916
0.981861 0.220916 0.220916
0.986695 0.220932 0.220916
0.986695 0.221025 0.220916
0.986695 0.221163 0.220916
0.223403 0.220916 0.220916
0.224459 0.220916 0.220916
0.225715 0.220916 0.220916
0.227727 0.220916 0.220916
0.230815 0.220916 0.220916
0.235356 0.220916 0.220916
0.241775 0.220916 0.220916
0.250514 0.220916 0.220916
0.261987 0.220916 0.220916
0.276539 0.220916 0.220916
0.294409 0.220916 0.220916
0.315719 0.220916 0.220916
0.340474 0.220916 0.220916
0.368576 0.220916 0.220916
0.399852 0.220916 0.220916
0.434071 0.220916 0.220916
0.470959 0.220917 0.220916
0.510214 0.220920 0.220916
0.551501 0.220922 0.220916
0.594453 0.220924 0.220916
0.638661 0.220923 0.220916
0.683665 0.220920 0.220916
0.728933 0.220917 0.220916
0.773842 0.220916 0.220916
0.817650 0.220916 0.220916
0.859457 0.220916 0.220916
0.898153 0.220916 0.220916
0.934611 0.220916 0.220916
0.963969 0.220919 0.220916
0.982423 0.221018 0.220916
0.986695 0.221223 0.220916
0.986695 0.221486 0.220916
0.986695 0.221758 0.220916
0.223567 0.220916 0.220916
0.224656 0.220916 0.220916
0.225945 0.220916 0.220916
0.228002 0.220916 0.220916
0.231149 0.220916 0.220916
0.235762 0.220916 0.220916
0.242265 0.220916 0.220916
0.251097 0.220916 0.220916
0.262669 0.220916 0.220916
0.277323 0.220918 0.220916
0.295295 0.220924 0.220916
0.316703 0.220936 0.220916
0.341549 0.220952 0.220916
0.369735 0.220973 0.220916
0.401086 0.220998 0.220916
0.435372 0.221024 0.220916
0.472318 0.221050 0.220916
0.511621 0.221073 0.220916
0.552945 0.221089 0.220916
0.595924 0.221095 0.220916
0.640147 0.221089 0.220916
0.685150 0.221069 0.220916
0.730401 0.221036 0.220916
0.775274 0.220993 0.220916
0.819021 0.220949 0.220916
0.860737 0.220919 0.220916
0.899362 0.220916 0.220916
0.936271 0.220961 0.220916
0.965134 0.221162 0.220916
0.982957 0.221487 0.220916
0.986695 0.221890 0.220916
0.986695 0.222318 0.220916
0.986695 0.222719 0.220916
0.223789 0.220982 0.220916
0.224921 0.220989 0.220916
0.226255 0.220997 0.220916
0.228372 0.221008 0.220916
0.231596 0.221024 0.220916
0.236304 0.221044 0.220916
0.242917 0.221069 0.220916
0.251872 0.221100 0.220916
0.263576 0.221138 0.220916
0.278365 0.221183 0.220916
0.296472 0.221234 0.220916
0.318011 0.221291 0.220916
0.342979 0.221354 0.220916
0.371278 0.221419 0.220916
0.402732 0.221486 0.220916
0.437107 0.221549 0.220916
0.474132 0.221607 0.220916
0.513501 0.221653 0.220916
0.554878 0.221684 0.220916
0.597894 0.221693 0.220916
0.642138 0.221676 0.220916
0.687143 0.221630 0.220916
0.732372 0.221552 0.220916
0.777196 0.221444 0.220916
0.820861 0.221312 0.220916
0.862455 0.221168 0.220916
0.902119 0.221181 0.220916
0.938486 0.221581 0.220916
0.966671 0.222116 0.220916
0.983627 0.222739 0.220916
0.986695 0.223397 0.220916
0.986695 0.224037 0.220916
0.986695 0.224602 0.220916
0.224072 0.221688 0.220916
0.225256 0.221712 0.220916
0.226644 0.221737 0.220916
0.228835 0.221771 0.220916
0.232155 0.221815 0.220916
0.236979 0.221869 0.220916
0.243728 0.221934 0.220916
0.252835 0.222010 0.220916
0.264703 0.222097 0.220916
0.279661 0.222194 0.220916
0.297936 0.222299 0.220916
0.319639 0.222412 0.220916
0.344762 0.222529 0.220916
0.373204 0.222647 0.220916
0.404788 0.222762 0.220916
0.439280 0.222869 0.220916
0.476406 0.222961 0.220916
0.515861 0.223033 0.220916
0.557307 0.223076 0.220916
0.600373 0.223084 0.220916
0.644646 0.223048 0.220916
0.689655 0.222962 0.220916
0.734859 0.222822 0.220916
0.779623 0.222624 0.220916
0.823185 0.222373 0.220916
0.864624 0.222075 0.220916
0.905594 0.222605 0.220916
0.941260 0.223454 0.220916
0.968564 0.224394 0.220916
0.984392 0.225374 0.220916
0.986695 0.226338 0.220916
0.986695 0.227226 0.220916
0.986695 0.227980 0.220916
0.224409 0.223617 0.220916
0.225655 0.223660 0.220916
0.227105 0.223704 0.220916
0.229381 0.223764 0.220916
0.232812 0.223840 0.220916
0.237771 0.223934 0.220916
0.244678 0.224044 0.220916
0.253963 0.224171 0.220916
0.266022 0.224312 0.220916
0.281179 0.224467 0.220916
0.299654 0.224633 0.220916
0.321552 0.224806 0.220916
0.346861 0.224983 0.220916
0.375476 0.225158 0.220916
0.407218 0.225325 0.220916
0.441853 0.225476 0.220916
0.479105 0.225603 0.220916
0.518667 0.225697 0.220916
0.560200 0.225748 0.220916
0.603331 0.225744 0.220916
0.647642 0.225677 0.220916
0.692661 0.225534 0.220916
0.737838 0.225309 0.220916
0.782531 0.224995 0.220916
0.825971 0.224589 0.220916
0.868726 0.224750 0.220916
0.909753 0.226018 0.220916
0.944549 0.227374 0.220916
0.970759 0.228767 0.220916
0.985183 0.230141 0.220916
0.986695 0.231436 0.220916
0.986695 0.232589 0.220916
0.986695 0.233538 0.220916
0.224791 0.227414 0.220916
0.226102 0.227478 0.220916
0.227620 0.227542 0.220916
0.229991 0.227629 0.220916
0.233543 0.227739 0.220916
0.238651 0.227874 0.220916
0.245734 0.228032 0.220916
0.255217 0.228211 0.220916
0.267490 0.228409 0.220916
0.282872 0.228624 0.220916
0.301575 0.228852 0.220916
0.323696 0.229087 0.220916
0.349219 0.229323 0.220916
0.378037 0.229553 0.220916
0.409966 0.229769 0.220916
0.444770 0.229960 0.220916
0.482173 0.230116 0.220916
0.521866 0.230224 0.220916
0.563507 0.230271 0.220916
0.606720 0.230243 0.220916
0.651083 0.230127 0.220916
0.696117 0.229907 0.220916
0.741268 0.229572 0.220916
0.785884 0.229111 0.220916
0.829573 0.228732 0.220916
0.874349 0.230507 0.220916
0.914537 0.232360 0.220916
0.948290 0.234243 0.220916
0.973183 0.236099 0.220916
0.985907 0.237870 0.220916
0.986695 0.239491 0.220916
0.986695 0.240898 0.220916
0.986695 0.242026 0.220916
0.225195 0.233789 0.220916
0.226576 0.233873 0.220916
0.228165 0.233956 0.220916
0.230633 0.234069 0.220916
0.234312 0.234213 0.220916
0.239578 0.234387 0.220916
0.246848 0.234590 0.220916
0.256542 0.234819 0.220916
0.269048 0.235072 0.220916
0.284675 0.235343 0.220916
0.303628 0.235627 0.220916
0.325997 0.235917 0.220916
0.351762 0.236206 0.220916
0.380810 0.236484 0.220916
0.412954 0.236739 0.220916
0.447956 0.236959 0.220916
0.485537 0.237131 0.220916
0.525386 0.237239 0.220916
0.567158 0.237267 0.220916
0.610472 0.237197 0.220916
0.654903 0.237011 0.220916
0.699964 0.236692 0.220916
0.745093 0.236221 0.220916
0.789628 0.235584 0.220916
0.836678 0.237764 0.220916
0.880662 0.240160 0.220916
0.919870 0.242573 0.220916
0.952398 0.244952 0.220916
0.975738 0.247236 0.220916
0.986455 0.249365 0.220916
0.986695 0.251272 0.220916
0.986695 0.252892 0.220916
0.986695 0.253109 0.220916
0.225593 0.243438 0.220916
0.227041 0.243539 0.220916
0.228699 0.243640 0.220916
0.231264 0.243776 0.220916
0.235070 0.243948 0.220916
0.240496 0.244156 0.220916
0.247955 0.244397 0.220916
0.257868 0.244669 0.220916
0.270616 0.244966 0.220916
0.286501 0.245283 0.220916
0.305722 0.245612 0.220916
0.328362 0.245946 0.220916
0.354393 0.246273 0.220916
0.383697 0.246583 0.220916
0.416085 0.246862 0.220916
0.451314 0.247095 0.220916
0.489102 0.247265 0.220916
0.529135 0.247354 0.220916
0.571064 0.247342 0.220916
0.614504 0.247208 0.220916
0.659022 0.246931 0.220916
0.704125 0.246488 0.220916
0.749242 0.245858 0.220916
0.797953 0.248684 0.220916
0.844495 0.251615 0.220916
0.887573 0.254553 0.220916
0.925653 0.257445 0.220916
0.956769 0.260238 0.220916
0.978315 0.262871 0.220916
0.986694 0.265281 0.220916
0.986695 0.267402 0.220916
0.986695 0.268841 0.220916
0.986695 0.267088 0.220916
0.225942 0.256950 0.220916
0.227450 0.257064 0.220916
0.229172 0.257178 0.220916
0.231826 0.257330 0.220916
0.235752 0.257524 0.220916
0.241329 0.257756 0.220916
0.248973 0.258025 0.220916
0.259102 0.258326 0.220916
0.272094 0.258654 0.220916
0.288245 0.259001 0.220916
0.307746 0.259359 0.220916
0.330673 0.259717 0.220916
0.356993 0.260064 0.220916
0.386580 0.260386 0.220916
0.419240 0.260667 0.220916
0.454727 0.260890 0.220916
0.492754 0.261035 0.220916
0.533002 0.261082 0.220916
0.575119 0.261008 0.220916
0.618713 0.260789 0.220916
0.663343 0.260399 0.220916
0.709582 0.260726 0.220916
0.759071 0.264085 0.220916
0.807191 0.267485 0.220916
0.852912 0.270884 0.220916
0.894969 0.274232 0.220916
0.931775 0.277479 0.220916
0.961287 0.280566 0.220916
0.980783 0.283436 0.220916
0.986695 0.286024 0.220916
0.986695 0.288266 0.220916
0.986695 0.286675 0.220916
0.986695 0.284751 0.220916
0.226188 0.274728 0.220916
0.227745 0.274849 0.220916
0.229519 0.274969 0.220916
0.232248 0.275132 0.220916
0.236277 0.275336 0.220916
0.241989 0.275582 0.220916
0.249801 0.275865 0.220916
0.260134 0.276179 0.220916
0.273362 0.276520 0.220916
0.289777 0.276878 0.220916
0.309565 0.277243 0.220916
0.332793 0.277604 0.220916
0.359420 0.277947 0.220916
0.389315 0.278257 0.220916
0.422277 0.278516 0.220916
0.458055 0.278705 0.220916
0.496356 0.278802 0.220916
0.536856 0.278784 0.220916
0.579196 0.278626 0.220916
0.622977 0.278300 0.220916
0.671134 0.280854 0.220916
0.720685 0.284571 0.220916
0.769598 0.288325 0.220916
0.816992 0.292074 0.220916
0.861803 0.295776 0.220916
0.902725 0.299379 0.220916
0.938108 0.302832 0.220916
0.965821 0.306079 0.220916
0.983002 0.309061 0.220916
0.986695 0.311715 0.220916
0.986695 0.310264 0.220916
0.986695 0.308272 0.220916
0.986695 0.306214 0.220916
0.226272 0.296947 0.220916
0.227858 0.297069 0.220916
0.229665 0.297191 0.220916
0.232445 0.297354 0.220916
0.236550 0.297560 0.220916
0.242367 0.297806 0.220916
0.250320 0.298087 0.220916
0.260832 0.298399 0.220916
0.274278 0.298734 0.220916
0.290947 0.299082 0.220916
0.311020 0.299433 0.220916
0.334557 0.299774 0.220916
0.361509 0.300090 0.220916
0.391737 0.300364 0.220916
0.425033 0.300577 0.220916
0.461137 0.300708 0.220916
0.499752 0.300734 0.220916
0.540545 0.300629 0.220916
0.585741 0.302680 0.220916
0.634167 0.306526 0.220916
0.683248 0.310448 0.220916
0.732319 0.314409 0.220916
0.780610 0.318373 0.220916
0.827214 0.322296 0.220916
0.871031 0.326134 0.220916
0.910705 0.329837 0.220916
0.944517 0.333354 0.220916
0.970230 0.336629 0.220916
0.984819 0.339587 0.220916
0.986695 0.337655 0.220916
0.986695 0.335649 0.220916
0.986695 0.333570 0.220916
0.986695 0.331418 0.220916
0.226127 0.323569 0.220916
0.227714 0.323686 0.220916
0.229528 0.323803 0.220916
0.232326 0.323960 0.220916
0.236465 0.324157 0.220916
0.242344 0.324391 0.220916
0.250395 0.324657 0.220916
0.261047 0.324950 0.220916
0.274680 0.325262 0.220916
0.291582 0.325582 0.220916
0.311931 0.325898 0.220916
0.335780 0.326198 0.220916
0.363072 0.326465 0.220916
0.393658 0.326681 0.220916
0.427320 0.326827 0.220916
0.463791 0.326879 0.220916
0.506474 0.330081 0.220916
0.551841 0.333856 0.220916
0.598880 0.337742 0.220916
0.647053 0.341712 0.220916
0.695759 0.345731 0.220916
0.744321 0.349765 0.220916
0.791948 0.353773 0.220916
0.837703 0.357714 0.220916
0.880447 0.361543 0.220916
0.918766 0.365211 0.220916
0.950860 0.368667 0.220916
0.973415 0.370426 0.220916
0.984631 0.368530 0.220916
0.986695 0.366556 0.220916
0.986695 0.364504 0.220916
0.986695 0.362373 0.220916
0.986695 0.360164 0.220916
0.225697 0.354385 0.220916
0.227247 0.354493 0.220916
0.229030 0.354601 0.220916
0.231797 0.354744 0.220916
0.235916 0.354923 0.220916
0.241795 0.355135 0.220916
0.249882 0.355374 0.220916
0.260616 0.355635 0.220916
0.274387 0.355908 0.220916
0.291489 0.356183 0.220916
0.312094 0.356449 0.220916
0.336252 0.356690 0.220916
0.363895 0.356890 0.220916
0.398177 0.359915 0.220916
0.435980 0.363262 0.220916
0.476740 0.366778 0.220916
0.520022 0.370441 0.220916
0.565360 0.374224 0.220916
0.612256 0.378102 0.220916
0.660168 0.382044 0.220916
0.708486 0.386016 0.220916
0.756516 0.389982 0.220916
0.803445 0.393904 0.220916
0.848301 0.397739 0.220916
0.889899 0.401443 0.220916
0.926760 0.404968 0.220916
0.953521 0.404328 0.220916
0.972896 0.402499 0.220916
0.984415 0.400591 0.220916
0.986695 0.398604 0.220916
0.986695 0.396535 0.220916
0.986695 0.394386 0.220916
0.986695 0.392155 0.220916
0.224951 0.389075 0.220916
0.226412 0.389169 0.220916
0.228114 0.389263 0.220916
0.230785 0.389388 0.220916
0.234804 0.389542 0.220916
0.240599 0.389724 0.220916
0.248634 0.389927 0.220916
0.259369 0.390144 0.220916
0.274468 0.391727 0.220916
0.293871 0.393989 0.220916
0.317342 0.396479 0.220916
0.344843 0.399189 0.220916
0.376193 0.402105 0.220916
0.411112 0.405213 0.220916
0.449252 0.408496 0.220916
0.490220 0.411932 0.220916
0.533589 0.415501 0.220916
0.578901 0.419176 0.220916
0.625658 0.422930 0.220916
0.673310 0.426732 0.220916
0.721236 0.430548 0.220916
0.768722 0.434344 0.220916
0.814928 0.438080 0.220916
0.858844 0.441716 0.220916
0.896188 0.442539 0.220916
0.926840 0.440880 0.220916
0.952659 0.439143 0.220916
0.972321 0.437326 0.220916
0.984169 0.435429 0.220916
0.986695 0.433452 0.220916
0.986695 0.431393 0.220916
0.986695 0.429252 0.220916
0.986695 0.427029 0.220916
0.225420 0.432217 0.220916
0.227172 0.432796 0.220916
0.229225 0.433382 0.220916
0.232463 0.434178 0.220916
0.237349 0.435202 0.220916
0.244393 0.436458 0.220916
0.254130 0.437949 0.220916
0.267062 0.439673 0.220916
0.283591 0.441627 0.220916
0.303974 0.443807 0.220916
0.328308 0.446203 0.220916
0.356533 0.448805 0.220916
0.388466 0.451601 0.220916
0.423834 0.454575 0.220916
0.462296 0.457709 0.220916
0.503470 0.460984 0.220916
0.546935 0.464375 0.220916
0.592233 0.467859 0.220916
0.638864 0.471407 0.220916
0.686268 0.474990 0.220916
0.733809 0.478574 0.220916
0.780751 0.482126 0.220916
0.822664 0.482690 0.220916
0.860099 0.481213 0.220916
0.894722 0.479660 0.220916
0.925621 0.478029 0.220916
0.951715 0.476321 0.220916
0.971687 0.474534 0.220916
0.983890 0.472667 0.220916
0.986695 0.470721 0.220916
0.986695 0.468693 0.220916
0.986695 0.466584 0.220916
0.986695 0.464392 0.220916
0.228416 0.486034 0.220916
0.230628 0.486582 0.220916
0.233138 0.487136 0.220916
0.236983 0.487890 0.220916
0.242616 0.488858 0.220916
0.250521 0.490045 0.220916
0.261193 0.491452 0.220916
0.275083 0.493079 0.220916
0.292546 0.494922 0.220916
0.313796 0.496974 0.220916
0.338899 0.499228 0.220916
0.367781 0.501673 0.220916
0.400256 0.504296 0.220916
0.436051 0.507081 0.220916
0.474832 0.510011 0.220916
0.516222 0.513066 0.220916
0.559802 0.516224 0.220916
0.605111 0.519460 0.220916
0.651643 0.522748 0.220916
0.698224 0.525558 0.220916
0.739946 0.524337 0.220916
0.780944 0.523044 0.220916
0.820612 0.521679 0.220916
0.858268 0.520240 0.220916
0.893133 0.518727 0.220916
0.924298 0.517138 0.220916
0.950687 0.515473 0.220916
0.970990 0.513730 0.220916
0.983573 0.511910 0.220916
0.986695 0.510011 0.220916
0.986695 0.508032 0.220916
0.986695 0.505973 0.220916
0.986695 0.503832 0.220916
0.231652 0.542429 0.220916
0.234264 0.542938 0.220916
0.237172 0.543452 0.220916
0.241542 0.544151 0.220916
0.247822 0.545049 0.220916
0.256470 0.546149 0.220916
0.267949 0.547452 0.220916
0.282671 0.548958 0.220916
0.300949 0.550662 0.220916
0.322964 0.552558 0.220916
0.348759 0.554639 0.220916
0.378247 0.556893 0.220916
0.411235 0.559307 0.220916
0.447451 0.561868 0.220916
0.486563 0.564557 0.220916
0.528193 0.567356 0.220916
0.570655 0.569073 0.220916
0.611600 0.568097 0.220916
0.653338 0.567054 0.220916
0.695409 0.565943 0.220916
0.737317 0.564764 0.220916
0.778515 0.563515 0.220916
0.818401 0.562196 0.220916
0.856294 0.560805 0.220916
0.891417 0.559342 0.220916
0.922867 0.557806 0.220916
0.949571 0.556195 0.220916
0.970228 0.554510 0.220916
0.983215 0.552749 0.220916
0.986695 0.550911 0.220916
0.986695 0.548996 0.220916
0.986695 0.547002 0.220916
0.986695 0.544928 0.220916
0.234729 0.600455 0.220916
0.237674 0.600919 0.220916
0.240912 0.601387 0.220916
0.245719 0.602024 0.220916
0.252539 0.602842 0.220916
0.261811 0.603843 0.220916
0.273972 0.605029 0.220916
0.289404 0.606398 0.220916
0.308390 0.607947 0.220916
0.331084 0.609668 0.220916
0.357510 0.611555 0.220916
0.387567 0.613596 0.220916
0.419134 0.613546 0.220916
0.452929 0.612857 0.220916
0.489104 0.612108 0.220916
0.527304 0.611297 0.220916
0.567151 0.610425 0.220916
0.608240 0.609489 0.220916
0.650141 0.608489 0.220916
0.692392 0.607424 0.220916
0.734496 0.606294 0.220916
0.775909 0.605096 0.220916
0.816027 0.603831 0.220916
0.854172 0.602497 0.220916
0.889571 0.601093 0.220916
0.921323 0.599619 0.220916
0.948362 0.598073 0.220916
0.969396 0.596456 0.220916
0.982813 0.594765 0.220916
0.986695 0.593000 0.220916
0.986695 0.591160 0.220916
0.986695 0.589244 0.220916
0.986695 0.587251 0.220916
0.237224 0.659172 0.220916
0.240309 0.659167 0.220916
0.243635 0.659058 0.220916
0.248514 0.658909 0.220916
0.255348 0.658716 0.220916
0.264521 0.658477 0.220916
0.276404 0.658191 0.220916
0.291316 0.657856 0.220916
0.309477 0.657471 0.220916
0.330996 0.657034 0.220916
0.355859 0.656544 0.220916
0.383945 0.656000 0.220916
0.415044 0.655400 0.220916
0.448879 0.654745 0.220916
0.485128 0.654032 0.220916
0.523433 0.653261 0.220916
0.563411 0.652431 0.220916
0.604652 0.651541 0.220916
0.646725 0.650590 0.220916
0.689168 0.649577 0.220916
0.731481 0.648501 0.220916
0.773121 0.647361 0.220916
0.813485 0.646156 0.220916
0.851899 0.644886 0.220916
0.887590 0.643550 0.220916
0.919662 0.642146 0.220916
0.947057 0.640674 0.220916
0.968489 0.639133 0.220916
0.982361 0.637521 0.220916
0.986695 0.635839 0.220916
0.986695 0.634085 0.220916
0.986695 0.632259 0.220916
0.986695 0.630359 0.220916
0.235030 0.701097 0.220916
0.237916 0.700996 0.220916
0.241074 0.700893 0.220916
0.245740 0.700752 0.220916
0.252326 0.700571 0.220916
0.261233 0.700346 0.220916
0.272850 0.700076 0.220916
0.287516 0.699760 0.220916
0.305468 0.699397 0.220916
0.326826 0.698985 0.220916
0.351580 0.698523 0.220916
0.379610 0.698010 0.220916
0.410703 0.697444 0.220916
0.444576 0.696826 0.220916
0.480901 0.696154 0.220916
0.519315 0.695427 0.220916
0.559429 0.694644 0.220916
0.600831 0.693804 0.220916
0.643087 0.692906 0.220916
0.685731 0.691950 0.220916
0.728265 0.690934 0.220916
0.770146 0.689858 0.220916
0.810772 0.688721 0.220916
0.849468 0.687522 0.220916
0.885468 0.686260 0.220916
0.917880 0.684934 0.220916
0.945650 0.683543 0.220916
0.967504 0.682087 0.220916
0.981856 0.680564 0.220916
0.986695 0.678974 0.220916
0.986695 0.677316 0.220916
0.986695 0.675588 0.220916
0.986695 0.673791 0.220916
0.232837 0.742609 0.220916
0.235530 0.742515 0.220916
0.238503 0.742419 0.220916
0.242934 0.742288 0.220916
0.249243 0.742118 0.220916
0.257851 0.741908 0.220916
0.269169 0.741656 0.220916
0.283557 0.741361 0.220916
0.301271 0.741022 0.220916
0.322442 0.740637 0.220916
0.347069 0.740205 0.220916
0.375031 0.739726 0.220916
0.406109 0.739198 0.220916
0.440017 0.738620 0.220916
0.476419 0.737992 0.220916
0.514945 0.737312 0.220916
0.555202 0.736581 0.220916
0.596773 0.735795 0.220916
0.639220 0.734956 0.220916
0.682077 0.734062 0.220916
0.724845 0.733113 0.220916
0.766979 0.732106 0.220916
0.807881 0.731042 0.220916
0.846877 0.729920 0.220916
0.883203 0.728739 0.220916
0.915972 0.727498 0.220916
0.944138 0.726196 0.220916
0.966436 0.724833 0.220916
0.981293 0.723407 0.220916
0.986695 0.721918 0.220916
0.986695 0.720364 0.220916
0.986695 0.718745 0.220916
0.986695 0.717060 0.220916
0.230702 0.783286 0.220916
0.233183 0.783199 0.220916
0.235952 0.783110 0.220916
0.240121 0.782989 0.220916
0.246122 0.782832 0.220916
0.254396 0.782638 0.220916
0.265378 0.782406 0.220916
0.279451 0.782133 0.220916
0.296894 0.781820 0.220916
0.317851 0.781465 0.220916
0.342329 0.781066 0.220916
0.370206 0.780623 0.220916
0.401261 0.780136 0.220916
0.435199 0.779602 0.220916
0.471677 0.779022 0.220916
0.510319 0.778394 0.220916
0.550723 0.777717 0.220916
0.592471 0.776992 0.220916
0.635119 0.776216 0.220916
0.678201 0.775390 0.220916
0.721214 0.774511 0.220916
0.763616 0.773580 0.220916
0.804808 0.772596 0.220916
0.844119 0.771558 0.220916
0.880788 0.770465 0.220916
0.913934 0.769316 0.220916
0.942516 0.768111 0.220916
0.965279 0.766848 0.220916
0.980667 0.765527 0.220916
0.986684 0.764147 0.220916
0.986695 0.762707 0.220916
0.986695 0.761206 0.220916
0.986695 0.759643 0.220916
0.228662 0.822546 0.220916
0.230910 0.822466 0.220916
0.233454 0.822386 0.220916
0.237333 0.822276 0.220916
0.242993 0.822133 0.220916
0.250893 0.821957 0.220916
0.261497 0.821745 0.220916
0.275215 0.821497 0.220916
0.292348 0.821212 0.220916
0.313059 0.820888 0.220916
0.337362 0.820526 0.220916
0.365137 0.820122 0.220916
0.396156 0.819678 0.220916
0.430119 0.819193 0.220916
0.466672 0.818664 0.220916
0.505431 0.818092 0.220916
0.545990 0.817476 0.220916
0.587921 0.816814 0.220916
0.630781 0.816107 0.220916
0.674097 0.815354 0.220916
0.717369 0.814553 0.220916
0.760052 0.813704 0.220916
0.801548 0.812806 0.220916
0.841190 0.811858 0.220916
0.878219 0.810861 0.220916
0.911759 0.809812 0.220916
0.940778 0.808711 0.220916
0.964029 0.807557 0.220916
0.979972 0.806349 0.220916
0.986633 0.805088 0.220916
0.986695 0.803386 0.220916
0.986695 0.799177 0.220916
0.986695 0.794763 0.220916
0.226758 0.859736 0.220916
0.228751 0.859665 0.220916
0.231047 0.859593 0.220916
0.234607 0.859495 0.220916
0.239888 0.859368 0.220916
0.247371 0.859210 0.220916
0.257551 0.859021 0.220916
0.270866 0.858800 0.220916
0.287647 0.858545 0.220916
0.308075 0.858256 0.220916
0.332174 0.857932 0.220916
0.359825 0.857572 0.220916
0.390795 0.857175 0.220916
0.424774 0.856741 0.220916
0.461400 0.856269 0.220916
0.500279 0.855757 0.220916
0.540996 0.855206 0.220916
0.583119 0.854615 0.220916
0.626198 0.853982 0.220916
0.669761 0.853307 0.220916
0.713303 0.852590 0.220916
0.756280 0.851830 0.220916
0.798095 0.851026 0.220916
0.838084 0.850176 0.220916
0.875490 0.849282 0.220916
0.909444 0.848341 0.220916
0.938919 0.847353 0.220916
0.962680 0.846317 0.220916
0.978330 0.843358 0.220916
0.986117 0.839865 0.220916
0.986695 0.836191 0.220916
0.986695 0.832330 0.220916
0.986695 0.828277 0.220916
0.225034 0.894111 0.220916
0.226749 0.894050 0.220916
0.228774 0.893987 0.220916
0.231983 0.893902 0.220916
0.236844 0.893791 0.220916
0.243864 0.893654 0.220916
0.253568 0.893490 0.220916
0.266429 0.893297 0.220916
0.282808 0.893076 0.220916
0.302911 0.892825 0.220916
0.326771 0.892543 0.220916
0.354273 0.892230 0.220916
0.385177 0.891884 0.220916
0.419163 0.891506 0.220916
0.455858 0.891095 0.220916
0.494857 0.890649 0.220916
0.535736 0.890169 0.220916
0.578058 0.889654 0.220916
0.621367 0.889102 0.220916
0.665186 0.888514 0.220916
0.709010 0.887888 0.220916
0.752295 0.887224 0.220916
0.794445 0.886521 0.220916
0.834796 0.885779 0.220916
0.872474 0.884930 0.220916
0.904197 0.882407 0.220916
0.932359 0.879737 0.220916
0.955976 0.876914 0.220916
0.973856 0.873934 0.220916
0.984516 0.870792 0.220916
0.986695 0.867481 0.220916
0.986695 0.863996 0.220916
0.986695 0.860332 0.220916
0.223539 0.924805 0.220916
0.224953 0.924754 0.220916
0.226682 0.924701 0.220916
0.229506 0.924630 0.220916
0.233904 0.924538 0.220916
0.240409 0.924424 0.220916
0.249580 0.924286 0.220916
0.261928 0.924126 0.220916
0.277851 0.923941 0.220916
0.297579 0.923731 0.220916
0.321162 0.923495 0.220916
0.348485 0.923233 0.220916
0.379303 0.922944 0.220916
0.413284 0.922628 0.220916
0.450042 0.922284 0.220916
0.489161 0.921910 0.220916
0.530207 0.921508 0.220916
0.572734 0.921076 0.220916
0.616281 0.920613 0.220916
