studio/assets/luts/rag-vectors.cube
TITLE "RAG & Vectors — Neon Tech"
# Deep purple shadows, neon blue highlights. Technical, modern feel.
# Generated by Like One Studio — cinema-grade pipeline
# Color science: lift/gamma/gain + filmic S-curve + zone tinting
LUT_3D_SIZE 33
# Domain: standard 0-1 range
DOMAIN_MIN 0.0 0.0 0.0
DOMAIN_MAX 1.0 1.0 1.0
0.220916 0.220916 0.221842
0.220916 0.220916 0.221895
0.220916 0.220916 0.221956
0.220916 0.220916 0.222047
0.220916 0.220916 0.222173
0.220916 0.220916 0.222342
0.220916 0.220916 0.222561
0.220916 0.220916 0.222838
0.220916 0.220916 0.223183
0.220916 0.220916 0.223604
0.220916 0.220916 0.224112
0.221685 0.220916 0.224713
0.226495 0.220916 0.225413
0.236687 0.220916 0.226216
0.253060 0.220916 0.227121
0.275935 0.220916 0.228123
0.305179 0.220916 0.229209
0.340344 0.220916 0.230363
0.380817 0.220916 0.231560
0.425939 0.220916 0.232767
0.475049 0.220916 0.233943
0.527487 0.220916 0.235042
0.582565 0.220916 0.236008
0.639531 0.220916 0.236783
0.697511 0.220916 0.237300
0.755443 0.220916 0.237496
0.811990 0.220916 0.237307
0.865424 0.220916 0.236677
0.913444 0.220916 0.235564
0.952433 0.220916 0.231783
0.978851 0.220916 0.227968
0.986695 0.220916 0.224488
0.986695 0.220916 0.221885
0.220916 0.220916 0.222025
0.220916 0.220916 0.222082
0.220916 0.220916 0.222147
0.220916 0.220916 0.222244
0.220916 0.220916 0.222378
0.220916 0.220916 0.222557
0.220916 0.220916 0.222787
0.220916 0.220916 0.223077
0.220916 0.220916 0.223436
0.220916 0.220916 0.223871
0.220916 0.220916 0.224392
0.221864 0.220916 0.225006
0.226966 0.220916 0.225717
0.237468 0.220916 0.226529
0.254142 0.220916 0.227439
0.277288 0.220916 0.228442
0.306762 0.220916 0.229524
0.342110 0.220916 0.230669
0.382724 0.220916 0.231850
0.427950 0.220916 0.233035
0.477130 0.220916 0.234182
0.529609 0.220916 0.235245
0.584700 0.220916 0.236169
0.641649 0.220916 0.236894
0.699581 0.220916 0.237357
0.757427 0.220916 0.237493
0.813843 0.220916 0.237242
0.867088 0.220916 0.236548
0.914758 0.220916 0.235064
0.953415 0.220916 0.231282
0.979367 0.220916 0.227508
0.986695 0.220916 0.224119
0.986695 0.220916 0.221675
0.220916 0.220916 0.222247
0.220916 0.220916 0.222308
0.220916 0.220916 0.222379
0.220916 0.220916 0.222482
0.220916 0.220916 0.222625
0.220916 0.220916 0.222814
0.220916 0.220916 0.223056
0.220916 0.220916 0.223359
0.220916 0.220916 0.223732
0.220916 0.220916 0.224182
0.220916 0.220916 0.224717
0.222084 0.220916 0.225344
0.227512 0.220916 0.226066
0.238358 0.220916 0.226886
0.255366 0.220916 0.227800
0.278813 0.220916 0.228802
0.308540 0.220916 0.229879
0.344091 0.220916 0.231011
0.384861 0.220916 0.232173
0.430202 0.220916 0.233331
0.479461 0.220916 0.234445
0.531985 0.220916 0.235466
0.587090 0.220916 0.236340
0.644021 0.220916 0.237009
0.701898 0.220916 0.237409
0.759647 0.220916 0.237479
0.815915 0.220916 0.237156
0.868948 0.220916 0.236392
0.916222 0.220916 0.234492
0.954505 0.220916 0.230720
0.979927 0.220916 0.226997
0.986695 0.220916 0.223720
0.986695 0.220916 0.221466
0.220916 0.220916 0.222593
0.220916 0.220916 0.222660
0.220916 0.220916 0.222737
0.220916 0.220916 0.222849
0.220916 0.220916 0.223003
0.220916 0.220916 0.223205
0.220916 0.220916 0.223463
0.220916 0.220916 0.223784
0.220916 0.220916 0.224175
0.220916 0.220916 0.224643
0.220916 0.220916 0.225196
0.222434 0.220916 0.225838
0.228319 0.220916 0.226573
0.239646 0.220916 0.227401
0.257119 0.220916 0.228318
0.280984 0.220916 0.229316
0.311064 0.220916 0.230381
0.346898 0.220916 0.231493
0.387886 0.220916 0.232625
0.433387 0.220916 0.233742
0.482757 0.220916 0.234804
0.535345 0.220916 0.235764
0.590470 0.220916 0.236566
0.647375 0.220916 0.237153
0.705174 0.220916 0.237463
0.762785 0.220916 0.237436
0.818842 0.220916 0.237013
0.871570 0.220916 0.236148
0.918281 0.220916 0.233671
0.956026 0.220916 0.229921
0.980688 0.220916 0.226286
0.986695 0.220916 0.223184
0.986695 0.220916 0.221221
0.220916 0.220916 0.223104
0.220916 0.220916 0.223177
0.220916 0.220916 0.223261
0.220916 0.220916 0.223383
0.220916 0.220916 0.223551
0.220916 0.220916 0.223769
0.220916 0.220916 0.224045
0.220916 0.220916 0.224385
0.220916 0.220916 0.224797
0.220916 0.220916 0.225286
0.220923 0.220916 0.225857
0.222957 0.220916 0.226515
0.229440 0.220916 0.227262
0.241390 0.220916 0.228096
0.259465 0.220916 0.229011
0.283870 0.220916 0.229999
0.314405 0.220916 0.231043
0.350604 0.220916 0.232122
0.391875 0.220916 0.233208
0.437585 0.220916 0.234267
0.487099 0.220916 0.235256
0.539773 0.220916 0.236129
0.594924 0.220916 0.236832
0.651794 0.220916 0.237307
0.709490 0.220916 0.237495
0.766917 0.220916 0.237338
0.822691 0.220916 0.236782
0.875011 0.220916 0.235784
0.920972 0.220916 0.232569
0.957994 0.220916 0.228868
0.981632 0.220916 0.225374
0.986695 0.220916 0.222538
0.986695 0.220916 0.221002
0.220916 0.220916 0.223820
0.220916 0.220916 0.223900
0.220916 0.220916 0.223992
0.220916 0.220916 0.224125
0.220916 0.220916 0.224306
0.220916 0.220916 0.224541
0.220916 0.220916 0.224836
0.220916 0.220916 0.225196
0.220916 0.220916 0.225628
0.220916 0.220916 0.226136
0.221015 0.220916 0.226724
0.223705 0.220916 0.227395
0.230921 0.220916 0.228148
0.243631 0.220916 0.228981
0.262436 0.220916 0.229886
0.287493 0.220916 0.230851
0.318578 0.220916 0.231860
0.355222 0.220916 0.232889
0.396839 0.220916 0.233910
0.442807 0.220916 0.234887
0.492500 0.220916 0.235778
0.545279 0.220916 0.236536
0.600465 0.220916 0.237107
0.657292 0.220916 0.237438
0.714857 0.220916 0.237470
0.772052 0.220916 0.237148
0.827468 0.220916 0.236425
0.879106 0.220916 0.234781
0.924284 0.220916 0.231175
0.960383 0.220916 0.227569
0.982710 0.220916 0.224297
0.986695 0.220916 0.221851
0.986695 0.220916 0.220916
0.220916 0.220916 0.224781
0.220916 0.220916 0.224868
0.220916 0.220916 0.224967
0.220916 0.220916 0.225110
0.220916 0.220916 0.225304
0.220916 0.220916 0.225554
0.220916 0.220916 0.225865
0.220916 0.220916 0.226242
0.220916 0.220916 0.226690
0.220916 0.220916 0.227212
0.221264 0.220916 0.227810
0.224725 0.220916 0.228486
0.232798 0.220916 0.229236
0.246391 0.220916 0.230055
0.266039 0.220916 0.230935
0.291850 0.220916 0.231861
0.323573 0.220916 0.232815
0.360733 0.220916 0.233772
0.402754 0.220916 0.234702
0.449026 0.220916 0.235569
0.498933 0.220916 0.236331
0.551840 0.220916 0.236941
0.607067 0.220916 0.237347
0.663843 0.220916 0.237496
0.721253 0.220916 0.237335
0.778166 0.220916 0.236814
0.833145 0.220916 0.235891
0.883798 0.220916 0.233051
0.928177 0.220916 0.229492
0.963141 0.220916 0.226058
0.983846 0.220916 0.223128
0.986695 0.220916 0.221245
0.986695 0.220916 0.220916
0.220916 0.220916 0.226016
0.220916 0.220916 0.226108
0.220916 0.220916 0.226213
0.220916 0.220916 0.226363
0.220916 0.220916 0.226566
0.220916 0.220916 0.226827
0.220916 0.220916 0.227149
0.220916 0.220916 0.227536
0.220916 0.220916 0.227992
0.220916 0.220916 0.228518
0.221724 0.220916 0.229115
0.226057 0.220916 0.229781
0.235092 0.220916 0.230512
0.249670 0.220916 0.231300
0.270257 0.220916 0.232133
0.296904 0.220916 0.232997
0.329337 0.220916 0.233870
0.367077 0.220916 0.234727
0.409557 0.220916 0.235536
0.456178 0.220916 0.236260
0.506332 0.220916 0.236858
0.559391 0.220916 0.237283
0.614669 0.220916 0.237486
0.671389 0.220916 0.237417
0.728618 0.220916 0.237027
0.785200 0.220916 0.236273
0.839389 0.220916 0.234425
0.889159 0.220916 0.230993
0.932587 0.220916 0.227560
0.966191 0.220916 0.224419
0.984942 0.220916 0.222004
0.986695 0.220916 0.220923
0.986695 0.220916 0.220916
0.220916 0.220916 0.227530
0.220916 0.220916 0.227625
0.220916 0.220916 0.227733
0.220916 0.220916 0.227886
0.220916 0.220916 0.228093
0.220916 0.220916 0.228357
0.220916 0.220916 0.228681
0.220916 0.220916 0.229068
0.220916 0.220916 0.229519
0.220916 0.220916 0.230034
0.222433 0.220916 0.230612
0.227718 0.220916 0.231249
0.237795 0.220916 0.231939
0.253435 0.220916 0.232671
0.275029 0.220916 0.233432
0.302578 0.220916 0.234204
0.335781 0.220916 0.234965
0.374156 0.220916 0.235687
0.417143 0.220916 0.236339
0.464156 0.220916 0.236883
0.514593 0.220916 0.237278
0.567828 0.220916 0.237480
0.623172 0.220916 0.237442
0.679832 0.220916 0.237118
0.736858 0.220916 0.236467
0.792983 0.220916 0.235268
0.846090 0.220916 0.231996
0.895103 0.220916 0.228652
0.937422 0.220916 0.225472
0.969431 0.220916 0.222806
0.985876 0.220916 0.221157
0.986695 0.220916 0.220916
0.986695 0.220916 0.220916
0.220916 0.220916 0.229297
0.220916 0.220916 0.229390
0.220916 0.220916 0.229496
0.220916 0.220916 0.229648
0.220916 0.220916 0.229850
0.220916 0.220916 0.230107
0.220916 0.220916 0.230421
0.220916 0.220916 0.230792
0.220916 0.220916 0.231221
0.221027 0.220916 0.231706
0.223402 0.220916 0.232243
0.229689 0.220916 0.232826
0.240858 0.220916 0.233447
0.257606 0.220916 0.234093
0.280253 0.220916 0.234749
0.308749 0.220916 0.235395
0.342767 0.220916 0.236007
0.381824 0.220924 0.236557
0.425365 0.220958 0.237013
0.472812 0.221013 0.237337
0.523570 0.221074 0.237490
0.577010 0.221127 0.237430
0.632436 0.221158 0.237114
0.689040 0.221154 0.236504
0.745845 0.221110 0.235565
0.800805 0.221049 0.232463
0.853362 0.220969 0.229256
0.901517 0.220917 0.226142
0.942569 0.220916 0.223413
0.972740 0.220916 0.221492
0.986508 0.220916 0.220916
0.986695 0.220916 0.220916
0.986695 0.220916 0.220916
0.220916 0.220922 0.231241
0.220916 0.220926 0.231329
0.220916 0.220931 0.231428
0.220916 0.220940 0.231570
0.220916 0.220955 0.231758
0.220916 0.220980 0.231996
0.220916 0.221018 0.232284
0.220916 0.221073 0.232621
0.220916 0.221151 0.233007
0.221353 0.221257 0.233438
0.224599 0.221395 0.233907
0.231902 0.221570 0.234407
0.244177 0.221783 0.234927
0.262049 0.222036 0.235453
0.285770 0.222326 0.235968
0.315240 0.222649 0.236450
0.350109 0.222994 0.236874
0.389888 0.223350 0.237211
0.434028 0.223698 0.237430
0.481955 0.224017 0.237495
0.533075 0.224282 0.237368
0.586756 0.224464 0.237012
0.642289 0.224535 0.236390
0.698768 0.224476 0.235318
0.754487 0.224326 0.232376
0.809110 0.224004 0.229332
0.861064 0.223511 0.226353
0.908268 0.222871 0.223692
0.947896 0.222147 0.221714
0.975984 0.221456 0.220916
0.986695 0.220985 0.220916
0.986695 0.220916 0.220916
0.986695 0.220916 0.220916
0.220916 0.224311 0.233235
0.220916 0.224382 0.233313
0.220916 0.224463 0.233399
0.220916 0.224580 0.233522
0.220916 0.224738 0.233685
0.220916 0.224941 0.233889
0.220916 0.225192 0.234134
0.220916 0.225496 0.234418
0.220916 0.225854 0.234737
0.221852 0.226268 0.235086
0.225941 0.226739 0.235458
0.234232 0.227265 0.235843
0.247590 0.227843 0.236228
0.266572 0.228464 0.236598
0.291364 0.229120 0.236933
0.321820 0.229795 0.237212
0.357566 0.230472 0.237409
0.398107 0.231125 0.237495
0.442892 0.231728 0.237440
0.491348 0.232246 0.237210
0.542880 0.232643 0.236773
0.596845 0.232879 0.236096
0.652155 0.232958 0.234502
0.707831 0.232870 0.231724
0.763444 0.232502 0.228865
0.817726 0.231820 0.226078
0.869038 0.230803 0.223588
0.915204 0.229452 0.221721
0.953259 0.227801 0.220919
0.979017 0.225933 0.220916
0.986695 0.224005 0.220916
0.986695 0.223179 0.220916
0.986695 0.222813 0.220916
0.220916 0.235085 0.235095
0.220916 0.235216 0.235156
0.220916 0.235364 0.235223
0.220916 0.235575 0.235319
0.220916 0.235858 0.235445
0.220916 0.236216 0.235600
0.220916 0.236652 0.235783
0.220916 0.237169 0.235991
0.220924 0.237766 0.236219
0.222432 0.238441 0.236460
0.227285 0.239190 0.236705
0.236491 0.240006 0.236943
0.250869 0.240878 0.237159
0.270915 0.241793 0.237337
0.296755 0.242732 0.237456
0.328198 0.243672 0.237496
0.364845 0.244587 0.237430
0.406187 0.245443 0.237233
0.451668 0.246202 0.236875
0.500713 0.246822 0.236328
0.552716 0.247253 0.235565
0.606130 0.247601 0.233106
0.661162 0.247665 0.230507
0.716969 0.247388 0.227867
0.772509 0.246712 0.225331
0.826459 0.245584 0.223111
0.877105 0.243962 0.221505
0.922163 0.241817 0.220916
0.958507 0.239152 0.220916
0.981697 0.236007 0.220916
0.986695 0.234397 0.220916
0.986695 0.233568 0.220916
0.986695 0.232726 0.220916
0.220916 0.254342 0.236581
0.220916 0.254516 0.236619
0.220916 0.254713 0.236662
0.220916 0.254993 0.236721
0.220916 0.255365 0.236797
0.220916 0.255835 0.236889
0.220916 0.256403 0.236993
0.220916 0.257071 0.237106
0.220984 0.257834 0.237219
0.222953 0.258689 0.237327
0.228435 0.259625 0.237417
0.238429 0.260632 0.237478
0.253721 0.261694 0.237495
0.274756 0.262790 0.237451
0.301602 0.263897 0.237326
0.334025 0.264983 0.237099
0.371594 0.266016 0.236748
0.413782 0.266954 0.236247
0.460022 0.267752 0.235575
0.508882 0.268524 0.233437
0.560587 0.269063 0.231136
0.614512 0.269306 0.228755
0.669919 0.269186 0.226390
0.725927 0.268634 0.224186
0.781449 0.267579 0.222349
0.835099 0.265951 0.221163
0.885076 0.263684 0.220916
0.928978 0.260725 0.220916
0.963495 0.257037 0.220916
0.982205 0.255476 0.220916
0.986695 0.254309 0.220916
0.986695 0.253104 0.220916
0.986695 0.251864 0.220916
0.220916 0.282241 0.237413
0.220916 0.282440 0.237424
0.220916 0.282663 0.237436
0.220916 0.282980 0.237452
0.220916 0.283401 0.237469
0.220916 0.283930 0.237484
0.220916 0.284567 0.237495
0.220916 0.285311 0.237494
0.221028 0.286158 0.237475
0.223250 0.287098 0.237428
0.229153 0.288120 0.237343
0.239745 0.289209 0.237206
0.255798 0.290345 0.237004
0.277711 0.291502 0.236719
0.305503 0.292653 0.236334
0.338890 0.293762 0.235830
0.377005 0.294875 0.234592
0.419319 0.295940 0.232722
0.465592 0.296841 0.230727
0.515250 0.297520 0.228650
0.567686 0.297916 0.226561
0.622233 0.297958 0.224564
0.678120 0.297574 0.222808
0.734426 0.296684 0.221501
0.790010 0.295207 0.220921
0.843418 0.293058 0.220916
0.892756 0.290153 0.220916
0.934449 0.287006 0.220916
0.963587 0.285698 0.220916
0.981967 0.284334 0.220916
0.986695 0.282916 0.220916
0.986695 0.281442 0.220916
0.986695 0.279915 0.220916
0.220916 0.318166 0.237297
0.220916 0.318370 0.237278
0.220916 0.318599 0.237256
0.220916 0.318924 0.237222
0.220916 0.319355 0.237173
0.220916 0.319894 0.237105
0.220916 0.320543 0.237012
0.220916 0.321296 0.236888
0.220992 0.322149 0.236725
0.223168 0.323091 0.236514
0.229192 0.324108 0.236244
0.240113 0.325181 0.235903
0.256639 0.326310 0.235337
0.278807 0.327549 0.234016
0.306850 0.328775 0.232562
0.340474 0.329951 0.230987
0.379206 0.331035 0.229312
0.422487 0.331977 0.227572
0.469728 0.332724 0.225824
0.520319 0.333215 0.224149
0.573618 0.333382 0.222662
0.628923 0.333154 0.221522
0.685425 0.332450 0.220943
0.742157 0.331186 0.220916
0.797918 0.329272 0.220916
0.851181 0.326612 0.220916
0.896031 0.324933 0.220916
0.933632 0.323559 0.220916
0.963024 0.322120 0.220916
0.981699 0.320615 0.220916
0.986695 0.319045 0.220916
0.986695 0.317408 0.220916
0.986695 0.315705 0.220916
0.220916 0.361090 0.235972
0.220916 0.361286 0.235922
0.220916 0.361505 0.235864
0.220916 0.361816 0.235780
0.220916 0.362226 0.235664
0.220916 0.362753 0.235427
0.220916 0.363417 0.234914
0.220916 0.364189 0.234299
0.220916 0.365061 0.233576
0.222419 0.366021 0.232742
0.227782 0.367056 0.231796
0.238122 0.368145 0.230740
0.254273 0.369264 0.229581
0.276645 0.370386 0.228331
0.305210 0.371477 0.227013
0.339608 0.372498 0.225659
0.379286 0.373403 0.224318
0.423616 0.374145 0.223059
0.471945 0.374665 0.221980
0.523615 0.374901 0.221209
0.577939 0.374786 0.220916
0.634171 0.374243 0.220916
0.691460 0.373191 0.220916
0.748784 0.371540 0.220916
0.802041 0.370046 0.220916
0.850807 0.368754 0.220916
0.894892 0.367393 0.220916
0.932737 0.365962 0.220916
0.962405 0.364462 0.220916
0.981401 0.362890 0.220916
0.986695 0.361247 0.220916
0.986695 0.359531 0.220916
0.986695 0.357742 0.220916
0.220916 0.410399 0.230474
0.220916 0.410591 0.230328
0.220916 0.410806 0.230162
0.220916 0.411111 0.229926
0.220916 0.411513 0.229611
0.220916 0.412015 0.229211
0.220916 0.412616 0.228725
0.220916 0.413311 0.228151
0.220916 0.414091 0.227492
0.221325 0.414946 0.226752
0.225284 0.415859 0.225941
0.234498 0.416809 0.225075
0.249951 0.417773 0.224176
0.272123 0.418722 0.223279
0.300966 0.419620 0.222429
0.336031 0.420429 0.221692
0.376661 0.421105 0.221151
0.422123 0.421595 0.220918
0.471679 0.421844 0.220916
0.524601 0.421789 0.220916
0.580146 0.421361 0.220916
0.637512 0.420484 0.220916
0.693400 0.419389 0.220916
0.748007 0.418227 0.220916
0.800353 0.416997 0.220916
0.849333 0.415699 0.220916
0.893653 0.414330 0.220916
0.931760 0.412890 0.220916
0.961726 0.411378 0.220916
0.981068 0.409793 0.220916
0.986695 0.408134 0.220916
0.986695 0.406401 0.220916
0.986695 0.404591 0.220916
0.220916 0.464667 0.224495
0.220916 0.464834 0.224384
0.220916 0.465021 0.224259
0.220916 0.465285 0.224084
0.220916 0.465634 0.223854
0.220916 0.466068 0.223571
0.220916 0.466584 0.223237
0.220916 0.467179 0.222861
0.220916 0.467842 0.222456
0.220916 0.468562 0.222039
0.222578 0.469322 0.221635
0.229709 0.470102 0.221280
0.243610 0.470877 0.221020
0.264928 0.471618 0.220916
0.293624 0.472292 0.220916
0.329148 0.472859 0.220916
0.370685 0.473274 0.220916
0.417352 0.473488 0.220916
0.468288 0.473445 0.220916
0.522770 0.472610 0.220916
0.578689 0.471663 0.220916
0.635113 0.470652 0.220916
0.691173 0.469577 0.220916
0.745971 0.468436 0.220916
0.798527 0.467227 0.220916
0.847736 0.465951 0.220916
0.892310 0.464605 0.220916
0.930700 0.463188 0.220916
0.960986 0.461700 0.220916
0.980699 0.460139 0.220916
0.986695 0.458503 0.220916
0.986695 0.456793 0.220916
0.986695 0.455007 0.220916
0.220916 0.522745 0.221011
0.220916 0.522883 0.220990
0.220916 0.523038 0.220970
0.220916 0.523257 0.220946
0.220916 0.523545 0.220925
0.220916 0.523901 0.220916
0.220916 0.524322 0.220916
0.220916 0.524803 0.220916
0.220916 0.525335 0.220916
0.220916 0.525905 0.220916
0.220941 0.526497 0.220916
0.224608 0.527090 0.220916
0.235630 0.527660 0.220916
0.255002 0.528179 0.220916
0.282804 0.528613 0.220916
0.320280 0.528041 0.220916
0.364233 0.527360 0.220916
0.412995 0.526622 0.220916
0.465249 0.525826 0.220916
0.519886 0.524972 0.220916
0.575943 0.524057 0.220916
0.632530 0.523080 0.220916
0.688775 0.522041 0.220916
0.743778 0.520938 0.220916
0.796558 0.519770 0.220916
0.846013 0.518535 0.220916
0.890858 0.517233 0.220916
0.929551 0.515862 0.220916
0.960180 0.514421 0.220916
0.980290 0.512909 0.220916
0.986695 0.511325 0.220916
0.986695 0.509667 0.220916
0.986695 0.507935 0.220916
0.220916 0.583637 0.220916
0.220916 0.583745 0.220916
0.220916 0.583867 0.220916
0.220916 0.584037 0.220916
0.220916 0.584260 0.220916
0.220916 0.584535 0.220916
0.220916 0.584857 0.220916
0.220916 0.585082 0.220916
0.220916 0.584811 0.220916
0.220916 0.584498 0.220916
0.220916 0.584142 0.220916
0.222132 0.583741 0.220916
0.231511 0.583292 0.220916
0.250908 0.582796 0.220916
0.279936 0.582249 0.220916
0.317206 0.581652 0.220916
0.361009 0.581002 0.220916
0.409742 0.580299 0.220916
0.462049 0.579540 0.220916
0.516794 0.578725 0.220916
0.572996 0.577852 0.220916
0.629757 0.576921 0.220916
0.686201 0.575930 0.220916
0.741422 0.574877 0.220916
0.794442 0.573762 0.220916
0.844160 0.572583 0.220916
0.889294 0.571340 0.220916
0.928310 0.570031 0.220916
0.959305 0.568654 0.220916
0.979838 0.567210 0.220916
0.986695 0.565696 0.220916
0.986695 0.564111 0.220916
0.986695 0.562455 0.220916
0.220916 0.639926 0.220916
0.220916 0.639873 0.220916
0.220916 0.639813 0.220916
0.220916 0.639727 0.220916
0.220916 0.639611 0.220916
0.220916 0.639464 0.220916
0.220916 0.639282 0.220916
0.220916 0.639065 0.220916
0.220916 0.638810 0.220916
0.220916 0.638516 0.220916
0.220916 0.638180 0.220916
0.221651 0.637802 0.220916
0.230046 0.637379 0.220916
0.248610 0.636912 0.220916
0.277039 0.636397 0.220916
0.313947 0.635834 0.220916
0.357578 0.635222 0.220916
0.406272 0.634559 0.220916
0.458631 0.633844 0.220916
0.513488 0.633076 0.220916
0.569845 0.632253 0.220916
0.626791 0.631375 0.220916
0.683445 0.630441 0.220916
0.738898 0.629448 0.220916
0.792174 0.628396 0.220916
0.842171 0.627284 0.220916
0.887614 0.626111 0.220916
0.926973 0.624876 0.220916
0.958357 0.623576 0.220916
0.979340 0.622213 0.220916
0.986695 0.620783 0.220916
0.986695 0.619287 0.220916
0.986695 0.617722 0.220916
0.220916 0.693608 0.220916
0.220916 0.693559 0.220916
0.220916 0.693503 0.220916
0.220916 0.693423 0.220916
0.220916 0.693316 0.220916
0.220916 0.693179 0.220916
0.220916 0.693010 0.220916
0.220916 0.692808 0.220916
0.220916 0.692571 0.220916
0.220916 0.692296 0.220916
0.220916 0.691984 0.220916
0.221271 0.691632 0.220916
0.228598 0.691239 0.220916
0.246243 0.690804 0.220916
0.274004 0.690325 0.220916
0.310505 0.689801 0.220916
0.353937 0.689231 0.220916
0.402582 0.688614 0.220916
0.454990 0.687948 0.220916
0.509964 0.687233 0.220916
0.566483 0.686467 0.220916
0.623625 0.685649 0.220916
0.680502 0.684778 0.220916
0.736202 0.683854 0.220916
0.789749 0.682874 0.220916
0.840043 0.681837 0.220916
0.885814 0.680744 0.220916
0.925537 0.679592 0.220916
0.957333 0.678381 0.220916
0.978793 0.677109 0.220916
0.986695 0.675775 0.220916
0.986695 0.674379 0.220916
0.986695 0.672919 0.220916
0.220916 0.746222 0.220916
0.220916 0.746177 0.220916
0.220916 0.746126 0.220916
0.220916 0.746053 0.220916
0.220916 0.745954 0.220916
0.220916 0.745828 0.220916
0.220916 0.745673 0.220916
0.220916 0.745488 0.220916
0.220916 0.745270 0.220916
0.220916 0.745019 0.220916
0.220916 0.744732 0.220916
0.221017 0.744409 0.220916
0.227189 0.744049 0.220916
0.243823 0.743649 0.220916
0.270841 0.743210 0.220916
0.306882 0.742729 0.220916
0.350085 0.742206 0.220916
0.398667 0.741639 0.220916
0.451122 0.741028 0.220916
0.506216 0.740371 0.220916
0.562906 0.739667 0.220916
0.620255 0.738916 0.220916
0.677367 0.738116 0.220916
0.733329 0.737266 0.220916
0.787162 0.736365 0.220916
0.837771 0.735413 0.220916
0.883888 0.734407 0.220916
0.923997 0.733348 0.220916
0.956228 0.732234 0.220916
0.978191 0.731064 0.220916
0.986691 0.729836 0.220916
0.986695 0.728551 0.220916
0.986695 0.727207 0.220916
0.220916 0.796870 0.220916
0.220916 0.796829 0.220916
0.220916 0.796783 0.220916
0.220916 0.796717 0.220916
0.220916 0.796628 0.220916
0.220916 0.796514 0.220916
0.220916 0.796375 0.220916
0.220916 0.796208 0.220916
0.220916 0.796011 0.220916
0.220916 0.795785 0.220916
0.220916 0.795526 0.220916
0.220917 0.795235 0.220916
0.225844 0.794910 0.220916
0.241370 0.794550 0.220916
0.267560 0.794153 0.220916
0.303082 0.793719 0.220916
0.346023 0.793247 0.220916
0.394525 0.792736 0.220916
0.447022 0.792184 0.220916
0.502240 0.791591 0.220916
0.559107 0.790956 0.220916
0.616674 0.790278 0.220916
0.674034 0.789555 0.220916
0.730273 0.788788 0.220916
0.784409 0.787974 0.220916
0.835350 0.787113 0.220916
0.881832 0.786204 0.220916
0.922348 0.785246 0.220916
0.955039 0.784238 0.220916
0.977532 0.783180 0.220916
0.986661 0.782092 0.220916
0.986695 0.782388 0.220916
0.986695 0.782697 0.220916
0.220916 0.844537 0.220916
0.220916 0.844501 0.220916
0.220916 0.844460 0.220916
0.220916 0.844402 0.220916
0.220916 0.844324 0.220916
0.220916 0.844224 0.220916
0.220916 0.844101 0.220916
0.220916 0.843954 0.220916
0.220916 0.843781 0.220916
0.220916 0.843582 0.220916
0.220916 0.843354 0.220916
0.220916 0.843098 0.220916
0.224591 0.842811 0.220916
0.238904 0.842494 0.220916
0.264174 0.842145 0.220916
0.299111 0.841762 0.220916
0.341749 0.841346 0.220916
0.390152 0.840896 0.220916
0.442687 0.840409 0.220916
0.498030 0.839886 0.220916
0.555082 0.839326 0.220916
0.612877 0.838727 0.220916
0.670499 0.838090 0.220916
0.727028 0.837412 0.220916
0.781484 0.836693 0.220916
0.832774 0.835933 0.220916
0.879642 0.835129 0.220916
0.920586 0.834283 0.220916
0.953264 0.834246 0.220916
0.976132 0.834484 0.220916
0.986458 0.834733 0.220916
0.986695 0.834992 0.220916
0.986695 0.835263 0.220916
0.220916 0.888048 0.220916
0.220916 0.888017 0.220916
0.220916 0.887982 0.220916
0.220916 0.887933 0.220916
0.220916 0.887866 0.220916
0.220916 0.887782 0.220916
0.220916 0.887677 0.220916
0.220916 0.887552 0.220916
0.220916 0.887405 0.220916
0.220916 0.887235 0.220916
0.220916 0.887042 0.220916
0.220916 0.886824 0.220916
0.223463 0.886580 0.220916
0.236450 0.886310 0.220916
0.260697 0.886012 0.220916
0.294975 0.885687 0.220916
0.337266 0.885332 0.220916
0.385548 0.884948 0.220916
0.438111 0.884533 0.220916
