studio/assets/luts/rag-vectors.cube
TITLE "RAG & Vectors — Neon Tech"
# Deep purple shadows, neon blue highlights. Technical, modern feel.
# Generated by Like One Studio — cinema-grade pipeline
# Color science: lift/gamma/gain + filmic S-curve + zone tinting
LUT_3D_SIZE 5
# Domain: standard 0-1 range
DOMAIN_MIN 0.0 0.0 0.0
DOMAIN_MAX 1.0 1.0 1.0
0.220916 0.220916 0.221842
0.220916 0.220916 0.223183
0.305179 0.220916 0.229209
0.697511 0.220916 0.237300
0.986695 0.220916 0.221885
0.220916 0.220916 0.227530
0.220916 0.220916 0.229519
0.335781 0.220916 0.234965
0.736858 0.220916 0.236467
0.986695 0.220916 0.220916
0.220916 0.361090 0.235972
0.220916 0.365061 0.233576
0.379286 0.373403 0.224318
0.802041 0.370046 0.220916
0.986695 0.357742 0.220916
0.220916 0.796870 0.220916
0.220916 0.796011 0.220916
0.346023 0.793247 0.220916
0.784409 0.787974 0.220916
0.986695 0.782697 0.220916
0.220916 0.986695 0.220916
0.220916 0.986695 0.220916
0.345531 0.986695 0.220916
0.799919 0.986695 0.256354
0.986695 0.986695 0.414998
0.220916 0.220916 0.238406
0.220916 0.220916 0.243659
0.308528 0.220916 0.260241
0.701881 0.220916 0.281181
0.986695 0.220916 0.255577
0.220916 0.220916 0.256071
0.220916 0.220916 0.260993
0.338513 0.220916 0.274151
0.740363 0.220916 0.283941
0.986695 0.220916 0.235614
0.220916 0.362451 0.283753
0.220916 0.366288 0.279698
0.379038 0.373860 0.263212
0.801753 0.369599 0.232799
0.986695 0.357298 0.227728
0.220916 0.796578 0.227383
0.220916 0.795720 0.226930
0.345583 0.792954 0.225584
0.784109 0.787677 0.223486
0.986695 0.782774 0.220950
0.220916 0.986695 0.222516
0.220916 0.986695 0.225844
0.348521 0.986695 0.248267
0.801389 0.986695 0.327404
0.986695 0.986695 0.491205
0.220916 0.220916 0.374464
0.220916 0.220916 0.388205
0.318907 0.220916 0.427516
0.715278 0.220916 0.481080
0.986695 0.220916 0.487210
0.220916 0.220916 0.417909
0.220916 0.220916 0.429247
0.346783 0.220916 0.460589
0.750557 0.220916 0.497219
0.986695 0.220916 0.473691
0.220916 0.366597 0.497344
0.220916 0.369677 0.497061
0.377685 0.374769 0.491490
0.800829 0.368168 0.471874
0.986695 0.355876 0.459681
0.220916 0.795643 0.458714
0.220916 0.794782 0.457410
0.344174 0.792010 0.453223
0.783147 0.786722 0.445287
0.986695 0.783019 0.422606
0.220916 0.986695 0.452267
0.220916 0.986695 0.464029
0.358370 0.986695 0.503037
0.806205 0.986695 0.580852
0.986695 0.986695 0.705612
0.220916 0.220916 0.679800
0.220916 0.220916 0.697568
0.336785 0.220916 0.747960
0.738145 0.220916 0.819306
0.986695 0.220916 0.865201
0.220916 0.220916 0.735645
0.220916 0.220916 0.750183
0.360279 0.220916 0.791056
0.766774 0.220916 0.841828
0.986695 0.220916 0.864817
0.220916 0.372167 0.844494
0.220916 0.373787 0.849271
0.372821 0.374179 0.861510
0.799076 0.365464 0.863826
0.986695 0.353192 0.857108
0.220916 0.793869 0.856570
0.220916 0.793004 0.855843
0.341516 0.790221 0.853501
0.781323 0.784912 0.849023
0.986695 0.783483 0.832887
0.220916 0.986695 0.859024
0.220916 0.986695 0.863656
0.378028 0.986695 0.878933
0.815708 0.986695 0.908714
0.986695 0.986695 0.952284
0.220916 0.220916 0.976613
0.220916 0.220916 0.981826
0.359233 0.220916 0.986695
0.765483 0.220916 0.986695
0.986695 0.220916 0.986695
0.220916 0.220916 0.986695
0.221019 0.220916 0.986695
0.375405 0.220916 0.986695
0.786921 0.220916 0.986695
0.986695 0.220916 0.986695
0.220916 0.374848 0.986695
0.220916 0.374199 0.986695
0.363913 0.369241 0.986695
0.796349 0.361286 0.986695
0.986695 0.349047 0.986695
0.220916 0.791108 0.986695
0.220916 0.790239 0.986695
0.337416 0.787438 0.986695
0.778485 0.782096 0.986695
0.986695 0.784417 0.986695
0.220916 0.986695 0.986695
0.220916 0.986695 0.986695
0.410937 0.986695 0.986695
0.831331 0.986695 0.986695
0.986695 0.986695 0.986695
