studio/assets/luts/rag-vectors.cube
TITLE "RAG & Vectors — Neon Tech"
# Deep purple shadows, neon blue highlights. Technical, modern feel.
# Generated by Like One Studio — cinema-grade pipeline
# Color science: lift/gamma/gain + filmic S-curve + zone tinting
LUT_3D_SIZE 9
# Domain: standard 0-1 range
DOMAIN_MIN 0.0 0.0 0.0
DOMAIN_MAX 1.0 1.0 1.0
0.220916 0.220916 0.221842
0.220916 0.220916 0.222173
0.220916 0.220916 0.223183
0.226495 0.220916 0.225413
0.305179 0.220916 0.229209
0.475049 0.220916 0.233943
0.697511 0.220916 0.237300
0.913444 0.220916 0.235564
0.986695 0.220916 0.221885
0.220916 0.220916 0.223104
0.220916 0.220916 0.223551
0.220916 0.220916 0.224797
0.229440 0.220916 0.227262
0.314405 0.220916 0.231043
0.487099 0.220916 0.235256
0.709490 0.220916 0.237495
0.920972 0.220916 0.232569
0.986695 0.220916 0.221002
0.220916 0.220916 0.227530
0.220916 0.220916 0.228093
0.220916 0.220916 0.229519
0.237795 0.220916 0.231939
0.335781 0.220916 0.234965
0.514593 0.220916 0.237278
0.736858 0.220916 0.236467
0.937422 0.220916 0.225472
0.986695 0.220916 0.220916
0.220916 0.235085 0.235095
0.220916 0.235858 0.235445
0.220924 0.237766 0.236219
0.250869 0.240878 0.237159
0.364845 0.244587 0.237430
0.552716 0.247253 0.235565
0.772509 0.246712 0.225331
0.958507 0.239152 0.220916
0.986695 0.232726 0.220916
0.220916 0.361090 0.235972
0.220916 0.362226 0.235664
0.220916 0.365061 0.233576
0.254273 0.369264 0.229581
0.379286 0.373403 0.224318
0.577939 0.374786 0.220916
0.802041 0.370046 0.220916
0.962405 0.364462 0.220916
0.986695 0.357742 0.220916
0.220916 0.583637 0.220916
0.220916 0.584260 0.220916
0.220916 0.584811 0.220916
0.231511 0.583292 0.220916
0.361009 0.581002 0.220916
0.572996 0.577852 0.220916
0.794442 0.573762 0.220916
0.959305 0.568654 0.220916
0.986695 0.562455 0.220916
0.220916 0.796870 0.220916
0.220916 0.796628 0.220916
0.220916 0.796011 0.220916
0.225844 0.794910 0.220916
0.346023 0.793247 0.220916
0.559107 0.790956 0.220916
0.784409 0.787974 0.220916
0.955039 0.784238 0.220916
0.986695 0.782697 0.220916
0.220916 0.956658 0.220916
0.220916 0.956552 0.220916
0.220916 0.956283 0.220916
0.221720 0.955800 0.220916
0.324827 0.955809 0.220916
0.534054 0.956064 0.220916
0.761507 0.956392 0.220916
0.945764 0.958616 0.220916
0.986695 0.962472 0.220916
0.220916 0.986695 0.220916
0.220916 0.986695 0.220916
0.220916 0.986695 0.220916
0.222132 0.986695 0.220916
0.345531 0.986695 0.220916
0.572459 0.986695 0.226259
0.799919 0.986695 0.256354
0.960148 0.986695 0.319825
0.986695 0.986695 0.414998
0.220916 0.220916 0.224488
0.220916 0.220916 0.225135
0.220916 0.220916 0.226923
0.226775 0.220916 0.230444
0.306129 0.220916 0.235938
0.476298 0.220916 0.242528
0.698753 0.220916 0.247506
0.914234 0.220916 0.246225
0.986695 0.220916 0.226852
0.220916 0.220916 0.226790
0.220916 0.220916 0.227533
0.220916 0.220916 0.229506
0.229755 0.220916 0.233166
0.315312 0.220916 0.238500
0.488276 0.220916 0.244378
0.710660 0.220916 0.247992
0.921697 0.220916 0.242633
0.986695 0.220916 0.224118
0.220916 0.220916 0.233553
0.220916 0.220916 0.234358
0.220916 0.220916 0.236373
0.238130 0.220916 0.239743
0.336559 0.220916 0.243964
0.515591 0.220916 0.247464
0.737855 0.220916 0.247357
0.938000 0.220916 0.233157
0.986695 0.220916 0.220916
0.220916 0.235349 0.244149
0.220916 0.236118 0.244648
0.220927 0.238013 0.245776
0.251090 0.241092 0.247251
0.365348 0.244735 0.248085
0.553298 0.247310 0.246228
0.773153 0.246620 0.232945
0.958874 0.238912 0.221258
0.986695 0.232669 0.220916
0.220916 0.361482 0.246874
0.220916 0.362602 0.246546
0.220916 0.365415 0.243857
0.254105 0.369532 0.238859
0.379225 0.373540 0.231364
0.578104 0.374743 0.223170
0.801960 0.369920 0.220916
0.962372 0.364336 0.220916
0.986695 0.357617 0.220916
0.220916 0.583854 0.220916
0.220916 0.584460 0.220916
0.220916 0.584698 0.220916
0.231456 0.583179 0.220916
0.360884 0.580888 0.220916
0.572882 0.577738 0.220916
0.794360 0.573647 0.220916
0.959270 0.568539 0.220916
0.986695 0.562339 0.220916
0.220916 0.796788 0.220916
0.220916 0.796546 0.220916
0.220916 0.795929 0.220916
0.225805 0.794827 0.220916
0.345899 0.793164 0.220916
0.558991 0.790873 0.220916
0.784324 0.787890 0.220916
0.955002 0.784154 0.220916
0.986695 0.782719 0.220916
0.220916 0.956622 0.220916
0.220916 0.956517 0.220916
0.220916 0.956247 0.220916
0.221704 0.955763 0.220916
0.324531 0.955819 0.220916
0.533762 0.956073 0.220916
0.761290 0.956401 0.220916
0.945801 0.958690 0.220916
0.986695 0.962553 0.220916
0.220916 0.986695 0.220916
0.220916 0.986695 0.220916
0.220916 0.986695 0.220916
0.222281 0.986695 0.220916
0.346371 0.986695 0.222172
0.573152 0.986695 0.236228
0.800332 0.986695 0.274244
0.960279 0.986695 0.341589
0.986695 0.986695 0.436760
0.220916 0.220916 0.238406
0.220916 0.220916 0.239871
0.220916 0.220916 0.243659
0.227508 0.220916 0.250460
0.308528 0.220916 0.260241
0.479444 0.220916 0.271607
0.701881 0.220916 0.281181
0.916212 0.220916 0.282384
0.986695 0.220916 0.255577
0.220916 0.220916 0.243387
0.220916 0.220916 0.244887
0.220916 0.220916 0.248707
0.230567 0.220916 0.255386
0.317603 0.220916 0.264654
0.491240 0.220916 0.274900
0.713605 0.220916 0.282652
0.923514 0.220916 0.278264
0.986695 0.220916 0.249828
0.220916 0.220916 0.256071
0.220916 0.220916 0.257489
0.220916 0.220916 0.260993
0.238979 0.220916 0.266789
0.338513 0.220916 0.274151
0.518099 0.220916 0.281077
0.740363 0.220916 0.283941
0.939446 0.220916 0.265897
0.986695 0.220916 0.235614
0.220916 0.236014 0.274484
0.220916 0.236772 0.275391
0.220935 0.238632 0.277508
0.251637 0.241625 0.280566
0.366601 0.245096 0.283357
0.554743 0.247439 0.282388
0.774770 0.246369 0.265587
0.959787 0.238292 0.240299
0.986695 0.232522 0.231095
0.220916 0.362451 0.283753
0.220916 0.363598 0.282740
0.220916 0.366288 0.279698
0.253658 0.370185 0.273636
0.379038 0.373860 0.263212
0.578497 0.374603 0.247407
0.801753 0.369599 0.232799
0.962289 0.364016 0.230345
0.986695 0.357298 0.227728
0.220916 0.584381 0.235478
0.220916 0.584943 0.233956
0.220916 0.584408 0.233030
0.231316 0.582889 0.232258
0.360564 0.580598 0.231138
0.572589 0.577447 0.229688
0.794149 0.573355 0.227963
0.959183 0.568245 0.226065
0.986695 0.562043 0.224152
0.220916 0.796578 0.227383
0.220916 0.796336 0.227254
0.220916 0.795720 0.226930
0.225707 0.794617 0.226373
0.345583 0.792954 0.225584
0.558695 0.790661 0.224596
0.784109 0.787677 0.223486
0.954909 0.783939 0.222376
0.986695 0.782774 0.220950
0.220916 0.956531 0.222426
0.220916 0.956425 0.222362
0.220916 0.956155 0.222205
0.221664 0.955671 0.221948
0.323777 0.955842 0.221163
0.533020 0.956097 0.220916
0.760737 0.956425 0.220916
0.945893 0.958878 0.220916
0.986695 0.962760 0.233432
0.220916 0.986695 0.222516
0.220916 0.986695 0.223270
0.220916 0.986695 0.225844
0.222698 0.986695 0.232728
0.348521 0.986695 0.248267
0.574923 0.986695 0.278137
0.801389 0.986695 0.327404
0.960614 0.986695 0.398576
0.986695 0.986695 0.491205
0.220916 0.220916 0.282952
0.220916 0.220916 0.285673
0.220916 0.220916 0.292509
0.228874 0.220916 0.304251
0.312740 0.220916 0.320487
0.484938 0.220916 0.339286
0.707341 0.220916 0.356836
0.919636 0.220916 0.364298
0.986695 0.220916 0.340023
0.220916 0.220916 0.292027
0.220916 0.220916 0.294673
0.220916 0.220916 0.301275
0.232047 0.220916 0.312487
0.321611 0.220916 0.327729
0.496409 0.220916 0.344947
0.718743 0.220916 0.360279
0.926656 0.220916 0.361184
0.986695 0.220916 0.333596
0.220916 0.220916 0.313621
0.220916 0.220916 0.315961
0.220916 0.220916 0.321721
0.240474 0.220916 0.331247
0.341905 0.220916 0.343642
0.522461 0.220916 0.356613
0.744732 0.220916 0.366185
0.941939 0.220916 0.350426
0.986695 0.220916 0.314933
0.220916 0.237177 0.344220
0.220916 0.237912 0.345812
0.220954 0.239700 0.349620
0.252547 0.242527 0.355539
0.368732 0.245679 0.362299
0.557219 0.247600 0.364301
0.777569 0.245858 0.350133
0.961354 0.237153 0.321580
0.986695 0.232262 0.309619
0.220916 0.364200 0.365339
0.220916 0.365270 0.364553
0.220916 0.367741 0.362299
0.252794 0.371245 0.357383
0.378599 0.374324 0.347847
0.579102 0.374249 0.330726
0.801385 0.369028 0.313194
0.962141 0.363446 0.307968
0.986695 0.356730 0.301742
0.220916 0.585078 0.314902
0.220916 0.584744 0.314552
0.220916 0.583893 0.313663
0.231068 0.582372 0.312082
0.359995 0.580080 0.309711
0.572067 0.576928 0.306480
0.793774 0.572834 0.302337
0.959027 0.567721 0.297249
0.986695 0.561516 0.291211
0.220916 0.796205 0.300851
0.220916 0.795963 0.300512
0.220916 0.795346 0.299653
0.225535 0.794242 0.298124
0.345020 0.792577 0.295838
0.558166 0.790283 0.292728
0.783725 0.787296 0.288752
0.954742 0.783555 0.283891
0.986695 0.782872 0.271007
0.220916 0.956368 0.284138
0.220916 0.956262 0.283819
0.220916 0.955991 0.283008
0.221508 0.955698 0.280710
0.322436 0.955884 0.274564
0.531695 0.956139 0.266465
0.759750 0.956466 0.256646
0.946058 0.959213 0.267708
0.986695 0.963137 0.317811
0.220916 0.986695 0.289119
0.220916 0.986695 0.292316
0.220916 0.986695 0.300697
0.223585 0.986695 0.316452
0.352406 0.986695 0.341864
0.578110 0.986695 0.379412
0.803293 0.986695 0.431352
0.961218 0.986695 0.499186
0.986695 0.986695 0.583100
0.220916 0.220916 0.374464
0.220916 0.220916 0.378407
0.220916 0.220916 0.388205
0.231041 0.220916 0.404791
0.318907 0.220916 0.427516
0.492924 0.220916 0.454209
0.715278 0.220916 0.481080
0.924542 0.220916 0.497320
0.986695 0.220916 0.487210
0.220916 0.220916 0.387518
0.220916 0.220916 0.391281
0.220916 0.220916 0.400608
0.234327 0.220916 0.416324
0.327448 0.220916 0.437698
0.503910 0.220916 0.462525
0.726205 0.220916 0.487026
0.931152 0.220916 0.496827
0.986695 0.220916 0.483327
0.220916 0.220916 0.417909
0.220916 0.220916 0.421182
0.220916 0.220916 0.429247
0.242664 0.220916 0.442678
0.346783 0.220916 0.460589
0.528756 0.220916 0.480707
0.750557 0.220916 0.497219
0.945491 0.220916 0.492762
0.986695 0.220916 0.473691
0.220916 0.238855 0.461444
0.220916 0.239547 0.463815
0.220985 0.241209 0.469584
0.253759 0.243758 0.478936
0.371689 0.246405 0.490777
0.560700 0.247678 0.497320
0.781580 0.244939 0.492621
0.963566 0.235374 0.475395
0.986695 0.231876 0.468110
0.220916 0.366597 0.497344
0.220916 0.367537 0.497334
0.220916 0.369677 0.497061
0.251338 0.372586 0.495692
0.377685 0.374769 0.491490
0.579783 0.373462 0.481506
0.800829 0.368168 0.471874
0.961918 0.362589 0.466359
0.986695 0.355876 0.459681
0.220916 0.584303 0.473659
0.220916 0.583968 0.473294
0.220916 0.583116 0.472365
0.230701 0.581595 0.470706
0.359140 0.579301 0.468208
0.571282 0.576146 0.464775
0.793208 0.572048 0.460324
0.958791 0.566932 0.454779
0.986695 0.560723 0.448066
0.220916 0.795643 0.458714
0.220916 0.795400 0.458347
0.220916 0.794782 0.457410
0.225281 0.793678 0.455740
0.344174 0.792010 0.453223
0.557370 0.789713 0.449767
0.783147 0.786722 0.445287
0.954489 0.782976 0.439707
0.986695 0.783019 0.422606
0.220916 0.956122 0.439994
0.220916 0.956015 0.439624
0.220916 0.955743 0.438681
0.221299 0.955761 0.434352
0.320422 0.955947 0.426988
0.529699 0.956201 0.416865
0.758260 0.956529 0.403743
0.946306 0.959713 0.424415
0.986695 0.963724 0.480675
0.220916 0.986695 0.452267
0.220916 0.986695 0.455563
0.220916 0.986695 0.464029
0.225270 0.986695 0.479379
0.358370 0.986695 0.503037
0.582975 0.986695 0.536422
0.806205 0.986695 0.580852
0.962138 0.986695 0.637249
0.986695 0.986695 0.705612
0.220916 0.220916 0.511604
0.220916 0.220916 0.516399
0.220916 0.220916 0.528285
0.234147 0.220916 0.548356
0.327000 0.220916 0.575910
0.503334 0.220916 0.608763
0.725632 0.220916 0.643372
0.930809 0.220916 0.667660
0.986695 0.220916 0.675008
0.220916 0.220916 0.527453
0.220916 0.220916 0.532010
0.220916 0.220916 0.543296
0.237484 0.220916 0.562316
0.335054 0.220916 0.588346
0.513662 0.220916 0.619229
0.735927 0.220916 0.651493
0.936882 0.220916 0.670176
0.986695 0.220916 0.674697
0.220916 0.220916 0.564238
0.220916 0.220916 0.568209
0.220916 0.220916 0.578018
0.245507 0.220916 0.594465
0.353016 0.220916 0.616778
0.536875 0.220916 0.642872
0.757951 0.220916 0.664822
0.949990 0.220916 0.674202
0.986695 0.220916 0.672307
0.220916 0.240981 0.617860
0.220916 0.241600 0.620867
0.221018 0.243056 0.628256
0.255096 0.245181 0.640504
0.375254 0.247096 0.656771
0.565002 0.247466 0.667657
0.786695 0.243399 0.674254
0.963794 0.234479 0.673189
0.986695 0.231356 0.667688
0.220916 0.369394 0.666536
0.220916 0.370155 0.667402
0.220916 0.371838 0.669391
0.249055 0.373932 0.672186
0.375935 0.374883 0.674594
0.580267 0.371887 0.674411
0.800066 0.366989 0.670804
0.961610 0.361413 0.666236
0.986695 0.354706 0.660682
0.220916 0.583238 0.672280
0.220916 0.582903 0.671979
0.220916 0.582050 0.671210
0.230207 0.580527 0.669838
0.357966 0.578230 0.667769
0.570203 0.575072 0.664920
0.792432 0.570970 0.661218
0.958465 0.565849 0.656591
0.986695 0.559633 0.650967
0.220916 0.794870 0.659876
0.220916 0.794627 0.659570
0.220916 0.794008 0.658789
0.224945 0.792902 0.657394
0.343015 0.791231 0.655290
0.556277 0.788930 0.652394
0.782353 0.785934 0.648631
0.954142 0.782182 0.643928
0.986695 0.783222 0.627464
0.220916 0.955782 0.644171
0.220916 0.955675 0.643858
0.220916 0.955724 0.641634
0.221086 0.955848 0.637490
0.317672 0.956034 0.631215
0.526955 0.956288 0.622530
0.758385 0.957106 0.616714
0.946624 0.960359 0.637167
0.986695 0.964565 0.680595
0.220916 0.986695 0.659967
0.220916 0.986695 0.662368
0.220916 0.986695 0.668524
0.228278 0.986695 0.679657
0.366775 0.986695 0.696748
0.589781 0.986695 0.720744
0.810286 0.986695 0.752471
0.963424 0.986695 0.792365
0.986695 0.986695 0.839944
0.220916 0.220916 0.679800
0.220916 0.220916 0.684916
0.220916 0.220916 0.697568
0.238228 0.220916 0.718856
0.336785 0.220916 0.747960
0.515882 0.220916 0.782594
0.738145 0.220916 0.819306
0.938168 0.220916 0.846315
0.986695 0.220916 0.865201
0.220916 0.220916 0.696684
0.220916 0.220916 0.701527
0.220916 0.220916 0.713497
0.241482 0.220916 0.733616
0.344163 0.220916 0.761070
0.525370 0.220916 0.793647
0.747481 0.220916 0.827600
0.943588 0.220916 0.850692
0.986695 0.220916 0.866514
0.220916 0.220916 0.735645
0.220916 0.220916 0.739837
0.220916 0.220916 0.750183
0.248825 0.220916 0.767518
0.360279 0.220916 0.791056
0.546506 0.220916 0.818770
0.766774 0.220916 0.841828
0.955209 0.220916 0.859985
0.986695 0.220916 0.864817
0.220916 0.243359 0.792200
0.220916 0.243864 0.795380
0.221026 0.245011 0.803206
0.256241 0.246530 0.816239
0.377921 0.247618 0.831786
0.569766 0.246648 0.846310
0.792670 0.240975 0.860168
0.963409 0.233741 0.865399
0.986695 0.230700 0.861765
0.220916 0.372167 0.844494
0.220916 0.372696 0.845890
0.220916 0.373787 0.849271
0.245665 0.374822 0.854705
0.372821 0.374179 0.861510
0.579456 0.369957 0.866235
0.799076 0.365464 0.863826
0.961209 0.359893 0.860802
0.986695 0.353192 0.857108
0.220916 0.581858 0.864800
0.220916 0.581522 0.864601
0.220916 0.580668 0.864094
0.229586 0.579143 0.863188
0.356449 0.576844 0.861818
0.568805 0.573681 0.859929
0.791424 0.569574 0.857465
0.958042 0.564446 0.854373
0.986695 0.558222 0.850597
0.220916 0.793869 0.856570
0.220916 0.793625 0.856365
0.220916 0.793004 0.855843
0.224528 0.791895 0.854911
0.341516 0.790221 0.853501
0.554862 0.787915 0.851557
0.781323 0.784912 0.849023
0.953089 0.782326 0.844332
0.986695 0.783483 0.832887
0.220916 0.955740 0.844810
0.220916 0.955767 0.844193
0.220916 0.955837 0.842615
0.220937 0.955960 0.839782
0.314134 0.956145 0.835473
0.523395 0.956399 0.829473
0.759337 0.958021 0.831772
0.947065 0.961175 0.846715
0.986695 0.965710 0.870194
0.220916 0.986695 0.859024
0.220916 0.986695 0.860323
0.220916 0.986695 0.863656
0.233374 0.986695 0.869686
0.378028 0.986695 0.878933
0.598809 0.986695 0.891853
0.815708 0.986695 0.908714
0.965119 0.986695 0.929295
0.986695 0.986695 0.952284
0.220916 0.220916 0.852966
0.220916 0.220916 0.857455
0.220916 0.220916 0.868438
0.243118 0.220916 0.886493
0.347783 0.220916 0.910162
0.530053 0.220916 0.936345
0.751736 0.220916 0.960011
0.946216 0.220916 0.975399
0.986695 0.220916 0.983210
0.220916 0.220916 0.867676
0.220916 0.220916 0.871837
0.220916 0.220916 0.882002
0.246081 0.220916 0.898658
0.354269 0.220916 0.920361
0.538520 0.220916 0.944118
0.759453 0.220916 0.964248
0.950891 0.220916 0.977704
0.986695 0.220916 0.983081
0.220916 0.220916 0.900306
0.220916 0.220916 0.903688
0.220947 0.220916 0.911913
0.252243 0.220916 0.925256
0.368013 0.220916 0.942325
0.556381 0.220916 0.959744
0.776617 0.220916 0.972904
0.960824 0.220916 0.982092
0.986695 0.220916 0.982743
0.220916 0.245617 0.943119
0.220916 0.245958 0.945306
0.220979 0.246673 0.950560
0.256378 0.247449 0.958472
0.379377 0.247482 0.966901
0.574441 0.244810 0.975397
0.799120 0.237404 0.982170
0.962927 0.232849 0.982860
0.986695 0.229911 0.982103
0.220916 0.374278 0.974402
0.220916 0.374517 0.975168
0.220916 0.374870 0.976970
0.240916 0.374588 0.979690
0.367617 0.371964 0.982735
0.577734 0.368059 0.983026
0.797843 0.363570 0.982539
0.960706 0.358005 0.981893
0.986695 0.351313 0.981054
0.220916 0.580140 0.982739
0.220916 0.579804 0.982699
0.220916 0.578948 0.982595
0.228840 0.577420 0.982406
0.354566 0.575117 0.982115
0.567065 0.571949 0.981700
0.790169 0.567835 0.981137
0.957511 0.562699 0.980398
0.986695 0.556465 0.979446
0.220916 0.792620 0.980927
0.220916 0.792376 0.980878
0.220916 0.791754 0.980754
0.224040 0.790641 0.980529
0.339656 0.788963 0.980183
0.553099 0.786649 0.979693
0.780039 0.783638 0.979035
0.951682 0.782652 0.977166
0.986695 0.783808 0.973653
0.220916 0.955879 0.977304
0.220916 0.955907 0.977125
0.220916 0.955976 0.976665
0.220916 0.956099 0.975817
0.309770 0.956284 0.974481
0.518957 0.956537 0.972529
0.760518 0.959140 0.975731
0.947774 0.962305 0.979208
0.986695 0.967214 0.983103
0.220916 0.986695 0.981349
0.220916 0.986695 0.981564
0.220916 0.986695 0.982102
0.241587 0.986695 0.983028
0.392582 0.986695 0.984303
0.610361 0.986695 0.985712
0.822658 0.986695 0.986661
0.967262 0.986695 0.986695
0.986695 0.986695 0.986695
0.220916 0.220916 0.976613
0.220916 0.220916 0.978276
0.220916 0.220916 0.981826
0.248350 0.220916 0.985751
0.359233 0.220916 0.986695
0.545102 0.220916 0.986695
0.765483 0.220916 0.986695
0.954456 0.220916 0.986695
0.986695 0.220916 0.986695
0.220916 0.220916 0.981606
0.220916 0.220916 0.982761
0.220922 0.220916 0.985029
0.250758 0.220916 0.986692
0.364594 0.220916 0.986695
0.552370 0.220916 0.986695
0.772188 0.220916 0.986695
0.958325 0.220916 0.986695
0.986695 0.220916 0.986695
0.220916 0.220916 0.986695
0.220916 0.220916 0.986695
0.221019 0.220916 0.986695
0.255148 0.220916 0.986695
0.375405 0.220916 0.986695
0.565188 0.220916 0.986695
0.786921 0.220916 0.986695
0.963780 0.220916 0.986695
0.986695 0.220916 0.986695
0.220916 0.247172 0.986695
0.220916 0.247317 0.986695
0.220916 0.247613 0.986695
0.253929 0.247553 0.986695
0.379155 0.246059 0.986695
0.578266 0.241498 0.986695
0.801877 0.234417 0.986695
0.962339 0.231809 0.986695
0.986695 0.229000 0.986695
0.220916 0.374848 0.986695
0.220916 0.374737 0.986695
0.220916 0.374199 0.986695
0.234760 0.372328 0.986695
0.363913 0.369241 0.986695
0.575651 0.365770 0.986695
0.796349 0.361286 0.986695
0.960093 0.355729 0.986695
0.986695 0.349047 0.986695
0.220916 0.578061 0.986695
0.220916 0.577725 0.986695
0.220916 0.576867 0.986695
0.227982 0.575337 0.986695
0.352295 0.573029 0.986695
0.564961 0.569854 0.986695
0.788649 0.565732 0.986695
0.956865 0.560586 0.986695
0.986695 0.554340 0.986695
0.220916 0.791108 0.986695
0.220916 0.790863 0.986695
0.220916 0.790239 0.986695
0.223497 0.789123 0.986695
0.337416 0.787438 0.986695
0.550968 0.785117 0.986695
0.778485 0.782096 0.986695
0.949948 0.783045 0.986695
0.986695 0.784417 0.986695
0.220916 0.956047 0.986695
0.220916 0.956074 0.986695
0.220916 0.956143 0.986695
0.220916 0.956266 0.986695
0.304559 0.956451 0.986695
0.520409 0.957838 0.986695
0.762703 0.960423 0.986695
0.948861 0.963828 0.986695
0.986695 0.969127 0.986695
0.220916 0.986695 0.986695
0.220916 0.986695 0.986695
0.220916 0.986695 0.986695
0.254171 0.986695 0.986695
0.410937 0.986695 0.986695
0.624768 0.986695 0.986695
0.831331 0.986695 0.986695
0.969874 0.986695 0.986695
0.986695 0.986695 0.986695
